XH2_FLog2C_FGamutC_to_ETERNA-BB_BT.709_33grid_V.1.00.cube
#title:FLog2C_FGamutC_to_ETERNA-BB_BT.709
#FUJIFILM Corporation
#Gamma:F-Log2C to ETERNA BLEACH BYPASS
#Gamut:F-GamutC to ITU-R BT.709
#Version:1.00
LUT_3D_SIZE 9
0.000000 0.000000 0.000000
0.053559 0.010784 0.009593
0.335033 0.070401 0.052285
0.734652 0.268157 0.230274
0.840235 0.458852 0.402012
0.840235 0.458852 0.402012
0.840235 0.458852 0.402012
0.840235 0.458852 0.402012
0.840235 0.458852 0.402012
0.003878 0.038235 0.007109
0.022471 0.013818 0.006972
0.161269 0.026022 0.016976
0.616087 0.155605 0.152800
0.840235 0.458852 0.402012
0.840235 0.458852 0.402012
0.840235 0.458852 0.402012
0.840235 0.458852 0.402012
0.840235 0.458852 0.402012
0.026431 0.184046 0.019527
0.019644 0.118874 0.013120
0.112133 0.103129 0.014372
0.451495 0.136729 0.090609
0.797697 0.373927 0.325531
0.840235 0.458852 0.402012
0.840235 0.458852 0.402012
0.840235 0.458852 0.402012
0.840235 0.458852 0.402012
0.032474 0.631927 0.224551
0.000000 0.470481 0.131812
0.072040 0.340275 0.072020
0.370205 0.316195 0.107860
0.817141 0.504513 0.313140
0.897985 0.593486 0.448200
0.875351 0.541686 0.431633
0.858578 0.496754 0.415733
0.840235 0.458852 0.402012
0.495369 0.918313 0.371286
0.377922 0.865030 0.319785
0.236645 0.783260 0.280433
0.459363 0.738237 0.296469
0.821599 0.774330 0.368406
0.942013 0.775473 0.466442
0.936194 0.720256 0.474769
0.918453 0.662008 0.461441
0.905405 0.603646 0.453527
0.593103 0.932715 0.417715
0.567109 0.928344 0.388469
0.541509 0.922299 0.358247
0.601912 0.930940 0.360918
0.792910 0.941612 0.387523
0.945804 0.930476 0.412211
0.950916 0.881588 0.479202
0.950171 0.838268 0.481500
0.946888 0.790343 0.479890
0.599356 0.933875 0.438173
0.592126 0.932410 0.413278
0.588614 0.929855 0.392820
0.593698 0.930419 0.385145
0.701016 0.946660 0.396966
0.883014 0.964192 0.428985
0.950265 0.960944 0.474918
0.949107 0.942632 0.478021
0.953816 0.919184 0.483605
0.607560 0.935646 0.467504
0.597009 0.934604 0.432004
0.589782 0.933139 0.407110
0.586267 0.930248 0.388382
0.642565 0.940981 0.391056
0.793867 0.959202 0.422938
0.927190 0.970835 0.450246
0.944978 0.972091 0.457081
0.945955 0.972396 0.461519
0.612634 0.938803 0.506464
0.603262 0.934757 0.457653
0.594080 0.932684 0.423883
0.591543 0.931440 0.402672
0.606403 0.933464 0.387544
0.725450 0.951100 0.404245
0.879883 0.964909 0.442075
0.950063 0.970976 0.458058
0.950063 0.970976 0.458058
0.000583 0.000298 0.014066
0.045937 0.006960 0.006442
0.296919 0.061604 0.043360
0.719812 0.247503 0.221348
0.840235 0.458852 0.402012
0.840235 0.458852 0.402012
0.840235 0.458852 0.402012
0.840235 0.458852 0.402012
0.840235 0.458852 0.402012
0.005821 0.046142 0.038395
0.016602 0.016602 0.016602
0.140349 0.026489 0.018038
0.582279 0.139388 0.136507
0.840235 0.458852 0.402012
0.840235 0.458852 0.402012
0.840235 0.458852 0.402012
0.840235 0.458852 0.402012
0.840235 0.458852 0.402012
0.033239 0.209752 0.109168
0.035069 0.134448 0.063801
0.103132 0.107973 0.030168
0.415524 0.135554 0.079645
0.780522 0.346705 0.288028
0.840235 0.458852 0.402012
0.840235 0.458852 0.402012
0.840235 0.458852 0.402012
0.840235 0.458852 0.402012
0.118643 0.674175 0.320683
0.013223 0.510035 0.217375
0.072595 0.365157 0.139472
0.344584 0.324075 0.125918
0.794278 0.493712 0.300222
0.901499 0.599740 0.449621
0.878866 0.547939 0.433055
0.863068 0.503648 0.419864
0.844533 0.461422 0.403211
0.510984 0.924433 0.495844
0.410350 0.878487 0.413864
0.267703 0.804472 0.338172
0.445269 0.752840 0.326777
0.800286 0.777480 0.365254
0.944158 0.784103 0.459211
0.938339 0.727542 0.474462
0.925289 0.669180 0.466547
0.907156 0.612941 0.452464
0.619864 0.940941 0.527898
0.588987 0.934375 0.479926
0.555764 0.927196 0.432708
0.592520 0.932417 0.403649
0.778242 0.943914 0.405582
0.939742 0.933975 0.392953
0.948761 0.886305 0.477694
0.951338 0.843904 0.483676
0.948056 0.796651 0.478606
0.628653 0.943344 0.569567
0.616934 0.940027 0.514586
0.606583 0.935005 0.464796
0.600724 0.934187 0.432981
0.689085 0.946557 0.420214
0.869131 0.965162 0.434708
0.949479 0.965636 0.469950
0.949690 0.945619 0.478242
0.952054 0.921891 0.482852
0.642133 0.945970 0.614918
0.627091 0.942070 0.554523
0.611658 0.938499 0.502028
0.604239 0.935734 0.458630
0.647055 0.940816 0.431524
0.785069 0.957039 0.440020
0.921129 0.969965 0.453484
0.944978 0.972091 0.457081
0.947325 0.972034 0.459789
0.647992 0.946116 0.650196
0.636857 0.945115 0.598898
0.624161 0.941156 0.541211
0.608337 0.939259 0.489692
0.615382 0.936495 0.451175
0.719187 0.950516 0.440809
0.870692 0.965427 0.454941
0.950063 0.970976 0.458058
0.950063 0.970976 0.458058
0.003313 0.003177 0.052051
0.046320 0.006870 0.057293
0.270321 0.059433 0.107164
0.701258 0.225253 0.221829
0.840235 0.458852 0.402012
0.840235 0.458852 0.402012
0.840235 0.458852 0.402012
0.840235 0.458852 0.402012
0.840235 0.458852 0.402012
0.017146 0.049453 0.103004
0.010149 0.010349 0.057157
0.125883 0.013718 0.078915
0.562920 0.133737 0.190684
0.841997 0.455474 0.406226
0.840235 0.458852 0.402012
0.840235 0.458852 0.402012
0.840235 0.458852 0.402012
0.840235 0.458852 0.402012
0.067600 0.243792 0.229254
0.054005 0.151234 0.141860
0.116211 0.116211 0.116211
0.405729 0.141969 0.166527
0.778769 0.332368 0.315047
0.843165 0.461782 0.404942
0.840235 0.458852 0.402012
0.840235 0.458852 0.402012
0.840235 0.458852 0.402012
0.212613 0.718429 0.514526
0.099371 0.566208 0.361788
0.095028 0.409177 0.230894
0.351583 0.353097 0.223680
0.792315 0.489647 0.369133
0.911847 0.610475 0.469991
0.880617 0.555890 0.438914
0.862868 0.509981 0.422039
0.845893 0.471383 0.408316
0.524436 0.935847 0.675914
0.445105 0.897746 0.600461
0.317709 0.828115 0.487899
0.452468 0.775191 0.424093
0.793420 0.786826 0.455067
0.952162 0.792543 0.488988
0.941067 0.735462 0.486488
0.929780 0.677081 0.465484
0.910670 0.619193 0.453887
0.649160 0.947720 0.673136
0.621213 0.944085 0.628093
0.584859 0.939638 0.583582
0.594645 0.937832 0.532954
0.767864 0.944990 0.504355
0.934448 0.935617 0.484051
0.952859 0.889831 0.508757
0.950745 0.851913 0.486828
0.947854 0.803322 0.479051
0.653258 0.949901 0.711121
0.648575 0.947422 0.659070
0.641156 0.945665 0.610480
0.627091 0.942742 0.551063
0.695520 0.948923 0.519656
0.862277 0.966201 0.507301
0.950838 0.969213 0.507934
0.950465 0.949233 0.500431
0.951270 0.925575 0.483075
0.650319 0.951246 0.746176
0.647982 0.948709 0.696832
0.648969 0.947429 0.649441
0.636857 0.945787 0.595438
0.662086 0.945966 0.545476
0.780559 0.956677 0.522242
0.916821 0.968982 0.504113
0.948493 0.972630 0.487922
0.947908 0.973004 0.470395
0.652070 0.953484 0.781454
0.650710 0.951253 0.736546
0.648767 0.947714 0.682766
0.648386 0.946795 0.637106
0.639988 0.945406 0.580618
0.725622 0.951873 0.545442
0.865598 0.964769 0.523097
0.949076 0.972928 0.501988
0.948885 0.971629 0.483485
0.017558 0.006970 0.192183
0.056277 0.006845 0.142667
0.256658 0.019643 0.167989
0.697341 0.214530 0.313011
0.862878 0.487896 0.475770
0.850382 0.473571 0.436672
0.845510 0.461055 0.411109
0.840235 0.458852 0.402012
0.840235 0.458852 0.402012
0.041963 0.029272 0.287461
0.015998 0.006703 0.171949
0.134280 0.010402 0.159629
0.552551 0.127516 0.267047
0.855073 0.465392 0.483616
0.857995 0.484357 0.463965
0.848823 0.471289 0.426820
0.840235 0.458852 0.402012
0.840235 0.458852 0.402012
0.137510 0.293838 0.473504
0.093249 0.176378 0.337778
0.136317 0.128551 0.248360
0.406877 0.151785 0.267167
0.776816 0.313947 0.397886
0.869512 0.498378 0.498625
0.856827 0.480400 0.453138
0.848237 0.469310 0.421405
0.840235 0.458852 0.402012
0.269446 0.754189 0.703884
0.199382 0.627608 0.588562
0.167867 0.468875 0.443465
0.394531 0.394531 0.394531
0.799524 0.495291 0.492493
0.932728 0.634831 0.581067
0.905021 0.580881 0.520347
0.876923 0.527933 0.464067
0.853312 0.480198 0.420567
0.528322 0.937211 0.812894
0.458756 0.905514 0.764512
0.360276 0.854178 0.687500
0.475092 0.804042 0.618813
0.795142 0.799869 0.614680
0.966800 0.799367 0.603917
0.959420 0.745901 0.581629
0.941096 0.691723 0.531739
0.920235 0.631597 0.484864
0.653632 0.954087 0.799958
0.632329 0.951283 0.767473
0.596951 0.945460 0.736052
0.600475 0.945086 0.711601
0.764702 0.947437 0.688503
0.934810 0.939035 0.636827
0.966330 0.890682 0.623243
0.960893 0.856885 0.571673
0.956442 0.810381 0.531546
0.651083 0.954429 0.830574
0.653047 0.953117 0.789352
0.653057 0.950860 0.740984
0.647982 0.949382 0.693372
0.719340 0.956140 0.677009
0.859317 0.969035 0.654664
0.956486 0.973917 0.614519
0.956899 0.952606 0.594679
0.954774 0.929379 0.557089
0.653622 0.955336 0.853516
0.652847 0.953738 0.820945
0.652463 0.952482 0.777016
0.652474 0.949889 0.730380
0.687275 0.953830 0.695907
0.790698 0.961553 0.667566
0.914646 0.973510 0.623567
0.952389 0.973752 0.566152
0.952590 0.972795 0.536288
0.650490 0.955044 0.871797
0.651275 0.956065 0.847347
0.653238 0.953744 0.811316
0.651878 0.951848 0.764679
0.653842 0.951209 0.719996
0.743381 0.958893 0.702570
0.866354 0.968527 0.664515
0.954141 0.976999 0.596239
0.951805 0.973118 0.553816
0.060910 0.013554 0.472895
0.091424 0.013341 0.385396
0.296505 0.023095 0.371223
0.710420 0.206300 0.483848
0.876136 0.508093 0.585421
0.877113 0.515455 0.553520
0.870095 0.499684 0.507499
0.860733 0.483299 0.462234
0.846869 0.469335 0.424866
0.079081 0.014049 0.534042
0.053289 0.013762 0.448977
0.176855 0.016732 0.400847
0.552781 0.051565 0.443367
0.841412 0.419553 0.575590
0.876136 0.509773 0.576770
0.879853 0.515068 0.548328
0.867950 0.494751 0.495695
0.855850 0.479760 0.450430
0.180901 0.279632 0.621313
0.139349 0.181326 0.559738
0.172248 0.131026 0.492593
0.451799 0.162092 0.490328
0.788526 0.303726 0.582566
0.878866 0.513995 0.607833
0.878089 0.513070 0.571800
0.873408 0.508238 0.531863
0.866784 0.491130 0.483136
0.307570 0.737876 0.782114
0.265627 0.641581 0.719785
0.219807 0.509402 0.638234
0.447639 0.436999 0.610512
0.804961 0.501530 0.685961
0.948526 0.656607 0.710199
0.929799 0.617451 0.652548
0.907951 0.570032 0.594226
0.881806 0.521389 0.527786
0.500958 0.917406 0.866711
0.448588 0.892622 0.840429
0.382545 0.854167 0.800476
0.487173 0.819515 0.781577
0.807617 0.807617 0.807617
0.988084 0.797611 0.779859
0.980694 0.761861 0.726335
0.964714 0.709979 0.667039
0.941699 0.656924 0.606543
0.643644 0.956515 0.882180
0.630356 0.953508 0.863985
0.600838 0.951191 0.850535
0.582856 0.947291 0.832116
0.746693 0.945938 0.837683
0.937127 0.939029 0.819247
0.979206 0.894836 0.765104
0.979247 0.857913 0.715266
0.973033 0.817141 0.658812
0.641883 0.955862 0.898731
0.646382 0.955792 0.878719
0.649907 0.956090 0.850808
0.652847 0.954410 0.817485
0.724596 0.959494 0.800145
0.862610 0.974710 0.813833
0.971508 0.982668 0.769918
0.966060 0.956506 0.739026
0.966675 0.933229 0.694516
0.637382 0.956938 0.913551
0.645597 0.956451 0.894515
0.645406 0.956160 0.870821
0.649322 0.954784 0.841933
0.680410 0.957126 0.816866
0.805135 0.968999 0.814090
0.919309 0.978823 0.781005
0.964873 0.980589 0.703801
0.960383 0.980082 0.666794
0.633668 0.957021 0.914305
0.638752 0.956913 0.910089
0.643252 0.957180 0.888348
0.649514 0.955076 0.865629
0.649715 0.954118 0.835764
0.747660 0.961607 0.823000
0.876684 0.976384 0.819692
0.966232 0.983157 0.746977
0.962920 0.981325 0.688004
0.104482 0.017019 0.614895
0.115436 0.017488 0.583747
0.363516 0.038235 0.597226
0.692489 0.111128 0.635447
0.870489 0.464067 0.681301
0.871455 0.484104 0.644120
0.873206 0.499785 0.610178
0.876136 0.510109 0.575039
0.877900 0.513450 0.544646
0.108197 0.016601 0.615872
0.102529 0.016746 0.604289
0.224717 0.023007 0.602796
0.594563 0.082656 0.636270
0.825242 0.330411 0.682949
0.870095 0.468094 0.670164
0.870670 0.489468 0.635691
0.875553 0.502081 0.600773
0.877113 0.512430 0.569094
0.159523 0.123759 0.631922
0.137695 0.042923 0.625688
0.164504 0.016674 0.613438
0.461834 0.056967 0.636958
0.782877 0.252643 0.714786
0.874587 0.468937 0.705442
0.870680 0.473096 0.660003
0.871647 0.492462 0.626286
0.875160 0.505436 0.593098
0.297539 0.585169 0.738102
0.271594 0.521117 0.716206
0.246050 0.445070 0.686500
0.461541 0.393204 0.705328
0.798930 0.445495 0.793285
0.935849 0.600413 0.801504
0.922771 0.586126 0.746610
0.903452 0.555315 0.690379
0.884130 0.524839 0.632418
0.462682 0.868275 0.860305
0.416763 0.839997 0.843652
0.372215 0.810687 0.828731
0.464129 0.780288 0.829843
0.785146 0.776659 0.888899
0.983010 0.762527 0.905294
0.975791 0.758132 0.835492
0.964103 0.718469 0.787692
0.953982 0.672783 0.732524
0.633668 0.957021 0.914305
0.621939 0.955289 0.911153
0.573073 0.945737 0.900051
0.539075 0.925532 0.879098
0.705448 0.926431 0.900684
0.926758 0.926758 0.926758
0.987987 0.892774 0.889750
0.989777 0.862796 0.850960
0.991185 0.824167 0.806313
0.633668 0.957021 0.914305
0.633668 0.957021 0.914305
0.638752 0.956577 0.911820
0.645991 0.955113 0.891809
0.707179 0.961750 0.885606
0.850468 0.979166 0.908390
0.980870 0.982251 0.901707
0.983830 0.956900 0.870284
0.978966 0.934732 0.834426
0.633668 0.957021 0.914305
0.633668 0.957021 0.914305
0.633668 0.957021 0.914305
0.637776 0.956273 0.907383
0.666125 0.957993 0.892700
0.792803 0.970812 0.897067
0.925148 0.985500 0.902633
0.979894 0.989676 0.857469
0.976774 0.988134 0.822191
0.633668 0.957021 0.914305
0.633668 0.957021 0.914305
0.633668 0.957021 0.914305
0.630346 0.955766 0.912352
0.642859 0.955829 0.904899
0.730243 0.965207 0.901540
0.873734 0.978305 0.911766
0.981647 0.990906 0.897937
0.978334 0.988065 0.844155
0.108197 0.016601 0.615872
0.108197 0.016601 0.615872
0.364674 0.043776 0.659882
0.701066 0.123804 0.719004
0.845540 0.360855 0.747078
0.857430 0.406281 0.730407
0.866592 0.443452 0.703438
0.872048 0.470719 0.668656
0.872040 0.489443 0.632230
0.108197 0.016601 0.615872
0.108197 0.016601 0.615872
0.198904 0.023202 0.635230
0.591613 0.090626 0.697195
0.751302 0.136692 0.709339
0.847874 0.373809 0.742777
0.860551 0.415887 0.724153
0.866391 0.452140 0.693500
0.871263 0.476419 0.658496
0.114258 0.016461 0.617825
0.108197 0.016601 0.615872
0.137130 0.017274 0.622176
0.417649 0.051909 0.667524
0.723345 0.131953 0.729969
0.845931 0.356156 0.761675
0.851972 0.384056 0.739231
0.863673 0.425831 0.716168
0.869320 0.457421 0.684316
0.283926 0.504182 0.711102
0.224855 0.312918 0.660153
0.181571 0.174253 0.639613
0.343818 0.199234 0.667949
0.696630 0.276847 0.756402
0.891388 0.457360 0.832348
0.901327 0.501505 0.810262
0.889808 0.488494 0.770410
0.880446 0.471772 0.726876
0.465611 0.871204 0.863234
0.399789 0.801399 0.829929
0.349640 0.694597 0.783262
0.411684 0.618231 0.765323
0.699431 0.650298 0.856333
0.946141 0.659307 0.933839
0.972317 0.693113 0.896712
0.960618 0.662428 0.862668
0.948334 0.630101 0.821480
0.633668 0.957021 0.914305
0.630346 0.955766 0.912352
0.559792 0.928374 0.895784
0.492773 0.885582 0.872160
0.644881 0.877457 0.900531
0.891400 0.885838 0.956075
0.988972 0.871666 0.944458
0.986656 0.841427 0.917782
0.985124 0.807839 0.889152
0.633668 0.957021 0.914305
0.633668 0.957021 0.914305
0.633668 0.957021 0.914305
0.633668 0.957021 0.914305
0.687035 0.962808 0.924431
0.818988 0.974801 0.953468
0.970703 0.970703 0.970703
0.989296 0.950655 0.948069
0.990685 0.930320 0.929207
0.633668 0.957021 0.914305
0.633668 0.957021 0.914305
0.633668 0.957021 0.914305
0.633668 0.957021 0.914305
0.649111 0.958670 0.916703
0.756822 0.970548 0.941390
0.916340 0.986939 0.961160
0.991604 0.996594 0.953894
0.989066 0.995015 0.934414
0.633668 0.957021 0.914305
0.633668 0.957021 0.914305
0.633668 0.957021 0.914305
0.633668 0.957021 0.914305
0.633668 0.957021 0.914305
0.705801 0.965041 0.932243
0.851828 0.980054 0.960219
0.977721 0.995211 0.971731
0.989651 0.995313 0.948480
0.108197 0.016601 0.615872
0.108197 0.016601 0.615872
0.239566 0.026279 0.641226
0.630704 0.100065 0.708829
0.754817 0.140591 0.722875
0.810029 0.272302 0.756503
0.834031 0.326766 0.755765
0.849827 0.375762 0.744730
0.859767 0.419909 0.722644
0.108197 0.016601 0.615872
0.108197 0.016601 0.615872
0.155312 0.017194 0.626305
0.450096 0.058836 0.675251
0.741327 0.138206 0.736274
0.761643 0.159767 0.726165
0.817057 0.285143 0.757617
0.836367 0.339383 0.753195
0.851187 0.387740 0.739452
0.118949 0.017356 0.618047
0.108197 0.016601 0.615872
0.118949 0.017020 0.619778
0.301339 0.032879 0.650821
0.655330 0.109837 0.713848
0.755400 0.141898 0.731749
0.794816 0.229988 0.748728
0.822715 0.298681 0.758732
0.842418 0.351919 0.749871
0.286836 0.529774 0.717321
0.232064 0.341750 0.664110
0.179035 0.168977 0.639167
0.235842 0.038029 0.641895
0.523396 0.074173 0.686711
0.790901 0.232036 0.774153
0.831495 0.313760 0.795121
0.840082 0.332916 0.785320
0.844371 0.350176 0.770859
0.481246 0.877179 0.868563
0.410532 0.813150 0.835482
0.351383 0.713879 0.790765
0.380041 0.585295 0.752356
0.597101 0.522700 0.788042
0.836603 0.503549 0.858134
0.923193 0.521221 0.891251
0.923193 0.523910 0.877406
0.915190 0.514461 0.852822
0.633668 0.957021 0.914305
0.631322 0.956742 0.913328
0.572106 0.933428 0.897430
0.497655 0.891136 0.873581
0.612836 0.857525 0.890183
0.842180 0.832634 0.939371
0.986292 0.798689 0.967468
0.987892 0.758335 0.956898
0.984005 0.733784 0.939320
0.633668 0.957021 0.914305
0.633668 0.957021 0.914305
0.633668 0.957021 0.914305
0.633668 0.957021 0.914305
0.675307 0.961076 0.921277
0.808246 0.962715 0.949648
0.949017 0.950849 0.975621
0.994199 0.926154 0.984273
0.990504 0.905927 0.969625
0.633668 0.957021 0.914305
0.633668 0.957021 0.914305
0.633668 0.957021 0.914305
0.633668 0.957021 0.914305
0.640705 0.958194 0.915504
0.751155 0.969014 0.938461
0.900111 0.986283 0.972829
1.000000 1.000000 1.000000
0.995511 0.993780 0.992410
0.633668 0.957021 0.914305
0.633668 0.957021 0.914305
0.633668 0.957021 0.914305
0.633668 0.957021 0.914305
0.633668 0.957021 0.914305
0.697787 0.963227 0.928337
0.841076 0.978963 0.959774
0.966184 0.994444 0.988813
1.000000 1.000000 1.000000
0.108197 0.016601 0.615872
0.108197 0.016601 0.615872
0.217085 0.023120 0.639360
0.572847 0.087722 0.692844
0.753639 0.143261 0.737918
0.754615 0.144237 0.738894
0.757353 0.143179 0.737163
0.773935 0.186812 0.734559
0.820963 0.289721 0.758062
0.108197 0.016601 0.615872
0.108197 0.016601 0.615872
0.144559 0.016438 0.624129
0.415696 0.049284 0.669031
0.712594 0.130861 0.729524
0.753639 0.143261 0.737918
0.756568 0.146190 0.740847
0.755400 0.141898 0.731749
0.797937 0.237914 0.751124
0.122664 0.016602 0.620755
0.108197 0.016601 0.615872
0.114258 0.016461 0.617825
0.276513 0.029776 0.646247
0.624645 0.100203 0.706876
0.754615 0.144237 0.738894
0.753639 0.143261 0.737918
0.756962 0.144180 0.741603
0.756770 0.142208 0.726559
0.296200 0.552881 0.727976
0.242988 0.369829 0.670774
0.185861 0.188824 0.638996
0.241461 0.097900 0.644394
0.498379 0.066074 0.682669
0.733313 0.136057 0.734098
0.754615 0.144237 0.738894
0.754615 0.144237 0.738894
0.757353 0.142842 0.738894
0.489058 0.886000 0.871183
0.417951 0.823309 0.840808
0.359970 0.729675 0.798270
0.375723 0.604717 0.757906
0.582233 0.535368 0.787512
0.824472 0.515158 0.855871
0.895869 0.469870 0.867539
0.853352 0.354888 0.825839
0.818033 0.279397 0.793203
0.633668 0.957021 0.914305
0.633668 0.957021 0.914305
0.584418 0.937811 0.902535
0.503515 0.897668 0.875981
0.600905 0.862463 0.887477
0.827905 0.837293 0.935687
0.981783 0.814122 0.968359
0.978741 0.714874 0.956266
0.954979 0.613121 0.925755
0.633668 0.957021 0.914305
0.633668 0.957021 0.914305
0.633668 0.957021 0.914305
0.633668 0.957021 0.914305
0.674330 0.960099 0.920300
0.795340 0.966341 0.947695
0.939826 0.953720 0.976375
0.990092 0.928246 0.984273
0.991107 0.883898 0.978672
0.633668 0.957021 0.914305
0.633668 0.957021 0.914305
0.633668 0.957021 0.914305
0.633668 0.957021 0.914305
0.638359 0.957915 0.914528
0.739426 0.967282 0.935309
0.889359 0.985529 0.970652
1.000000 1.000000 1.000000
0.995511 0.993107 0.995872
0.633668 0.957021 0.914305
0.633668 0.957021 0.914305
0.633668 0.957021 0.914305
0.633668 0.957021 0.914305
0.633668 0.957021 0.914305
0.686058 0.961495 0.925183
0.827979 0.978264 0.954891
0.958754 0.994943 0.988590
1.000000 1.000000 1.000000
