XH2_FLog2C_FGamutC_to_ETERNA-BB_BT.709_33grid_V.1.00.cube
#title:FLog2C_FGamutC_to_ETERNA-BB_BT.709
#FUJIFILM Corporation
#Gamma:F-Log2C to ETERNA BLEACH BYPASS
#Gamut:F-GamutC to ITU-R BT.709
#Version:1.00
LUT_3D_SIZE 5
0.000000 0.000000 0.000000
0.335033 0.070401 0.052285
0.840235 0.458852 0.402012
0.840235 0.458852 0.402012
0.840235 0.458852 0.402012
0.026431 0.184046 0.019527
0.112133 0.103129 0.014372
0.797697 0.373927 0.325531
0.840235 0.458852 0.402012
0.840235 0.458852 0.402012
0.495369 0.918313 0.371286
0.236645 0.783260 0.280433
0.821599 0.774330 0.368406
0.936194 0.720256 0.474769
0.905405 0.603646 0.453527
0.599356 0.933875 0.438173
0.588614 0.929855 0.392820
0.701016 0.946660 0.396966
0.950265 0.960944 0.474918
0.953816 0.919184 0.483605
0.612634 0.938803 0.506464
0.594080 0.932684 0.423883
0.606403 0.933464 0.387544
0.879883 0.964909 0.442075
0.950063 0.970976 0.458058
0.003313 0.003177 0.052051
0.270321 0.059433 0.107164
0.840235 0.458852 0.402012
0.840235 0.458852 0.402012
0.840235 0.458852 0.402012
0.067600 0.243792 0.229254
0.116211 0.116211 0.116211
0.778769 0.332368 0.315047
0.840235 0.458852 0.402012
0.840235 0.458852 0.402012
0.524436 0.935847 0.675914
0.317709 0.828115 0.487899
0.793420 0.786826 0.455067
0.941067 0.735462 0.486488
0.910670 0.619193 0.453887
0.653258 0.949901 0.711121
0.641156 0.945665 0.610480
0.695520 0.948923 0.519656
0.950838 0.969213 0.507934
0.951270 0.925575 0.483075
0.652070 0.953484 0.781454
0.648767 0.947714 0.682766
0.639988 0.945406 0.580618
0.865598 0.964769 0.523097
0.948885 0.971629 0.483485
0.060910 0.013554 0.472895
0.296505 0.023095 0.371223
0.876136 0.508093 0.585421
0.870095 0.499684 0.507499
0.846869 0.469335 0.424866
0.180901 0.279632 0.621313
0.172248 0.131026 0.492593
0.788526 0.303726 0.582566
0.878089 0.513070 0.571800
0.866784 0.491130 0.483136
0.500958 0.917406 0.866711
0.382545 0.854167 0.800476
0.807617 0.807617 0.807617
0.980694 0.761861 0.726335
0.941699 0.656924 0.606543
0.641883 0.955862 0.898731
0.649907 0.956090 0.850808
0.724596 0.959494 0.800145
0.971508 0.982668 0.769918
0.966675 0.933229 0.694516
0.633668 0.957021 0.914305
0.643252 0.957180 0.888348
0.649715 0.954118 0.835764
0.876684 0.976384 0.819692
0.962920 0.981325 0.688004
0.108197 0.016601 0.615872
0.364674 0.043776 0.659882
0.845540 0.360855 0.747078
0.866592 0.443452 0.703438
0.872040 0.489443 0.632230
0.114258 0.016461 0.617825
0.137130 0.017274 0.622176
0.723345 0.131953 0.729969
0.851972 0.384056 0.739231
0.869320 0.457421 0.684316
0.465611 0.871204 0.863234
0.349640 0.694597 0.783262
0.699431 0.650298 0.856333
0.972317 0.693113 0.896712
0.948334 0.630101 0.821480
0.633668 0.957021 0.914305
0.633668 0.957021 0.914305
0.687035 0.962808 0.924431
0.970703 0.970703 0.970703
0.990685 0.930320 0.929207
0.633668 0.957021 0.914305
0.633668 0.957021 0.914305
0.633668 0.957021 0.914305
0.851828 0.980054 0.960219
0.989651 0.995313 0.948480
0.108197 0.016601 0.615872
0.217085 0.023120 0.639360
0.753639 0.143261 0.737918
0.757353 0.143179 0.737163
0.820963 0.289721 0.758062
0.122664 0.016602 0.620755
0.114258 0.016461 0.617825
0.624645 0.100203 0.706876
0.753639 0.143261 0.737918
0.756770 0.142208 0.726559
0.489058 0.886000 0.871183
0.359970 0.729675 0.798270
0.582233 0.535368 0.787512
0.895869 0.469870 0.867539
0.818033 0.279397 0.793203
0.633668 0.957021 0.914305
0.633668 0.957021 0.914305
0.674330 0.960099 0.920300
0.939826 0.953720 0.976375
0.991107 0.883898 0.978672
0.633668 0.957021 0.914305
0.633668 0.957021 0.914305
0.633668 0.957021 0.914305
0.827979 0.978264 0.954891
1.000000 1.000000 1.000000
