XH2_FLog2C_FGamutC_to_ETERNA_BT.709_33grid_V.1.00.cube
#title:FLog2C_FGamutC_to_ETERNA_BT.709
#FUJIFILM Corporation
#Gamma:F-Log2C to ETERNA
#Gamut:F-GamutC to ITU-R BT.709
#Version:1.00
LUT_3D_SIZE 5
0.006836 0.006836 0.006836
0.470348 0.046391 0.035169
0.999496 0.337773 0.299368
0.999496 0.337773 0.299368
0.999496 0.337773 0.299368
0.000000 0.279678 0.000000
0.188918 0.164426 0.002769
1.000000 0.274555 0.210961
0.999496 0.337773 0.299368
0.999496 0.337773 0.299368
0.199580 0.972869 0.000968
0.000000 0.830014 0.001043
0.780862 0.696823 0.000574
0.999099 0.590559 0.232336
0.999973 0.473804 0.274417
0.377883 0.973535 0.001035
0.372799 0.974651 0.000059
0.527443 0.977515 0.000000
0.932352 0.964096 0.000257
0.958052 0.859517 0.000192
0.382574 0.974765 0.000000
0.372799 0.974651 0.000059
0.399388 0.976054 0.000196
0.794894 0.984180 0.000379
0.925879 0.989243 0.000000
0.011307 0.007153 0.164804
0.403490 0.017384 0.145730
0.999496 0.337773 0.299368
0.999496 0.337773 0.299368
0.999496 0.337773 0.299368
0.000271 0.318197 0.296844
0.173828 0.173828 0.173828
0.998808 0.236548 0.239883
0.999496 0.337773 0.299368
0.999496 0.337773 0.299368
0.180172 0.973799 0.321206
0.000000 0.858523 0.113403
0.723761 0.712772 0.000000
0.999081 0.608180 0.261582
0.999571 0.488153 0.270116
0.417711 0.975453 0.332153
0.398411 0.974741 0.000950
0.497142 0.976195 0.000074
0.927842 0.979865 0.000000
0.954910 0.874589 0.000000
0.411812 0.976606 0.530144
0.420852 0.974495 0.260312
0.399388 0.976054 0.000196
0.751100 0.983162 0.000552
0.925879 0.989243 0.000000
0.027256 0.006994 0.672036
0.412230 0.009901 0.538254
0.999247 0.353041 0.555491
0.999648 0.359528 0.452504
0.999094 0.342377 0.345250
0.001390 0.276308 0.843687
0.146425 0.117011 0.658187
1.000000 0.116495 0.674489
1.000000 0.359059 0.530512
0.999265 0.355249 0.424148
0.001035 0.927947 0.872952
0.000000 0.843760 0.795325
0.714844 0.714844 0.714844
1.000000 0.625585 0.623094
0.999119 0.515133 0.500731
0.306772 0.974764 0.866524
0.384410 0.977257 0.718594
0.515819 0.978243 0.548750
0.954353 0.984539 0.462634
0.976144 0.877735 0.450007
0.162869 0.973568 0.924590
0.333953 0.974210 0.832359
0.401233 0.975615 0.674355
0.744560 0.984454 0.542168
0.932687 0.989744 0.218535
0.039147 0.006380 0.892438
0.306203 0.009677 0.920292
1.000000 0.125530 0.858328
0.999295 0.258745 0.741082
1.000000 0.323911 0.626304
0.039147 0.006380 0.892438
0.039147 0.006380 0.892438
0.963873 0.017129 0.998738
1.000000 0.172579 0.830828
0.999868 0.278777 0.713531
0.000000 0.840925 0.904703
0.000292 0.642588 0.896536
0.547410 0.530902 0.944677
1.000000 0.518480 0.890238
0.999904 0.454654 0.792956
0.162869 0.973568 0.924590
0.162869 0.973568 0.924590
0.340387 0.976238 0.933532
0.942383 0.942383 0.942383
0.999755 0.854560 0.858637
0.162869 0.973568 0.924590
0.162869 0.973568 0.924590
0.162869 0.973568 0.924590
0.668049 0.984530 0.948038
0.982432 0.996968 0.847531
0.039147 0.006380 0.892438
0.039147 0.006380 0.892438
1.000000 0.016639 0.999098
1.000000 0.016639 0.999098
1.000000 0.016734 0.938618
0.039147 0.006380 0.892438
0.039147 0.006380 0.892438
0.743346 0.013455 0.970711
1.000000 0.016639 0.999098
1.000000 0.016639 0.999098
0.000108 0.861913 0.907016
0.000264 0.677590 0.896278
0.414941 0.430218 0.936780
0.999687 0.206662 0.999676
1.000000 0.016639 0.999098
0.162869 0.973568 0.924590
0.162869 0.973568 0.924590
0.296593 0.975893 0.930242
0.864008 0.907756 0.975024
1.000000 0.757677 0.987961
0.162869 0.973568 0.924590
0.162869 0.973568 0.924590
0.162869 0.973568 0.924590
0.608027 0.984202 0.952958
1.000000 1.000000 1.000000
