XH2_FLog2C_FGamutC_to_ETERNA_BT.709_33grid_V.1.00.cube
#title:FLog2C_FGamutC_to_ETERNA_BT.709
#FUJIFILM Corporation
#Gamma:F-Log2C to ETERNA
#Gamut:F-GamutC to ITU-R BT.709
#Version:1.00
LUT_3D_SIZE 33
0.006836 0.006836 0.006836
0.006836 0.006836 0.006836
0.026387 0.006729 0.007503
0.081324 0.006493 0.010262
0.129415 0.010414 0.009558
0.184938 0.013164 0.012539
0.254927 0.016587 0.016942
0.345633 0.025877 0.022457
0.470348 0.046391 0.035169
0.618127 0.072381 0.053428
0.774897 0.101497 0.074844
0.921105 0.134518 0.095280
0.999271 0.178744 0.107993
0.999756 0.271853 0.244062
0.999496 0.337773 0.299368
0.999496 0.337773 0.299368
0.999496 0.337773 0.299368
0.999496 0.337773 0.299368
0.999496 0.337773 0.299368
0.999496 0.337773 0.299368
0.999496 0.337773 0.299368
0.999496 0.337773 0.299368
0.999496 0.337773 0.299368
0.999496 0.337773 0.299368
0.999496 0.337773 0.299368
0.999496 0.337773 0.299368
0.999496 0.337773 0.299368
0.999496 0.337773 0.299368
0.999496 0.337773 0.299368
0.999496 0.337773 0.299368
0.999496 0.337773 0.299368
0.999496 0.337773 0.299368
0.999496 0.337773 0.299368
0.006836 0.006836 0.006836
0.006836 0.006836 0.006836
0.010551 0.006755 0.006082
0.057082 0.006376 0.005910
0.106936 0.006582 0.011153
0.161672 0.013352 0.012624
0.225600 0.016579 0.016806
0.299887 0.023242 0.018946
0.411706 0.035715 0.029790
0.552840 0.059193 0.044145
0.706286 0.086382 0.067066
0.859926 0.118902 0.087726
0.999874 0.158733 0.106656
0.999403 0.233580 0.210774
0.999708 0.321788 0.286895
0.999496 0.337773 0.299368
0.999496 0.337773 0.299368
0.999496 0.337773 0.299368
0.999496 0.337773 0.299368
0.999496 0.337773 0.299368
0.999496 0.337773 0.299368
0.999496 0.337773 0.299368
0.999496 0.337773 0.299368
0.999496 0.337773 0.299368
0.999496 0.337773 0.299368
0.999496 0.337773 0.299368
0.999496 0.337773 0.299368
0.999496 0.337773 0.299368
0.999496 0.337773 0.299368
0.999496 0.337773 0.299368
0.999496 0.337773 0.299368
0.999496 0.337773 0.299368
0.999496 0.337773 0.299368
0.006836 0.006836 0.006836
0.006836 0.006836 0.006836
0.006836 0.006836 0.006836
0.029317 0.010331 0.006972
0.087969 0.009676 0.010707
0.139191 0.010193 0.010758
0.195105 0.010596 0.016223
0.267630 0.019968 0.017609
0.363029 0.029479 0.026809
0.494006 0.043857 0.037565
0.643537 0.078470 0.058226
0.797378 0.104656 0.076712
0.944755 0.143314 0.099324
0.998857 0.195687 0.150328
0.998568 0.286527 0.257289
0.999496 0.337773 0.299368
0.999496 0.337773 0.299368
0.999496 0.337773 0.299368
0.999496 0.337773 0.299368
0.999496 0.337773 0.299368
0.999496 0.337773 0.299368
0.999496 0.337773 0.299368
0.999496 0.337773 0.299368
0.999496 0.337773 0.299368
0.999496 0.337773 0.299368
0.999496 0.337773 0.299368
0.999496 0.337773 0.299368
0.999496 0.337773 0.299368
0.999496 0.337773 0.299368
0.999496 0.337773 0.299368
0.999496 0.337773 0.299368
0.999496 0.337773 0.299368
0.999496 0.337773 0.299368
0.000363 0.031983 0.005686
0.000373 0.019980 0.007503
0.007419 0.009823 0.007058
0.016612 0.006951 0.006305
0.064119 0.006878 0.010569
0.116712 0.006698 0.010620
0.168518 0.009865 0.012624
0.237137 0.013986 0.017027
0.320021 0.026121 0.019836
0.434387 0.032541 0.029481
0.578642 0.063608 0.047964
0.734044 0.093758 0.067648
0.882990 0.124711 0.091547
0.999672 0.165067 0.108832
0.999191 0.249229 0.224976
0.999496 0.337773 0.299368
0.999496 0.337773 0.299368
0.999496 0.337773 0.299368
0.999496 0.337773 0.299368
0.999496 0.337773 0.299368
0.999496 0.337773 0.299368
0.999496 0.337773 0.299368
0.999496 0.337773 0.299368
0.999496 0.337773 0.299368
0.999496 0.337773 0.299368
0.999496 0.337773 0.299368
0.999496 0.337773 0.299368
0.999496 0.337773 0.299368
0.999496 0.337773 0.299368
0.999496 0.337773 0.299368
0.999496 0.337773 0.299368
0.999496 0.337773 0.299368
0.999496 0.337773 0.299368
0.000000 0.076002 0.003390
0.000000 0.066345 0.002723
0.000000 0.045997 0.003117
0.000363 0.031983 0.005686
0.044750 0.023312 0.011015
0.099306 0.013754 0.011376
0.149943 0.010612 0.014664
0.205073 0.016044 0.013430
0.281907 0.016316 0.016101
0.381604 0.028396 0.026500
0.514916 0.054049 0.041610
0.669149 0.078225 0.060849
0.822787 0.111082 0.079778
0.965081 0.151191 0.099684
0.999815 0.213277 0.185743
0.999335 0.303825 0.269008
0.999496 0.337773 0.299368
0.999496 0.337773 0.299368
0.999496 0.337773 0.299368
0.999496 0.337773 0.299368
0.999496 0.337773 0.299368
0.999496 0.337773 0.299368
0.999496 0.337773 0.299368
0.999496 0.337773 0.299368
0.999496 0.337773 0.299368
0.999496 0.337773 0.299368
0.999496 0.337773 0.299368
0.999496 0.337773 0.299368
0.999496 0.337773 0.299368
0.999496 0.337773 0.299368
0.999496 0.337773 0.299368
0.999496 0.337773 0.299368
0.999496 0.337773 0.299368
0.000094 0.121332 0.000340
0.000000 0.106679 0.000204
0.000000 0.095012 0.000289
0.000000 0.080999 0.002859
0.016754 0.070619 0.003613
0.076583 0.064270 0.007879
0.130556 0.051726 0.008017
0.188824 0.041077 0.012811
0.251202 0.028672 0.015879
0.334488 0.026459 0.022988
0.456274 0.044045 0.032770
0.606399 0.070313 0.052009
0.759453 0.099510 0.074176
0.908984 0.134459 0.093106
0.999079 0.173411 0.110255
0.999766 0.260858 0.240687
0.999496 0.337773 0.299368
0.999496 0.337773 0.299368
0.999496 0.337773 0.299368
0.999496 0.337773 0.299368
0.999496 0.337773 0.299368
0.999496 0.337773 0.299368
0.999496 0.337773 0.299368
0.999496 0.337773 0.299368
0.999496 0.337773 0.299368
0.999496 0.337773 0.299368
0.999496 0.337773 0.299368
0.999496 0.337773 0.299368
0.999496 0.337773 0.299368
0.999496 0.337773 0.299368
0.999496 0.337773 0.299368
0.999496 0.337773 0.299368
0.999496 0.337773 0.299368
0.000447 0.165991 0.000749
0.000457 0.154324 0.000836
0.000276 0.137997 0.000000
0.000286 0.126329 0.000000
0.000104 0.109665 0.000425
0.054266 0.101445 0.003492
0.110773 0.093504 0.007536
0.166888 0.087909 0.009094
0.227695 0.082872 0.012606
0.304923 0.081134 0.016030
0.410106 0.078757 0.026516
0.546761 0.082331 0.043751
0.696311 0.093609 0.064582
0.848197 0.116834 0.086304
0.987560 0.153678 0.105012
0.998627 0.227949 0.198969
0.999909 0.315790 0.282989
0.999496 0.337773 0.299368
0.999496 0.337773 0.299368
0.999496 0.337773 0.299368
0.999496 0.337773 0.299368
0.999496 0.337773 0.299368
0.999496 0.337773 0.299368
0.999496 0.337773 0.299368
0.999496 0.337773 0.299368
0.999496 0.337773 0.299368
0.999496 0.337773 0.299368
0.999496 0.337773 0.299368
0.999496 0.337773 0.299368
0.999496 0.337773 0.299368
0.999496 0.337773 0.299368
0.999496 0.337773 0.299368
0.999496 0.337773 0.299368
0.000207 0.219331 0.000851
0.000026 0.203004 0.000000
0.000000 0.188350 0.000000
0.000000 0.170011 0.000000
0.000064 0.156335 0.000082
0.015911 0.144979 0.000000
0.087277 0.137045 0.000000
0.152191 0.129916 0.002667
0.212415 0.121220 0.009418
0.281819 0.121658 0.013598
0.378595 0.119477 0.019422
0.500392 0.124723 0.032750
0.646035 0.131423 0.053136
0.792847 0.143760 0.075699
0.936721 0.164498 0.096975
1.000000 0.195034 0.124903
1.000000 0.280167 0.251653
0.999496 0.337773 0.299368
0.999496 0.337773 0.299368
0.999496 0.337773 0.299368
0.999496 0.337773 0.299368
0.999496 0.337773 0.299368
0.999496 0.337773 0.299368
0.999496 0.337773 0.299368
0.999496 0.337773 0.299368
0.999496 0.337773 0.299368
0.999496 0.337773 0.299368
0.999496 0.337773 0.299368
0.999496 0.337773 0.299368
0.999496 0.337773 0.299368
0.999496 0.337773 0.299368
0.999496 0.337773 0.299368
0.999496 0.337773 0.299368
0.000000 0.279678 0.000000
0.000000 0.258352 0.000000
0.000581 0.240992 0.000000
0.000399 0.224328 0.000320
0.000000 0.204677 0.000714
0.000036 0.191336 0.000000
0.053613 0.180801 0.000000
0.129088 0.170439 0.000234
0.188918 0.164426 0.002769
0.258715 0.163860 0.002511
0.344740 0.160252 0.009621
0.458129 0.165358 0.020020
0.595761 0.169573 0.039961
0.741204 0.182943 0.060794
0.884493 0.200359 0.083579
0.999432 0.219415 0.103742
1.000000 0.274555 0.210961
0.999688 0.344451 0.290184
1.000000 0.345756 0.299059
0.999496 0.337773 0.299368
0.999496 0.337773 0.299368
0.999496 0.337773 0.299368
0.999496 0.337773 0.299368
0.999496 0.337773 0.299368
0.999496 0.337773 0.299368
0.999496 0.337773 0.299368
0.999496 0.337773 0.299368
0.999496 0.337773 0.299368
0.999496 0.337773 0.299368
0.999496 0.337773 0.299368
0.999496 0.337773 0.299368
0.999496 0.337773 0.299368
0.999496 0.337773 0.299368
0.000000 0.363022 0.000044
0.000000 0.335026 0.000000
0.000000 0.309682 0.000000
0.000000 0.286348 0.000113
0.000560 0.264326 0.000000
0.000000 0.246349 0.000902
0.000000 0.230022 0.000000
0.099330 0.219110 0.000000
0.169329 0.211538 0.000027
0.236196 0.207370 0.000302
0.317529 0.203540 0.003726
0.425643 0.205436 0.010218
0.552521 0.208560 0.029715
0.693667 0.219025 0.051077
0.835979 0.235800 0.071155
0.969099 0.255112 0.093718
0.998790 0.285087 0.109926
0.999104 0.348521 0.253621
0.999467 0.373447 0.295649
1.000000 0.365102 0.294227
1.000000 0.357760 0.297242
0.999878 0.348102 0.296574
0.999496 0.338110 0.297637
0.999496 0.337773 0.299368
0.999496 0.337773 0.299368
0.999496 0.337773 0.299368
0.999496 0.337773 0.299368
0.999496 0.337773 0.299368
0.999496 0.337773 0.299368
0.999496 0.337773 0.299368
0.999496 0.337773 0.299368
0.999496 0.337773 0.299368
0.999496 0.337773 0.299368
0.000002 0.464006 0.000778
0.000031 0.429341 0.000000
0.000000 0.401010 0.000007
0.000473 0.368995 0.000489
0.000000 0.341697 0.000000
0.000000 0.314678 0.000000
0.000340 0.294331 0.000000
0.041605 0.278069 0.001003
0.138000 0.267240 0.000969
0.218167 0.258108 0.000489
0.296571 0.251684 0.000000
0.397063 0.250430 0.000000
0.515928 0.252074 0.012991
0.651989 0.263320 0.035109
0.790002 0.276518 0.059178
0.921754 0.296863 0.080012
0.998961 0.315435 0.098839
0.998711 0.360613 0.200953
0.998854 0.407143 0.286517
0.999840 0.396451 0.287578
0.999457 0.385787 0.292101
0.999073 0.375457 0.294894
0.999669 0.367113 0.293473
1.000000 0.357760 0.297242
1.000000 0.351089 0.296797
1.000000 0.340760 0.299590
0.999496 0.337773 0.299368
0.999496 0.337773 0.299368
0.999496 0.337773 0.299368
0.999496 0.337773 0.299368
0.999496 0.337773 0.299368
0.999496 0.337773 0.299368
0.999496 0.337773 0.299368
0.000106 0.574008 0.000000
0.000000 0.537694 0.000485
0.000000 0.503028 0.000000
0.000000 0.471013 0.000000
0.000000 0.437685 0.000727
0.000050 0.406006 0.000000
0.000000 0.376698 0.000000
0.000291 0.352667 0.000000
0.089458 0.335331 0.000402
0.180183 0.322294 0.000898
0.271101 0.314591 0.000000
0.368080 0.306747 0.000000
0.481671 0.306863 0.000622
0.613433 0.315876 0.019809
0.745778 0.328213 0.037489
0.878315 0.344873 0.058099
0.999314 0.363454 0.081945
0.998903 0.388463 0.082751
0.999429 0.428182 0.253773
0.999810 0.432462 0.282130
0.999429 0.422133 0.284922
0.998462 0.409488 0.284032
0.999055 0.399799 0.289531
0.999065 0.388132 0.289616
1.000000 0.376770 0.294141
0.999275 0.368786 0.294449
0.999477 0.361780 0.295735
1.000000 0.353099 0.296043
0.999688 0.343106 0.297106
0.999496 0.337773 0.299368
0.999496 0.337773 0.299368
0.999496 0.337773 0.299368
0.999496 0.337773 0.299368
0.000000 0.685347 0.000874
0.000000 0.649369 0.000155
0.000000 0.615680 0.000000
0.000000 0.580678 0.000000
0.000000 0.545677 0.000176
0.000000 0.512349 0.001410
0.000577 0.478660 0.000914
0.000000 0.449353 0.000640
0.000000 0.424343 0.000000
0.128108 0.407131 0.000469
0.231740 0.391141 0.000000
0.339279 0.379393 0.000622
0.452678 0.374848 0.000723
0.577996 0.377704 0.000000
0.706043 0.388144 0.013004
0.833888 0.403574 0.035121
0.954305 0.419168 0.058746
0.999256 0.433794 0.079699
0.999217 0.457610 0.197027
0.999580 0.475478 0.275394
0.999007 0.460824 0.275257
0.999994 0.449461 0.279782
0.999025 0.436818 0.278891
1.000000 0.425119 0.285145
0.999045 0.412475 0.284254
0.998662 0.401810 0.288777
0.999648 0.391118 0.289840
1.000000 0.381767 0.293609
1.000000 0.369427 0.297157
0.999477 0.361780 0.295735
0.999678 0.355110 0.295289
1.000000 0.345756 0.299059
0.999496 0.337773 0.299368
0.000323 0.781671 0.000410
0.000000 0.755350 0.000359
0.000000 0.724033 0.000840
0.000000 0.692354 0.000000
0.000229 0.660338 0.000070
0.000000 0.624361 0.000000
0.000288 0.590336 0.000585
0.000317 0.555334 0.000843
0.000000 0.529013 0.000793
0.000163 0.504004 0.000000
0.182785 0.484240 0.000000
0.305577 0.469818 0.000329
0.422498 0.460193 0.000206
0.543911 0.458136 0.000754
0.669622 0.459318 0.000000
0.794346 0.470518 0.000000
0.908701 0.483563 0.035239
0.999207 0.495827 0.060235
0.999984 0.501794 0.070309
0.998967 0.513543 0.243766
0.999753 0.505490 0.266039
1.000000 0.491140 0.270340
0.999188 0.478160 0.271181
0.999984 0.462473 0.272774
0.999600 0.451808 0.277296
0.999610 0.439132 0.282573
0.999620 0.427464 0.282660
0.999237 0.416800 0.287184
0.999638 0.403794 0.284563
0.998864 0.395139 0.288333
0.999850 0.383776 0.292855
0.999467 0.373447 0.295649
1.000000 0.365102 0.294227
0.000000 0.867026 0.000032
0.000000 0.843692 0.000203
0.000293 0.816673 0.000152
0.000000 0.790352 0.000101
0.000000 0.760347 0.000000
0.000000 0.731040 0.000000
0.000000 0.701034 0.000000
0.000028 0.667010 0.000516
0.000000 0.636028 0.000000
0.000076 0.609010 0.000000
0.084360 0.585783 0.000551
0.265611 0.566715 0.000257
0.389379 0.553605 0.000137
0.510017 0.543900 0.000000
0.632405 0.543154 0.000000
0.750293 0.546175 0.000000
0.863682 0.552625 0.003302
0.970809 0.560172 0.034688
0.999743 0.557149 0.060028
0.998354 0.560008 0.168875
0.999129 0.552868 0.246437
0.999531 0.538183 0.252469
0.998958 0.522521 0.257523
0.999359 0.507835 0.263555
0.999762 0.493487 0.267856
0.999772 0.481483 0.269673
1.000000 0.466797 0.275703
0.998815 0.455491 0.277519
1.000000 0.442791 0.279336
1.000000 0.430787 0.281153
1.000000 0.418784 0.282968
0.999830 0.408455 0.285761
0.999840 0.396451 0.287578
0.000000 0.938703 0.000492
0.000014 0.916681 0.000000
0.000000 0.897031 0.000305
0.000000 0.872023 0.000000
0.000000 0.848688 0.000000
0.000091 0.823344 0.000597
0.000000 0.795013 0.001301
0.000000 0.767017 0.000274
0.000000 0.739023 0.000000
0.000000 0.713678 0.000172
0.000401 0.688334 0.001098
0.211371 0.667601 0.000000
0.355474 0.650701 0.000288
0.483350 0.635498 0.000168
0.597534 0.627269 0.000046
0.711910 0.624037 0.000000
0.821784 0.624572 0.000000
0.926575 0.626221 0.000000
0.999886 0.625523 0.033110
0.999503 0.614186 0.041093
0.999876 0.600895 0.219913
0.998516 0.587908 0.230383
0.998917 0.572550 0.239875
0.999321 0.557529 0.247637
1.000000 0.541170 0.252691
1.000000 0.528158 0.259700
0.999943 0.511494 0.260316
0.998977 0.497843 0.264617
0.999379 0.483156 0.270649
0.999782 0.469144 0.273219
0.999398 0.458478 0.277741
0.999408 0.446474 0.279558
0.999810 0.432462 0.282130
0.199580 0.972869 0.000968
0.103196 0.972033 0.001091
0.000367 0.961340 0.000321
0.000000 0.943700 0.000000
0.000000 0.923352 0.000355
0.000000 0.900017 0.000526
0.000000 0.878693 0.000000
0.000000 0.855358 0.000117
0.000000 0.830014 0.001043
0.000303 0.805006 0.000237
0.000000 0.782368 0.000410
0.184706 0.759201 0.000871
0.331939 0.739230 0.000219
0.452386 0.724528 0.000000
0.568140 0.708932 0.000000
0.676845 0.703492 0.000000
0.780862 0.696823 0.000574
0.885462 0.693476 0.000454
0.978131 0.690699 0.020121
0.995155 0.675667 0.010047
0.999081 0.653885 0.026239
0.999263 0.636942 0.198669
0.999664 0.621249 0.209891
0.998698 0.605917 0.222843
0.999099 0.590559 0.232336
0.999503 0.575873 0.238368
1.000000 0.559513 0.243421
0.999331 0.545189 0.251183
0.999732 0.530168 0.258944
0.999158 0.514842 0.262269
0.999168 0.502166 0.267546
0.999963 0.486479 0.269139
0.999973 0.473804 0.274417
0.276415 0.973813 0.000179
0.272700 0.974231 0.000000
0.268007 0.973002 0.000710
0.221477 0.973378 0.000883
0.139558 0.973550 0.000695
0.000000 0.967034 0.000000
0.000000 0.946686 0.000183
0.000004 0.928349 0.000000
0.000000 0.906689 0.000973
0.000000 0.885364 0.000390
0.000000 0.865017 0.000785
0.183851 0.844554 0.000492
0.321311 0.824469 0.000372
0.436481 0.805887 0.000000
0.543829 0.789479 0.000000
0.645307 0.777533 0.000488
0.746393 0.767933 0.000000
0.847087 0.759672 0.000110
0.938588 0.754619 0.000297
0.983568 0.738611 0.000000
0.990042 0.711111 0.012274
0.996102 0.687447 0.135359
0.999434 0.671323 0.166817
0.999444 0.656966 0.180747
0.999846 0.640266 0.197160
0.999856 0.626245 0.209360
0.999283 0.609911 0.217875
0.998708 0.593241 0.228121
0.999109 0.578555 0.234152
0.999513 0.563198 0.243646
0.999914 0.548848 0.247944
0.999924 0.535500 0.256684
0.999743 0.518837 0.257301
0.311801 0.974019 0.000539
0.305740 0.973822 0.000317
0.298311 0.974322 0.000094
0.284821 0.974626 0.000000
0.272700 0.974231 0.000000
0.270354 0.973617 0.000000
0.246111 0.972828 0.000000
0.167909 0.972582 0.000000
0.009550 0.970136 0.000000
0.000000 0.950371 0.000406
0.056110 0.934757 0.000000
0.226217 0.916273 0.000000
0.325550 0.897377 0.000000
0.425863 0.879459 0.000000
0.522458 0.861958 0.000000
0.619637 0.847445 0.000000
0.715056 0.835303 0.000000
0.807735 0.824555 0.000519
0.899044 0.814841 0.000000
0.972568 0.802526 0.000000
0.980217 0.771685 0.000263
0.984153 0.741597 0.000000
0.987102 0.721193 0.002336
0.991411 0.706045 0.034770
0.998447 0.690751 0.120761
1.000000 0.675989 0.158386
1.000000 0.660290 0.179237
0.999061 0.644958 0.192191
0.999464 0.629263 0.203413
0.998496 0.613932 0.216367
0.999291 0.596564 0.226613
0.999301 0.583216 0.235351
1.000000 0.566185 0.243867
0.339758 0.974724 0.000675
0.338782 0.973748 0.000000
0.325291 0.974051 0.000000
0.317862 0.974216 0.000761
0.305740 0.973822 0.000317
0.298311 0.974322 0.000094
0.289905 0.973510 0.000624
0.276415 0.973813 0.000179
0.272700 0.974231 0.000000
0.261948 0.972804 0.000488
0.246111 0.972828 0.000000
0.276415 0.973813 0.000179
0.346222 0.961581 0.000008
0.425612 0.944466 0.000000
0.510670 0.929222 0.000863
0.599837 0.912222 0.000161
0.683134 0.899686 0.000434
0.777575 0.886568 0.000176
0.862241 0.873333 0.000450
0.943585 0.858508 0.000501
0.965309 0.831021 0.000000
0.973353 0.798507 0.000090
0.979240 0.770708 0.000000
0.981012 0.756334 0.000125
0.984153 0.741597 0.000000
0.988663 0.725829 0.000074
0.990434 0.709773 0.009566
0.997078 0.694137 0.106917
0.999626 0.679680 0.148981
0.999636 0.663644 0.171563
0.998668 0.647639 0.187975
1.000000 0.633258 0.198445
0.999081 0.617254 0.214860
0.372799 0.974651 0.000059
0.362047 0.973560 0.000000
0.349534 0.974839 0.000145
0.339758 0.974724 0.000675
0.338782 0.973748 0.000000
0.333698 0.974528 0.000454
0.317862 0.974216 0.000761
0.305740 0.973822 0.000317
0.305740 0.973822 0.000317
0.289905 0.973510 0.000624
0.293226 0.975102 0.000848
0.343865 0.972969 0.000000
0.399388 0.976054 0.000196
0.451979 0.975874 0.000246
0.506524 0.977983 0.000519
0.580630 0.968655 0.000000
0.660604 0.954527 0.000000
0.739210 0.941096 0.000000
0.822900 0.926885 0.000000
0.902290 0.909771 0.000000
0.952162 0.887651 0.000000
0.958837 0.855834 0.000000
0.967271 0.821644 0.000000
0.970806 0.804897 0.000000
0.973946 0.789826 0.000399
0.979825 0.773694 0.000000
0.980620 0.758343 0.000000
0.983368 0.745281 0.000000
0.986508 0.729538 0.003758
0.990626 0.714434 0.010765
0.995317 0.699197 0.094051
1.000000 0.683339 0.145742
0.998850 0.668000 0.168324
0.372799 0.974651 0.000059
0.372799 0.974651 0.000059
0.372799 0.974651 0.000059
0.372799 0.974651 0.000059
0.362047 0.973560 0.000000
0.354617 0.973724 0.001121
0.343865 0.972969 0.000000
0.338782 0.973748 0.000000
0.333698 0.974528 0.000454
0.320207 0.974831 0.000008
0.311801 0.974019 0.000539
0.339758 0.974724 0.000675
0.388636 0.974963 0.000000
0.443573 0.975398 0.000000
0.502809 0.978401 0.000000
0.574952 0.978115 0.000263
0.640641 0.979642 0.000005
0.707307 0.982144 0.000723
0.784152 0.971422 0.000019
0.862172 0.955003 0.000000
0.931788 0.937775 0.000208
0.946083 0.910453 0.000601
0.953149 0.877297 0.000000
0.960990 0.851452 0.000000
0.961785 0.836100 0.000000
0.967271 0.821644 0.000000
0.967675 0.807966 0.000535
0.973161 0.793510 0.000621
0.977670 0.778076 0.000000
0.980810 0.763005 0.000570
0.981605 0.747990 0.000000
0.986115 0.732220 0.000000
0.988471 0.718143 0.014449
0.372799 0.974651 0.000059
0.372799 0.974651 0.000059
0.372799 0.974651 0.000059
0.372799 0.974651 0.000059
0.372799 0.974651 0.000059
0.372799 0.974651 0.000059
0.372799 0.974651 0.000059
0.368108 0.973757 0.000000
0.354617 0.973724 0.001121
0.343865 0.972969 0.000000
0.338782 0.973748 0.000000
0.339758 0.974724 0.000675
0.377883 0.973535 0.001035
0.420307 0.975586 0.000000
0.475245 0.975685 0.000161
0.538589 0.976597 0.000655
0.601540 0.979518 0.000399
0.678373 0.980462 0.000000
0.757161 0.983359 0.000773
0.822850 0.984886 0.000515
0.892456 0.979659 0.000000
0.933530 0.958401 0.000790
0.939812 0.928929 0.000000
0.949616 0.893707 0.000465
0.952364 0.880981 0.000000
0.956481 0.867222 0.000000
0.960598 0.853462 0.000000
0.963346 0.840400 0.000000
0.966487 0.825328 0.000000
0.969628 0.810592 0.000000
0.972376 0.797193 0.000844
0.977277 0.780087 0.000000
0.978657 0.767385 0.000793
0.377883 0.973535 0.001035
0.372799 0.974651 0.000059
0.372799 0.974651 0.000059
0.372799 0.974651 0.000059
0.372799 0.974651 0.000059
0.372799 0.974651 0.000059
0.372799 0.974651 0.000059
0.372799 0.974651 0.000059
0.372799 0.974651 0.000059
0.372799 0.974651 0.000059
0.366740 0.974454 0.000000
0.355594 0.975037 0.000366
0.372799 0.974651 0.000059
0.405447 0.976252 0.000417
0.451979 0.975874 0.000246
0.501833 0.977089 0.000297
0.562831 0.977721 0.000000
0.630865 0.979527 0.000535
0.703985 0.980889 0.000000
0.782771 0.983786 0.000000
0.856868 0.986125 0.000000
0.922164 0.989325 0.000000
0.931366 0.974450 0.000926
0.937647 0.944978 0.000000
0.941965 0.924213 0.000515
0.947059 0.911765 0.000000
0.949807 0.898703 0.000000
0.951579 0.884665 0.000000
0.955695 0.870905 0.000000
0.958443 0.857843 0.000000
0.962561 0.844083 0.000000
0.964333 0.829709 0.000141
0.968843 0.814276 0.000000
0.377883 0.973535 0.001035
0.377883 0.973535 0.001035
0.372799 0.974651 0.000059
0.372799 0.974651 0.000059
0.372799 0.974651 0.000059
0.372799 0.974651 0.000059
0.372799 0.974651 0.000059
0.372799 0.974651 0.000059
0.372799 0.974651 0.000059
0.372799 0.974651 0.000059
0.372799 0.974651 0.000059
0.370454 0.974035 0.000812
0.382574 0.974765 0.000000
0.405447 0.976252 0.000417
0.438881 0.974504 0.000000
0.479937 0.976580 0.000383
0.527443 0.977515 0.000000
0.587073 0.978509 0.000706
0.652763 0.980371 0.000000
0.729596 0.980979 0.000000
0.800953 0.984713 0.000000
0.877396 0.986994 0.000790
0.925879 0.989243 0.000000
0.924902 0.987930 0.000000
0.932352 0.964096 0.000257
0.937446 0.951648 0.000000
0.935111 0.939703 0.000000
0.941573 0.926221 0.000000
0.945689 0.912462 0.000000
0.949414 0.900713 0.000000
0.952162 0.887651 0.000000
0.953542 0.875286 0.000000
0.958052 0.859517 0.000192
0.377883 0.973535 0.001035
0.372799 0.974651 0.000059
0.372799 0.974651 0.000059
0.372799 0.974651 0.000059
0.372799 0.974651 0.000059
0.372799 0.974651 0.000059
0.372799 0.974651 0.000059
0.372799 0.974651 0.000059
0.372799 0.974651 0.000059
0.372799 0.974651 0.000059
0.372799 0.974651 0.000059
0.372799 0.974651 0.000059
0.372799 0.974651 0.000059
0.398411 0.974741 0.000950
0.423628 0.977178 0.000000
0.467815 0.976187 0.000000
0.506524 0.977983 0.000519
0.555400 0.978221 0.000000
0.612684 0.978936 0.000000
0.678373 0.980462 0.000000
0.748755 0.982882 0.000000
0.825195 0.985500 0.000000
0.895577 0.987921 0.000000
0.925879 0.989243 0.000000
0.925879 0.989243 0.000000
0.924902 0.987930 0.000000
0.929604 0.977158 0.000172
0.929221 0.967500 0.000000
0.935684 0.954356 0.000000
0.939408 0.942270 0.000000
0.942156 0.929208 0.000000
0.943537 0.916844 0.000070
0.947261 0.905094 0.000000
0.377883 0.973535 0.001035
0.377883 0.973535 0.001035
0.377883 0.973535 0.001035
0.372799 0.974651 0.000059
0.372799 0.974651 0.000059
0.372799 0.974651 0.000059
0.372799 0.974651 0.000059
0.372799 0.974651 0.000059
0.372799 0.974651 0.000059
0.372799 0.974651 0.000059
0.372799 0.974651 0.000059
0.372799 0.974651 0.000059
0.372799 0.974651 0.000059
0.388636 0.974963 0.000000
0.414246 0.975390 0.000000
0.451979 0.975874 0.000246
0.489711 0.976696 0.000000
0.535849 0.977992 0.000655
0.586096 0.977532 0.000000
0.640641 0.979642 0.000005
0.703985 0.980889 0.000000
0.772996 0.983672 0.000465
0.847092 0.986010 0.000000
0.915127 0.987816 0.000395
0.925879 0.989243 0.000000
