XH2_FLog2C_FGamutC_to_ETERNA_BT.709_33grid_V.1.00.cube
#title:FLog2C_FGamutC_to_ETERNA_BT.709
#FUJIFILM Corporation
#Gamma:F-Log2C to ETERNA
#Gamut:F-GamutC to ITU-R BT.709
#Version:1.00
LUT_3D_SIZE 9
0.006836 0.006836 0.006836
0.129415 0.010414 0.009558
0.470348 0.046391 0.035169
0.999271 0.178744 0.107993
0.999496 0.337773 0.299368
0.999496 0.337773 0.299368
0.999496 0.337773 0.299368
0.999496 0.337773 0.299368
0.999496 0.337773 0.299368
0.000000 0.076002 0.003390
0.044750 0.023312 0.011015
0.281907 0.016316 0.016101
0.822787 0.111082 0.079778
0.999496 0.337773 0.299368
0.999496 0.337773 0.299368
0.999496 0.337773 0.299368
0.999496 0.337773 0.299368
0.999496 0.337773 0.299368
0.000000 0.279678 0.000000
0.000000 0.204677 0.000714
0.188918 0.164426 0.002769
0.595761 0.169573 0.039961
1.000000 0.274555 0.210961
0.999496 0.337773 0.299368
0.999496 0.337773 0.299368
0.999496 0.337773 0.299368
0.999496 0.337773 0.299368
0.000000 0.685347 0.000874
0.000000 0.545677 0.000176
0.000000 0.424343 0.000000
0.452678 0.374848 0.000723
0.954305 0.419168 0.058746
0.999007 0.460824 0.275257
0.999045 0.412475 0.284254
1.000000 0.369427 0.297157
0.999496 0.337773 0.299368
0.199580 0.972869 0.000968
0.000000 0.923352 0.000355
0.000000 0.830014 0.001043
0.331939 0.739230 0.000219
0.780862 0.696823 0.000574
0.999081 0.653885 0.026239
0.999099 0.590559 0.232336
0.999732 0.530168 0.258944
0.999973 0.473804 0.274417
0.372799 0.974651 0.000059
0.338782 0.973748 0.000000
0.305740 0.973822 0.000317
0.399388 0.976054 0.000196
0.660604 0.954527 0.000000
0.952162 0.887651 0.000000
0.973946 0.789826 0.000399
0.986508 0.729538 0.003758
0.998850 0.668000 0.168324
0.377883 0.973535 0.001035
0.372799 0.974651 0.000059
0.372799 0.974651 0.000059
0.382574 0.974765 0.000000
0.527443 0.977515 0.000000
0.800953 0.984713 0.000000
0.932352 0.964096 0.000257
0.945689 0.912462 0.000000
0.958052 0.859517 0.000192
0.377490 0.975546 0.000281
0.377883 0.973535 0.001035
0.372799 0.974651 0.000059
0.372799 0.974651 0.000059
0.454324 0.976153 0.001222
0.651786 0.979058 0.000000
0.903983 0.988398 0.000926
0.925879 0.989243 0.000000
0.925879 0.989243 0.000000
0.382574 0.974765 0.000000
0.377883 0.973535 0.001035
0.372799 0.974651 0.000059
0.372799 0.974651 0.000059
0.399388 0.976054 0.000196
0.559115 0.977803 0.000570
0.794894 0.984180 0.000379
0.925879 0.989243 0.000000
0.925879 0.989243 0.000000
0.006634 0.007457 0.038429
0.112996 0.007117 0.009644
0.428911 0.035330 0.029481
0.999672 0.165403 0.107101
0.999496 0.337773 0.299368
0.999496 0.337773 0.299368
0.999496 0.337773 0.299368
0.999496 0.337773 0.299368
0.999496 0.337773 0.299368
0.000506 0.082882 0.068754
0.029297 0.029297 0.029297
0.254927 0.016587 0.016942
0.775289 0.099822 0.073867
0.999496 0.337773 0.299368
0.999496 0.337773 0.299368
0.999496 0.337773 0.299368
0.999496 0.337773 0.299368
0.999496 0.337773 0.299368
0.000000 0.298547 0.082473
0.000000 0.217980 0.017402
0.173273 0.169783 0.000000
0.554312 0.170178 0.034186
1.000000 0.254961 0.166671
0.999496 0.337773 0.299368
0.999496 0.337773 0.299368
0.999496 0.337773 0.299368
0.999496 0.337773 0.299368
0.000000 0.713678 0.000172
0.000000 0.575682 0.000449
0.000605 0.443658 0.001172
0.419043 0.383602 0.001031
0.918525 0.421645 0.054172
0.999782 0.468808 0.274950
1.000000 0.418784 0.282968
1.000000 0.376770 0.294141
1.000000 0.340760 0.299590
0.167909 0.972582 0.000000
0.000196 0.933010 0.001023
0.000465 0.844669 0.001180
0.297128 0.753679 0.000000
0.751334 0.703821 0.000000
0.998094 0.664912 0.023445
0.998899 0.598573 0.225860
0.999531 0.537848 0.254199
0.998795 0.480170 0.270425
0.382574 0.974765 0.000000
0.344842 0.973946 0.000000
0.305740 0.973822 0.000317
0.377883 0.973535 0.001035
0.633421 0.961804 0.000000
0.949414 0.900713 0.000000
0.972376 0.797530 0.000000
0.986307 0.736880 0.000743
0.998649 0.677023 0.156656
0.388636 0.974963 0.000000
0.382574 0.974765 0.000000
0.377490 0.975546 0.000281
0.377490 0.975546 0.000281
0.511609 0.977204 0.000000
0.776710 0.983589 0.000000
0.929413 0.972161 0.000703
0.942358 0.922538 0.000000
0.956481 0.867222 0.000000
0.398411 0.974741 0.000950
0.388636 0.974963 0.000000
0.382574 0.974765 0.000000
0.377490 0.975546 0.000281
0.448264 0.976292 0.000000
0.630865 0.979527 0.000535
0.883455 0.987528 0.000000
0.925879 0.989243 0.000000
0.925879 0.989243 0.000000
0.416179 0.974800 0.133937
0.394695 0.975160 0.000000
0.388636 0.974963 0.000000
0.382574 0.974765 0.000000
0.398411 0.974741 0.000950
0.546995 0.977409 0.000125
0.772996 0.983672 0.000465
0.925879 0.989243 0.000000
0.925879 0.989243 0.000000
0.011307 0.007153 0.164804
0.106524 0.006722 0.140012
0.403490 0.017384 0.145730
0.979930 0.145725 0.183106
0.999496 0.337773 0.299368
0.999496 0.337773 0.299368
0.999496 0.337773 0.299368
0.999496 0.337773 0.299368
0.999496 0.337773 0.299368
0.000496 0.066319 0.214028
0.009937 0.010203 0.152691
0.248262 0.010188 0.153031
0.742833 0.078686 0.199301
0.999496 0.335421 0.311481
0.999496 0.337773 0.299368
0.999496 0.337773 0.299368
0.999496 0.337773 0.299368
0.999496 0.337773 0.299368
0.000271 0.318197 0.296844
0.000751 0.227986 0.211847
0.173828 0.173828 0.173828
0.537672 0.167310 0.186828
0.998808 0.236548 0.239883
1.000000 0.340087 0.303050
0.999496 0.337773 0.299368
0.999496 0.337773 0.299368
0.999496 0.337773 0.299368
0.000000 0.732409 0.383649
0.000229 0.608248 0.268292
0.000355 0.472370 0.188078
0.409813 0.400544 0.169296
0.893287 0.417673 0.183648
0.999963 0.477741 0.314132
0.999620 0.427464 0.282660
0.999850 0.383776 0.292855
0.998510 0.348799 0.296574
0.180172 0.973799 0.321206
0.000000 0.937320 0.237977
0.000000 0.858523 0.113403
0.271698 0.769915 0.000219
0.723761 0.712772 0.000000
1.000000 0.672585 0.201117
0.999081 0.608180 0.261582
1.000000 0.546502 0.250431
0.999571 0.488153 0.270116
0.411278 0.976447 0.215407
0.367716 0.975430 0.000812
0.305740 0.973822 0.000317
0.339758 0.974724 0.000675
0.600965 0.964865 0.000263
0.924387 0.903610 0.000000
0.972568 0.802526 0.000000
0.981605 0.747654 0.000434
0.997471 0.686078 0.138820
0.417711 0.975453 0.332153
0.413633 0.974134 0.169747
0.398411 0.974741 0.000950
0.388636 0.974963 0.000000
0.497142 0.976195 0.000074
0.747385 0.983580 0.000000
0.927842 0.979865 0.000000
0.941573 0.926221 0.000000
0.954910 0.874589 0.000000
0.417107 0.975972 0.433855
0.417912 0.975167 0.298827
0.413249 0.974895 0.115433
0.394695 0.975160 0.000000
0.443573 0.975398 0.000000
0.612684 0.978936 0.000000
0.860190 0.987380 0.001097
0.925879 0.989243 0.000000
0.925879 0.989243 0.000000
0.411812 0.976606 0.530144
0.415940 0.976048 0.402261
0.420852 0.974495 0.260312
0.409555 0.974159 0.000417
0.399388 0.976054 0.000196
0.531158 0.977098 0.000434
0.751100 0.983162 0.000552
0.925879 0.989243 0.000000
0.925879 0.989243 0.000000
0.017921 0.006690 0.363996
0.091835 0.006816 0.289414
0.398779 0.010922 0.294157
0.958636 0.087565 0.375667
0.999073 0.352604 0.412565
1.000000 0.345661 0.359539
0.998711 0.339105 0.311703
0.999496 0.337773 0.299368
0.999496 0.337773 0.299368
0.016734 0.006912 0.451633
0.017731 0.006399 0.340301
0.249018 0.010923 0.310024
0.726633 0.013456 0.363509
1.000000 0.328858 0.446062
0.999860 0.351608 0.398499
0.999678 0.344691 0.348935
0.999496 0.337773 0.299368
0.999496 0.337773 0.299368
0.001190 0.332716 0.588024
0.000000 0.230616 0.457454
0.172238 0.166218 0.371376
0.535901 0.146397 0.367688
1.000000 0.196536 0.432719
1.000000 0.360207 0.439415
0.999669 0.349637 0.383458
1.000000 0.343360 0.336598
0.999496 0.337773 0.299368
0.000000 0.739940 0.689202
0.000000 0.634080 0.590004
0.000086 0.505259 0.473449
0.415039 0.415039 0.415039
0.881722 0.407882 0.427163
0.999531 0.495166 0.473969
0.999782 0.441586 0.415117
0.999439 0.394670 0.366340
0.999869 0.355065 0.320714
0.087835 0.969962 0.685941
0.000000 0.929026 0.631033
0.000000 0.863487 0.548570
0.263203 0.783706 0.465473
0.722121 0.719809 0.421761
0.999778 0.674549 0.440555
0.999242 0.614907 0.432109
0.998909 0.556995 0.379957
0.999551 0.498381 0.337434
0.409849 0.976238 0.580020
0.389141 0.974835 0.495930
0.330499 0.974913 0.435175
0.334615 0.974597 0.366043
0.583711 0.960405 0.325470
0.909871 0.903133 0.296031
0.988727 0.806211 0.391243
0.995622 0.751445 0.355332
0.999001 0.690763 0.316269
0.404363 0.975908 0.656074
0.413765 0.975198 0.549402
0.418870 0.974945 0.425957
0.417329 0.974533 0.286492
0.511186 0.976911 0.190836
0.716106 0.981282 0.000000
0.925687 0.984246 0.000000
0.942550 0.927535 0.000000
0.957830 0.877088 0.064492
0.386756 0.976527 0.724762
0.405148 0.976593 0.633356
0.414550 0.976555 0.523223
0.418678 0.975997 0.395340
0.469920 0.976369 0.276161
0.605436 0.979633 0.083820
0.835948 0.986592 0.000208
0.925879 0.989243 0.000000
0.925879 0.989243 0.000000
0.358788 0.976398 0.781644
0.392626 0.976433 0.701288
0.410040 0.976193 0.605444
0.418466 0.975515 0.492605
0.421617 0.975326 0.356825
0.546755 0.978322 0.270180
0.728227 0.981676 0.000000
0.925879 0.989243 0.000000
0.925879 0.989243 0.000000
0.027256 0.006994 0.672036
0.020822 0.006982 0.560481
0.412230 0.009901 0.538254
0.946928 0.017130 0.606301
0.999247 0.353041 0.555491
0.999439 0.367112 0.508238
0.999648 0.359528 0.452504
1.000000 0.350607 0.394062
0.999094 0.342377 0.345250
0.029782 0.007470 0.757188
0.027065 0.007375 0.644880
0.256015 0.006674 0.579102
0.737347 0.013494 0.609336
0.999707 0.261295 0.598379
0.999247 0.355730 0.541648
0.999830 0.367454 0.496879
0.999850 0.355546 0.438214
0.999669 0.350309 0.379996
0.001390 0.276308 0.843687
0.000502 0.189146 0.746578
0.146425 0.117011 0.658187
0.553507 0.080580 0.634711
1.000000 0.116495 0.674489
0.999439 0.352997 0.580919
1.000000 0.359059 0.530512
0.999638 0.365146 0.483565
0.999265 0.355249 0.424148
0.001029 0.699257 0.885501
0.000000 0.619045 0.831790
0.000429 0.507814 0.750648
0.410691 0.415355 0.698937
0.880332 0.380831 0.690025
0.999694 0.503573 0.635844
1.000000 0.465313 0.583297
0.999782 0.420078 0.525867
1.000000 0.376490 0.465953
0.001035 0.927947 0.872952
0.000290 0.892020 0.837180
0.000000 0.843760 0.795325
0.196297 0.779763 0.746922
0.714844 0.714844 0.714844
0.998963 0.667529 0.675863
1.000000 0.625585 0.623094
0.999846 0.569691 0.560560
0.999119 0.515133 0.500731
0.344122 0.976347 0.811817
0.342762 0.975123 0.761719
0.292717 0.973616 0.737972
0.249709 0.974292 0.710234
0.560206 0.945038 0.680402
0.894963 0.894582 0.644711
0.999249 0.802933 0.628950
0.999106 0.750691 0.572806
0.999748 0.695100 0.514706
0.306772 0.974764 0.866524
0.358397 0.975048 0.798195
0.384410 0.977257 0.718594
0.406911 0.975901 0.623727
0.515819 0.978243 0.548750
0.723055 0.983615 0.534355
0.954353 0.984539 0.462634
0.968474 0.925525 0.481035
0.976144 0.877735 0.450007
0.231689 0.974042 0.912973
0.318309 0.975868 0.847711
0.360158 0.976373 0.778184
0.395364 0.976046 0.696098
0.452464 0.977908 0.605274
0.629992 0.981345 0.550273
0.836071 0.986553 0.445536
0.936785 0.990245 0.265172
0.925879 0.989243 0.000000
0.162869 0.973568 0.924590
0.256323 0.975510 0.900773
0.333953 0.974210 0.832359
0.374433 0.976082 0.759371
0.401233 0.975615 0.674355
0.546504 0.979475 0.598984
0.744560 0.984454 0.542168
0.943801 0.991900 0.383872
0.932687 0.989744 0.218535
0.039147 0.006380 0.892438
0.032311 0.006602 0.849262
0.422742 0.010561 0.815676
0.938874 0.016951 0.833934
0.999083 0.284813 0.701641
1.000000 0.316194 0.646848
0.999447 0.339314 0.591386
0.998854 0.358077 0.539165
0.999830 0.368126 0.493418
0.039147 0.006380 0.892438
0.039147 0.006380 0.892438
0.206898 0.007013 0.851813
0.743366 0.013310 0.851479
1.000000 0.101656 0.785684
1.000000 0.293475 0.688242
1.000000 0.322903 0.631496
1.000000 0.345324 0.576036
0.998854 0.360093 0.528781
0.039147 0.006380 0.892438
0.039147 0.006380 0.892438
0.039147 0.006380 0.892438
0.538667 0.010188 0.881895
1.000000 0.016822 0.887765
1.000000 0.283063 0.732258
0.999073 0.301858 0.673866
0.999648 0.327601 0.616898
0.999638 0.349687 0.563167
0.000000 0.535942 0.890164
0.000238 0.475931 0.889616
0.000689 0.403918 0.890886
0.356769 0.327554 0.915540
0.869428 0.285393 0.910222
0.999349 0.418682 0.782609
0.999561 0.413115 0.716492
0.999398 0.383534 0.663637
0.999035 0.361633 0.606034
0.000520 0.836905 0.906211
0.000156 0.804921 0.900524
0.000578 0.768918 0.896343
0.000224 0.721907 0.908048
0.664215 0.668006 0.908915
1.000000 0.605522 0.871577
0.999193 0.609390 0.760469
0.999433 0.565460 0.711914
1.000000 0.520529 0.658922
0.162869 0.973568 0.924590
0.101870 0.973609 0.921610
0.000604 0.968225 0.915118
0.000000 0.937623 0.886712
0.471250 0.905725 0.876290
0.860352 0.860352 0.860352
0.998836 0.795006 0.799339
0.999469 0.748395 0.754999
0.999517 0.700141 0.703516
0.162869 0.973568 0.924590
0.162869 0.973568 0.924590
0.237750 0.975248 0.908003
0.323392 0.975426 0.845227
0.470618 0.978550 0.785653
0.695642 0.984507 0.781555
0.975816 0.976595 0.755628
0.990534 0.916294 0.736270
0.998596 0.868845 0.693882
0.162869 0.973568 0.924590
0.162869 0.973568 0.924590
0.162869 0.973568 0.924590
0.268838 0.975238 0.895052
0.380092 0.975842 0.831433
0.594958 0.981773 0.777016
0.831914 0.988842 0.744477
0.964873 0.994368 0.632852
0.957655 0.992662 0.549208
0.162869 0.973568 0.924590
0.162869 0.973568 0.924590
0.162869 0.973568 0.924590
0.149379 0.973536 0.925875
0.294258 0.973692 0.879169
0.492312 0.979008 0.820622
0.733375 0.985664 0.779430
0.970723 0.995090 0.725149
0.961359 0.993492 0.603742
0.039147 0.006380 0.892438
0.039147 0.006380 0.892438
0.306203 0.009677 0.920292
0.907958 0.017062 0.991543
1.000000 0.125530 0.858328
1.000000 0.206288 0.802439
0.999295 0.258745 0.741082
0.999860 0.296157 0.684027
1.000000 0.323911 0.626304
0.039147 0.006380 0.892438
0.039147 0.006380 0.892438
0.039147 0.006380 0.892438
0.683719 0.013470 0.964270
1.000000 0.017018 0.971941
1.000000 0.151553 0.844313
1.000000 0.222654 0.787753
1.000000 0.269082 0.728660
0.999659 0.305853 0.668899
0.039147 0.006380 0.892438
0.039147 0.006380 0.892438
0.039147 0.006380 0.892438
0.392419 0.010057 0.932062
0.963873 0.017129 0.998738
1.000000 0.108149 0.887832
1.000000 0.172579 0.830828
0.999505 0.234359 0.771870
0.999868 0.278777 0.713531
0.000000 0.456282 0.890012
0.000213 0.272592 0.891610
0.000943 0.100571 0.893121
0.212699 0.072458 0.910801
0.763874 0.013653 0.975816
1.000000 0.223719 0.952644
1.000000 0.292524 0.863516
1.000000 0.288288 0.809735
0.999467 0.284052 0.755953
0.000000 0.840925 0.904703
0.000396 0.751918 0.898691
0.000292 0.642588 0.896536
0.000170 0.553569 0.909781
0.547410 0.530902 0.944677
0.992436 0.463847 0.987935
1.000000 0.518480 0.890238
1.000000 0.485242 0.840621
0.999904 0.454654 0.792956
0.162869 0.973568 0.924590
0.149379 0.973536 0.925875
0.000000 0.931910 0.916129
0.000499 0.859903 0.907769
0.330356 0.816473 0.925860
0.779067 0.785346 0.962915
1.000000 0.748793 0.913722
0.999287 0.709550 0.869828
1.000000 0.667935 0.824957
0.162869 0.973568 0.924590
0.162869 0.973568 0.924590
0.162869 0.973568 0.924590
0.162869 0.973568 0.924590
0.340387 0.976238 0.933532
0.605097 0.981272 0.950028
0.942383 0.942383 0.942383
1.000000 0.896485 0.898315
0.999755 0.854560 0.858637
0.162869 0.973568 0.924590
0.162869 0.973568 0.924590
0.162869 0.973568 0.924590
0.162869 0.973568 0.924590
0.233249 0.975318 0.928017
0.493270 0.979457 0.944289
0.797867 0.989669 0.915175
0.985362 0.997209 0.864305
0.978917 0.997101 0.813231
0.162869 0.973568 0.924590
0.162869 0.973568 0.924590
0.162869 0.973568 0.924590
0.162869 0.973568 0.924590
0.162869 0.973568 0.924590
0.381834 0.976976 0.932383
0.668049 0.984530 0.948038
0.950357 0.995907 0.919989
0.982432 0.996968 0.847531
0.039147 0.006380 0.892438
0.039147 0.006380 0.892438
0.039147 0.006380 0.892438
0.749407 0.013316 0.972664
1.000000 0.016639 0.999098
0.999853 0.017057 0.956145
0.999863 0.016480 0.899126
1.000000 0.158560 0.843027
1.000000 0.223326 0.784293
0.039147 0.006380 0.892438
0.039147 0.006380 0.892438
0.039147 0.006380 0.892438
0.442273 0.010600 0.935573
1.000000 0.016639 0.999098
1.000000 0.017311 0.995637
0.999270 0.016759 0.942079
1.000000 0.043479 0.886086
0.999152 0.178610 0.828566
0.039147 0.006380 0.892438
0.039147 0.006380 0.892438
0.039147 0.006380 0.892438
0.204543 0.006974 0.909586
0.799261 0.013859 0.976176
1.000000 0.016639 0.999098
1.000000 0.016340 0.985030
1.000000 0.016739 0.928988
1.000000 0.101517 0.871589
0.000429 0.481264 0.887356
0.000777 0.298914 0.891661
0.008382 0.088403 0.893430
0.039147 0.006380 0.892438
0.565246 0.010152 0.949434
1.000000 0.016639 0.999098
1.000000 0.016639 0.999098
0.999461 0.017049 0.965774
0.999825 0.060796 0.910896
0.000701 0.853568 0.905594
0.000970 0.766236 0.900558
0.000082 0.661598 0.893433
0.000000 0.526246 0.905292
0.446431 0.413505 0.940243
0.869399 0.306616 0.980915
0.999830 0.269994 0.998715
1.000000 0.285992 0.991930
1.000000 0.290741 0.942277
0.162869 0.973568 0.924590
0.162869 0.973568 0.924590
0.000039 0.941232 0.918528
0.000000 0.870594 0.906707
0.263709 0.791644 0.920121
0.706982 0.717309 0.954058
0.999719 0.638018 0.988598
0.999959 0.584007 0.991957
0.999203 0.559411 0.957828
0.162869 0.973568 0.924590
0.162869 0.973568 0.924590
0.162869 0.973568 0.924590
0.162869 0.973568 0.924590
0.317121 0.976763 0.931886
0.579114 0.959858 0.948556
0.885129 0.899610 0.978707
0.999946 0.834014 0.989621
1.000000 0.800364 0.973328
0.162869 0.973568 0.924590
0.162869 0.973568 0.924590
0.162869 0.973568 0.924590
0.162869 0.973568 0.924590
0.206662 0.974250 0.926149
0.470396 0.978645 0.939937
0.752111 0.988284 0.965222
1.000000 1.000000 1.000000
0.999235 0.983710 0.983089
0.162869 0.973568 0.924590
0.162869 0.973568 0.924590
0.162869 0.973568 0.924590
0.162869 0.973568 0.924590
0.162869 0.973568 0.924590
0.365998 0.976329 0.934422
0.632661 0.983317 0.952871
0.915937 0.995575 0.986277
1.000000 1.000000 1.000000
0.039147 0.006380 0.892438
0.039147 0.006380 0.892438
0.039147 0.006380 0.892438
0.648331 0.013937 0.960449
1.000000 0.016639 0.999098
1.000000 0.016639 0.999098
1.000000 0.016639 0.999098
0.999651 0.016670 0.992930
1.000000 0.016734 0.938618
0.039147 0.006380 0.892438
0.039147 0.006380 0.892438
0.039147 0.006380 0.892438
0.390074 0.009779 0.931086
0.931225 0.016538 0.993187
1.000000 0.016639 0.999098
1.000000 0.016639 0.999098
1.000000 0.016639 0.999098
1.000000 0.017348 0.979840
0.039147 0.006380 0.892438
0.039147 0.006380 0.892438
0.039147 0.006380 0.892438
0.148628 0.006907 0.902390
0.743346 0.013455 0.970711
1.000000 0.016639 0.999098
1.000000 0.016639 0.999098
1.000000 0.016639 0.999098
1.000000 0.016639 0.999098
0.000801 0.502253 0.889667
0.000000 0.325932 0.891712
0.000531 0.125915 0.892195
0.039147 0.006380 0.892438
0.523799 0.010422 0.945390
0.994568 0.016440 0.998875
1.000000 0.016639 0.999098
1.000000 0.016639 0.999098
1.000000 0.016639 0.999098
0.000108 0.861913 0.907016
0.000568 0.779577 0.901450
0.000264 0.677590 0.896278
0.000372 0.548243 0.902414
0.414941 0.430218 0.936780
0.835169 0.324724 0.977453
0.999687 0.206662 0.999676
1.000000 0.016639 0.999098
1.000000 0.016639 0.999098
0.162869 0.973568 0.924590
0.162869 0.973568 0.924590
0.000000 0.949911 0.918218
0.000873 0.881564 0.906622
0.219513 0.803967 0.921184
0.680776 0.726235 0.951128
0.999699 0.661689 0.986696
1.000000 0.524333 0.989681
0.999732 0.387002 0.996125
0.162869 0.973568 0.924590
0.162869 0.973568 0.924590
0.162869 0.973568 0.924590
0.162869 0.973568 0.924590
0.296593 0.975893 0.930242
0.560730 0.965937 0.948331
0.864008 0.907756 0.975024
1.000000 0.838676 0.990820
1.000000 0.757677 0.987961
0.162869 0.973568 0.924590
0.162869 0.973568 0.924590
0.162869 0.973568 0.924590
0.162869 0.973568 0.924590
0.185742 0.975054 0.925479
0.449476 0.979112 0.941001
0.730215 0.987774 0.965309
1.000000 1.000000 1.000000
0.999627 0.979348 0.995958
0.162869 0.973568 0.924590
0.162869 0.973568 0.924590
0.162869 0.973568 0.924590
0.162869 0.973568 0.924590
0.162869 0.973568 0.924590
0.340387 0.976574 0.931801
0.608027 0.984202 0.952958
0.894434 0.993728 0.983657
1.000000 1.000000 1.000000
