XH2_FLog2C_FGamutC_to_ETERNA-BB_BT.709_33grid_V.1.00.cube
#title:FLog2C_FGamutC_to_ETERNA-BB_BT.709
#FUJIFILM Corporation
#Gamma:F-Log2C to ETERNA BLEACH BYPASS
#Gamut:F-GamutC to ITU-R BT.709
#Version:1.00
LUT_3D_SIZE 33
0.000000 0.000000 0.000000
0.000000 0.000000 0.000000
0.013490 0.000000 0.000445
0.029517 0.003661 0.006527
0.053559 0.010784 0.009593
0.093829 0.016880 0.009644
0.140349 0.026489 0.018038
0.218926 0.046380 0.026483
0.335033 0.070401 0.052285
0.462477 0.096484 0.089136
0.582279 0.139388 0.136507
0.671961 0.196964 0.187340
0.734652 0.268157 0.230274
0.798281 0.374561 0.337866
0.840235 0.458852 0.402012
0.840235 0.458852 0.402012
0.840235 0.458852 0.402012
0.840235 0.458852 0.402012
0.840235 0.458852 0.402012
0.840235 0.458852 0.402012
0.840235 0.458852 0.402012
0.840235 0.458852 0.402012
0.840235 0.458852 0.402012
0.840235 0.458852 0.402012
0.840235 0.458852 0.402012
0.840235 0.458852 0.402012
0.840235 0.458852 0.402012
0.840235 0.458852 0.402012
0.840235 0.458852 0.402012
0.840235 0.458852 0.402012
0.840235 0.458852 0.402012
0.840235 0.458852 0.402012
0.840235 0.458852 0.402012
0.000000 0.000000 0.000000
0.000000 0.000000 0.000000
0.000000 0.000000 0.000000
0.020326 0.007204 0.003821
0.041246 0.006065 0.006220
0.078778 0.012884 0.009731
0.119238 0.023305 0.012711
0.178072 0.038641 0.019289
0.281867 0.058617 0.038253
0.408918 0.087045 0.072622
0.533230 0.115860 0.112179
0.638164 0.170760 0.162480
0.711023 0.238379 0.214289
0.776233 0.329108 0.304218
0.834777 0.441333 0.386609
0.840235 0.458852 0.402012
0.840235 0.458852 0.402012
0.840235 0.458852 0.402012
0.840235 0.458852 0.402012
0.840235 0.458852 0.402012
0.840235 0.458852 0.402012
0.840235 0.458852 0.402012
0.840235 0.458852 0.402012
0.840235 0.458852 0.402012
0.840235 0.458852 0.402012
0.840235 0.458852 0.402012
0.840235 0.458852 0.402012
0.840235 0.458852 0.402012
0.840235 0.458852 0.402012
0.840235 0.458852 0.402012
0.840235 0.458852 0.402012
0.840235 0.458852 0.402012
0.840235 0.458852 0.402012
0.000000 0.000000 0.000000
0.000000 0.000000 0.000000
0.000000 0.000000 0.000000
0.017397 0.003603 0.004352
0.032446 0.006926 0.007727
0.060989 0.010283 0.009817
0.099306 0.013754 0.011376
0.149732 0.028615 0.016755
0.239061 0.048924 0.029106
0.357121 0.074899 0.056859
0.483195 0.101343 0.095441
0.599283 0.144665 0.141836
0.683679 0.209690 0.193866
0.744027 0.280605 0.235825
0.809407 0.393952 0.354468
0.840235 0.458852 0.402012
0.840235 0.458852 0.402012
0.840235 0.458852 0.402012
0.840235 0.458852 0.402012
0.840235 0.458852 0.402012
0.840235 0.458852 0.402012
0.840235 0.458852 0.402012
0.840235 0.458852 0.402012
0.840235 0.458852 0.402012
0.840235 0.458852 0.402012
0.840235 0.458852 0.402012
0.840235 0.458852 0.402012
0.840235 0.458852 0.402012
0.840235 0.458852 0.402012
0.840235 0.458852 0.402012
0.840235 0.458852 0.402012
0.840235 0.458852 0.402012
0.840235 0.458852 0.402012
0.003505 0.017584 0.003066
0.000383 0.009657 0.000667
0.000583 0.002987 0.000222
0.003715 0.000000 0.000000
0.025802 0.003743 0.007281
0.049652 0.006541 0.007418
0.083469 0.013779 0.009953
0.128431 0.020097 0.013688
0.195862 0.040570 0.022665
0.302001 0.061160 0.040875
0.430422 0.088219 0.078703
0.552772 0.125741 0.121414
0.653015 0.180083 0.169762
0.721765 0.249456 0.223301
0.784035 0.347243 0.318866
0.841603 0.458828 0.398550
0.840235 0.458852 0.402012
0.840235 0.458852 0.402012
0.840235 0.458852 0.402012
0.840235 0.458852 0.402012
0.840235 0.458852 0.402012
0.840235 0.458852 0.402012
0.840235 0.458852 0.402012
0.840235 0.458852 0.402012
0.840235 0.458852 0.402012
0.840235 0.458852 0.402012
0.840235 0.458852 0.402012
0.840235 0.458852 0.402012
0.840235 0.458852 0.402012
0.840235 0.458852 0.402012
0.840235 0.458852 0.402012
0.840235 0.458852 0.402012
0.840235 0.458852 0.402012
0.003878 0.038235 0.007109
0.000363 0.031983 0.005686
0.003303 0.023582 0.006972
0.003505 0.017584 0.003066
0.022471 0.013818 0.006972
0.042807 0.010364 0.005686
0.068418 0.009783 0.010039
0.109664 0.016519 0.012797
0.161269 0.026022 0.016976
0.255088 0.053560 0.031726
0.376470 0.080454 0.063163
0.501176 0.107595 0.101746
0.616087 0.155605 0.152800
0.694815 0.219431 0.200171
0.756127 0.299293 0.262055
0.821508 0.414656 0.370317
0.840235 0.458852 0.402012
0.840235 0.458852 0.402012
0.840235 0.458852 0.402012
0.840235 0.458852 0.402012
0.840235 0.458852 0.402012
0.840235 0.458852 0.402012
0.840235 0.458852 0.402012
0.840235 0.458852 0.402012
0.840235 0.458852 0.402012
0.840235 0.458852 0.402012
0.840235 0.458852 0.402012
0.840235 0.458852 0.402012
0.840235 0.458852 0.402012
0.840235 0.458852 0.402012
0.840235 0.458852 0.402012
0.840235 0.458852 0.402012
0.840235 0.458852 0.402012
0.004441 0.063885 0.010620
0.007381 0.056492 0.006714
0.002891 0.049262 0.004317
0.006808 0.041838 0.006578
0.013652 0.037679 0.010039
0.041609 0.038384 0.010177
0.064292 0.035209 0.009868
0.095963 0.035160 0.012711
0.139173 0.032183 0.017507
0.210519 0.046240 0.023553
0.324674 0.067972 0.049133
0.450355 0.097098 0.083501
0.572313 0.135285 0.132379
0.667078 0.192417 0.180726
0.734461 0.263497 0.229074
0.792230 0.363705 0.332538
0.840235 0.458852 0.402012
0.840235 0.458852 0.402012
0.840235 0.458852 0.402012
0.840235 0.458852 0.402012
0.840235 0.458852 0.402012
0.840235 0.458852 0.402012
0.840235 0.458852 0.402012
0.840235 0.458852 0.402012
0.840235 0.458852 0.402012
0.840235 0.458852 0.402012
0.840235 0.458852 0.402012
0.840235 0.458852 0.402012
0.840235 0.458852 0.402012
0.840235 0.458852 0.402012
0.840235 0.458852 0.402012
0.840235 0.458852 0.402012
0.840235 0.458852 0.402012
0.017711 0.093586 0.011340
0.007160 0.085824 0.010449
0.010492 0.076085 0.009027
0.004049 0.065895 0.009868
0.007381 0.056492 0.006714
0.037684 0.057140 0.009558
0.060557 0.058626 0.010449
0.089882 0.058634 0.010586
0.125854 0.061490 0.012899
0.187043 0.065775 0.018809
0.283025 0.076257 0.038613
0.404811 0.089810 0.069160
0.525409 0.118371 0.111203
0.629567 0.165624 0.160082
0.706534 0.231486 0.210161
0.767836 0.319653 0.289262
0.829310 0.433127 0.383234
0.840235 0.458852 0.402012
0.840235 0.458852 0.402012
0.840235 0.458852 0.402012
0.840235 0.458852 0.402012
0.840235 0.458852 0.402012
0.840235 0.458852 0.402012
0.840235 0.458852 0.402012
0.840235 0.458852 0.402012
0.840235 0.458852 0.402012
0.840235 0.458852 0.402012
0.840235 0.458852 0.402012
0.840235 0.458852 0.402012
0.840235 0.458852 0.402012
0.840235 0.458852 0.402012
0.840235 0.458852 0.402012
0.840235 0.458852 0.402012
0.025696 0.130067 0.016718
0.019644 0.118874 0.013120
0.013593 0.107682 0.009523
0.013603 0.095678 0.011340
0.016543 0.087949 0.009163
0.029842 0.082650 0.010140
0.058192 0.081008 0.012762
0.086149 0.081378 0.014628
0.116844 0.080689 0.014764
0.169235 0.086172 0.020453
0.255251 0.093223 0.032669
0.366283 0.106020 0.061040
0.487474 0.126237 0.101660
0.600049 0.163643 0.144902
0.685433 0.218314 0.196265
0.744027 0.280605 0.235825
0.806678 0.385024 0.347632
0.840235 0.458852 0.402012
0.840235 0.458852 0.402012
0.840235 0.458852 0.402012
0.840235 0.458852 0.402012
0.840235 0.458852 0.402012
0.840235 0.458852 0.402012
0.840235 0.458852 0.402012
0.840235 0.458852 0.402012
0.840235 0.458852 0.402012
0.840235 0.458852 0.402012
0.840235 0.458852 0.402012
0.840235 0.458852 0.402012
0.840235 0.458852 0.402012
0.840235 0.458852 0.402012
0.840235 0.458852 0.402012
0.840235 0.458852 0.402012
0.026431 0.184046 0.019527
0.026451 0.161719 0.014508
0.025876 0.147402 0.012640
0.022565 0.133806 0.014234
0.019644 0.118874 0.013120
0.029037 0.108996 0.013652
0.051326 0.107494 0.014321
0.085153 0.103065 0.016942
0.112133 0.103129 0.014372
0.157487 0.107774 0.017129
0.232749 0.114070 0.027167
0.332448 0.123797 0.049679
0.451495 0.136729 0.090609
0.571498 0.172963 0.137535
0.667050 0.225402 0.190852
0.739717 0.289704 0.234539
0.797697 0.373927 0.325531
0.843355 0.467116 0.402680
0.845308 0.468733 0.406363
0.840235 0.458852 0.402012
0.840235 0.458852 0.402012
0.840235 0.458852 0.402012
0.840235 0.458852 0.402012
0.840235 0.458852 0.402012
0.840235 0.458852 0.402012
0.840235 0.458852 0.402012
0.840235 0.458852 0.402012
0.840235 0.458852 0.402012
0.840235 0.458852 0.402012
0.840235 0.458852 0.402012
0.840235 0.458852 0.402012
0.840235 0.458852 0.402012
0.840235 0.458852 0.402012
0.000000 0.267287 0.038270
0.000187 0.237288 0.028367
0.012721 0.213682 0.022817
0.023885 0.189429 0.024187
0.022535 0.168808 0.013977
0.026461 0.150388 0.012862
0.046998 0.139591 0.014594
0.078087 0.136556 0.017215
0.106435 0.134244 0.023297
0.145929 0.133029 0.020194
0.213180 0.138183 0.022866
0.309555 0.145647 0.048617
0.419802 0.160784 0.084133
0.542354 0.191299 0.128130
0.650418 0.241450 0.186105
0.731684 0.309879 0.237382
0.793983 0.380731 0.291676
0.843748 0.467458 0.391319
0.860531 0.498371 0.419418
0.855457 0.488492 0.415066
0.851359 0.479589 0.411691
0.845893 0.471383 0.408316
0.842580 0.459469 0.401258
0.840235 0.458852 0.402012
0.840235 0.458852 0.402012
0.840235 0.458852 0.402012
0.840235 0.458852 0.402012
0.840235 0.458852 0.402012
0.840235 0.458852 0.402012
0.840235 0.458852 0.402012
0.840235 0.458852 0.402012
0.840235 0.458852 0.402012
0.840235 0.458852 0.402012
0.000453 0.376534 0.081649
0.000291 0.340904 0.059941
0.000000 0.310260 0.056961
0.000741 0.273260 0.038715
0.003309 0.244879 0.032496
0.013304 0.216669 0.023039
0.029744 0.196633 0.023124
0.070225 0.184727 0.021086
0.102491 0.176335 0.022508
0.142770 0.170092 0.026105
0.201614 0.173761 0.032770
0.291343 0.180393 0.045960
0.398078 0.189614 0.078325
0.515545 0.219901 0.128266
0.632409 0.269189 0.184734
0.727748 0.339295 0.241871
0.807836 0.414091 0.289157
0.845893 0.477433 0.377168
0.875553 0.534680 0.432919
0.870479 0.524801 0.428567
0.865797 0.513246 0.423238
0.860138 0.500718 0.416934
0.857410 0.491453 0.411827
0.851944 0.482239 0.413644
0.847846 0.473672 0.408539
0.844533 0.461422 0.403211
0.840235 0.458852 0.402012
0.840235 0.458852 0.402012
0.840235 0.458852 0.402012
0.840235 0.458852 0.402012
0.840235 0.458852 0.402012
0.840235 0.458852 0.402012
0.840235 0.458852 0.402012
0.000000 0.502756 0.161195
0.000184 0.457818 0.117833
0.000000 0.422182 0.105754
0.000000 0.384543 0.084801
0.000000 0.348240 0.066555
0.000311 0.318241 0.056653
0.000148 0.280933 0.043598
0.049045 0.259180 0.035921
0.093632 0.244174 0.039075
0.137043 0.234191 0.045157
0.193743 0.230574 0.052129
0.273898 0.232438 0.055023
0.376917 0.242077 0.086410
0.498301 0.266283 0.131692
0.617511 0.315515 0.190868
0.728494 0.380936 0.248227
0.814643 0.454920 0.300926
0.856817 0.507863 0.371719
0.880617 0.557907 0.428530
0.884130 0.562143 0.440336
0.882772 0.551845 0.436961
0.873398 0.539733 0.429680
0.874385 0.529379 0.429013
0.865013 0.517267 0.421731
0.863068 0.503648 0.419864
0.858972 0.495080 0.414757
0.854874 0.485505 0.414845
0.847453 0.475683 0.407785
0.842772 0.464130 0.402457
0.840235 0.458852 0.402012
0.840235 0.458852 0.402012
0.840235 0.458852 0.402012
0.840235 0.458852 0.402012
0.032474 0.631927 0.224551
0.000000 0.591718 0.192634
0.000487 0.551402 0.166266
0.000528 0.508430 0.147574
0.000000 0.470481 0.131812
0.000012 0.431839 0.106421
0.000000 0.394866 0.091637
0.000463 0.364867 0.081735
0.072040 0.340275 0.072020
0.131882 0.322595 0.074641
0.192888 0.309879 0.082898
0.270700 0.309112 0.096931
0.370205 0.316195 0.107860
0.483967 0.337248 0.146528
0.609830 0.378669 0.202773
0.732352 0.441162 0.262086
0.817141 0.504513 0.313140
0.865777 0.552041 0.343464
0.893303 0.585967 0.422106
0.905988 0.606632 0.453750
0.897985 0.593486 0.448200
0.894673 0.580228 0.448062
0.888037 0.566722 0.440781
0.879641 0.554578 0.439668
0.875351 0.541686 0.431633
0.873017 0.530412 0.427282
0.865989 0.517907 0.424437
0.862868 0.509645 0.423770
0.858578 0.496754 0.415733
0.857218 0.486120 0.414089
0.849406 0.477636 0.409738
0.845308 0.468733 0.406363
0.840235 0.458852 0.402012
0.183700 0.738446 0.281703
0.135828 0.709223 0.257907
0.094802 0.676514 0.234109
0.014484 0.639357 0.207776
0.000000 0.602047 0.189840
0.000000 0.560412 0.173855
0.000000 0.519451 0.154410
0.000749 0.480442 0.136919
0.053560 0.452609 0.124581
0.126114 0.428658 0.117574
0.199446 0.411010 0.118909
0.282732 0.406108 0.139863
0.374225 0.408017 0.164191
0.484473 0.426516 0.182403
0.608977 0.459655 0.224891
0.728769 0.512546 0.280827
0.817283 0.564484 0.329485
0.884685 0.614918 0.364161
0.906170 0.629682 0.420255
0.917688 0.644038 0.453183
0.914567 0.634431 0.459437
0.910278 0.620868 0.454864
0.908335 0.607584 0.451267
0.899938 0.595776 0.448422
0.894279 0.582238 0.447309
0.889990 0.568675 0.442734
0.882571 0.557508 0.442598
0.878281 0.544953 0.432832
0.874970 0.532029 0.430966
0.867549 0.521871 0.425637
0.862868 0.509981 0.422039
0.860531 0.498371 0.419418
0.855457 0.488492 0.415066
0.298388 0.819484 0.317457
0.262045 0.797992 0.300719
0.228833 0.772760 0.286466
0.190344 0.744654 0.266574
0.138758 0.714842 0.246992
0.092256 0.683914 0.228386
0.019951 0.648235 0.207691
0.006692 0.609555 0.193215
0.071041 0.578458 0.184563
0.151417 0.551660 0.180261
0.223188 0.530722 0.176938
0.308438 0.517450 0.193008
0.396024 0.516461 0.208239
0.498650 0.528782 0.235409
0.613972 0.556151 0.263164
0.729869 0.594813 0.308359
0.819178 0.633752 0.344766
0.886006 0.671549 0.368922
0.915705 0.684144 0.414633
0.925863 0.686858 0.451109
0.928601 0.682438 0.466683
0.926658 0.668818 0.464816
0.917678 0.654025 0.461750
0.915734 0.640404 0.459882
0.911446 0.626505 0.457038
0.907156 0.612941 0.452464
0.900522 0.598090 0.452106
0.894864 0.585560 0.445801
0.889205 0.572023 0.444687
0.884524 0.560469 0.439360
0.878866 0.547939 0.433055
0.877506 0.536633 0.434872
0.870479 0.524801 0.428567
0.407037 0.877663 0.349700
0.373624 0.859436 0.334160
0.338448 0.843582 0.319598
0.303080 0.823066 0.303835
0.269082 0.802190 0.286343
0.224332 0.778878 0.275328
0.195619 0.748535 0.267019
0.150678 0.721569 0.249614
0.130955 0.695697 0.237535
0.192365 0.672330 0.231060
0.269018 0.654930 0.239540
0.341562 0.640294 0.244558
0.426612 0.634029 0.259343
0.525726 0.640434 0.283363
0.630304 0.654708 0.312488
0.735661 0.677974 0.336113
0.818335 0.705423 0.354856
0.885958 0.728541 0.375414
0.922502 0.744370 0.386516
0.933446 0.738695 0.446996
0.936575 0.730249 0.473707
0.937370 0.715234 0.471839
0.933083 0.700327 0.474187
0.928793 0.686763 0.469613
0.925873 0.672166 0.466769
0.920215 0.659301 0.462196
0.917688 0.642358 0.461836
0.911052 0.628851 0.454554
0.907740 0.615591 0.454417
0.902082 0.602390 0.451574
0.896424 0.589524 0.447000
0.889790 0.575345 0.443179
0.884130 0.562143 0.440336
0.495369 0.918313 0.371286
0.472697 0.912174 0.359567
0.444559 0.896822 0.349664
0.410751 0.880605 0.333371
0.377922 0.865030 0.319785
0.348223 0.846049 0.306953
0.309726 0.827931 0.295629
0.273965 0.807745 0.287765
0.236645 0.783260 0.280433
0.268528 0.765546 0.279456
0.322498 0.752666 0.281325
0.385458 0.741903 0.291535
0.459363 0.738237 0.296469
0.546558 0.738250 0.316137
0.640978 0.744768 0.334742
0.738522 0.759885 0.352285
0.821599 0.774330 0.368406
0.881801 0.788632 0.376714
0.927538 0.801254 0.388793
0.940635 0.792879 0.440398
0.942013 0.775473 0.466442
0.943000 0.762430 0.479617
0.942427 0.748112 0.477750
0.938528 0.732539 0.473928
0.936194 0.720256 0.474769
0.935036 0.702952 0.472680
0.930746 0.689388 0.468106
0.927827 0.674120 0.468723
0.918453 0.662008 0.461441
0.918272 0.645680 0.460328
0.912614 0.632478 0.457484
0.908717 0.617240 0.451934
0.905405 0.603646 0.453527
0.535246 0.923396 0.386157
0.528602 0.921893 0.377059
0.524304 0.920332 0.370668
0.501823 0.919190 0.358418
0.477781 0.913747 0.346699
0.449642 0.898730 0.335066
0.417396 0.885134 0.326895
0.388674 0.867130 0.315038
0.353106 0.851604 0.308375
0.341779 0.836532 0.304333
0.380498 0.826325 0.306731
0.427815 0.821256 0.311527
0.489597 0.816187 0.321206
0.567408 0.815755 0.333507
0.650101 0.820878 0.347230
0.738463 0.826864 0.367343
0.814704 0.834136 0.378360
0.874525 0.840126 0.379079
0.918508 0.846140 0.378374
0.944311 0.841817 0.427188
0.947059 0.823042 0.456690
0.948437 0.805637 0.482734
0.944150 0.791401 0.481621
0.946896 0.779012 0.478246
0.944953 0.765055 0.478110
0.941642 0.751460 0.479703
0.939114 0.735190 0.475882
0.938147 0.722545 0.474993
0.934251 0.706972 0.471172
0.928591 0.693770 0.468327
0.925672 0.679509 0.463754
0.921383 0.665274 0.462641
0.919832 0.649978 0.459796
0.557333 0.926548 0.397653
0.547951 0.926104 0.390284
0.540330 0.923960 0.378480
0.535639 0.924074 0.373066
0.528995 0.922235 0.365699
0.523719 0.920371 0.354872
0.506322 0.918112 0.343598
0.485211 0.915263 0.336539
0.456287 0.901914 0.335512
0.424433 0.886642 0.326364
0.442816 0.880562 0.326585
0.479382 0.874402 0.330938
0.527282 0.871647 0.339418
0.589650 0.870238 0.345859
0.659244 0.873655 0.359891
0.736270 0.877243 0.370684
0.806257 0.879321 0.382008
0.863732 0.884360 0.385210
0.911241 0.885968 0.380825
0.944282 0.885557 0.381937
0.946828 0.866394 0.448227
0.948992 0.845977 0.470586
0.947633 0.832991 0.481053
0.947643 0.821997 0.477681
0.948046 0.807647 0.481981
0.948056 0.796651 0.478606
0.948849 0.781301 0.478468
0.945538 0.768042 0.478332
0.941248 0.754142 0.475489
0.939305 0.739849 0.477082
0.936386 0.725589 0.472509
0.935811 0.710599 0.474102
0.929176 0.696420 0.470280
0.574338 0.930145 0.411632
0.567694 0.928978 0.400805
0.561050 0.927475 0.391707
0.555380 0.926612 0.385316
0.548736 0.925445 0.374488
0.541700 0.924943 0.369827
0.535054 0.923104 0.362460
0.529780 0.920568 0.355094
0.522742 0.919730 0.352164
0.513360 0.918949 0.346528
0.508669 0.918727 0.342844
0.534673 0.916472 0.346219
0.567129 0.912067 0.352300
0.616983 0.912273 0.357543
0.672897 0.912004 0.366468
0.736825 0.913886 0.377571
0.799777 0.915127 0.385966
0.851583 0.917959 0.389699
0.897722 0.918583 0.393965
0.933308 0.913799 0.385227
0.948560 0.902051 0.431418
0.950916 0.884948 0.461899
0.949950 0.868608 0.480043
0.948590 0.857302 0.481859
0.952315 0.845217 0.482922
0.949587 0.834945 0.483007
0.946858 0.825009 0.481363
0.949606 0.811611 0.483180
0.947269 0.800336 0.478828
0.946696 0.785346 0.480421
0.943383 0.772423 0.478555
0.942808 0.758106 0.476687
0.939888 0.743508 0.473843
0.593103 0.932715 0.417715
0.583721 0.932270 0.410349
0.580791 0.930349 0.402227
0.574147 0.928509 0.394860
0.567109 0.928344 0.388469
0.559097 0.927202 0.381101
0.553427 0.926340 0.374710
0.545415 0.925197 0.367343
0.541509 0.922299 0.358247
0.537794 0.922717 0.357270
0.536818 0.921741 0.356294
0.562620 0.926492 0.358384
0.601912 0.930940 0.360918
0.640812 0.936726 0.366159
0.684798 0.942068 0.368918
0.739342 0.942160 0.379575
0.792910 0.941612 0.387523
0.842763 0.940811 0.397956
0.885581 0.939508 0.403731
0.920383 0.937063 0.402138
0.945804 0.930476 0.412211
0.949720 0.915658 0.452543
0.952075 0.899565 0.477832
0.951691 0.888899 0.482356
0.950916 0.881588 0.479202
0.949556 0.870282 0.481019
0.947805 0.860986 0.482081
0.951530 0.849237 0.481414
0.950171 0.838268 0.481500
0.948811 0.826962 0.483316
0.949213 0.813620 0.482425
0.946878 0.802346 0.478075
0.946888 0.790343 0.479890
0.593103 0.932043 0.421176
0.593103 0.932715 0.417715
0.592126 0.932410 0.413278
0.587829 0.931186 0.405157
0.584899 0.929264 0.397035
0.577861 0.928763 0.392375
0.569847 0.927622 0.385007
0.565156 0.927399 0.381324
0.557535 0.925255 0.369520
0.552844 0.925033 0.365836
0.544438 0.925228 0.361176
0.562226 0.927158 0.364550
0.594090 0.931770 0.368595
0.635729 0.936497 0.372106
0.681666 0.943792 0.376816
0.736987 0.952203 0.385434
0.783316 0.957153 0.392628
0.827693 0.959813 0.399600
0.870511 0.958174 0.407106
0.905705 0.953047 0.409726
0.933472 0.949764 0.405204
0.946377 0.940426 0.436574
0.949316 0.926310 0.467278
0.950303 0.912931 0.482183
0.950505 0.906261 0.481738
0.952075 0.898893 0.481294
0.952668 0.890212 0.481601
0.949546 0.882621 0.477473
0.950142 0.873269 0.481243
0.952496 0.862217 0.480574
0.952114 0.852224 0.481638
0.950754 0.841254 0.481723
0.948418 0.828971 0.482563
0.596033 0.933628 0.431028
0.594080 0.933356 0.420422
0.593103 0.933051 0.415984
0.589782 0.932467 0.410570
0.588805 0.932498 0.404402
0.591543 0.931776 0.400941
0.586852 0.931890 0.395527
0.583922 0.929632 0.389136
0.577278 0.927792 0.381770
0.571609 0.926595 0.377109
0.563203 0.926790 0.372450
0.566917 0.927044 0.369965
0.590768 0.929169 0.373562
0.618916 0.934537 0.374897
0.655471 0.940043 0.379164
0.706100 0.947560 0.387558
0.759467 0.954019 0.394223
0.811465 0.960503 0.404347
0.857210 0.962130 0.413051
0.889074 0.967078 0.415363
0.921139 0.965355 0.417229
0.944214 0.959498 0.421136
0.946369 0.949068 0.452063
0.949306 0.935289 0.481035
0.949508 0.928618 0.480590
0.952054 0.921891 0.482852
0.949910 0.914942 0.481431
0.951481 0.907572 0.480984
0.952658 0.901880 0.481516
0.947192 0.893002 0.481601
0.949155 0.884295 0.478450
0.951118 0.874581 0.480488
0.949365 0.865286 0.481551
0.599747 0.932874 0.433735
0.596033 0.933965 0.429296
0.594080 0.933356 0.420422
0.592126 0.932410 0.413278
0.589782 0.932467 0.410570
0.592520 0.932081 0.405379
0.590567 0.931472 0.396504
0.586852 0.931890 0.395527
0.588614 0.930191 0.391090
0.585290 0.929607 0.385676
0.585290 0.930279 0.382215
0.577278 0.928801 0.376578
0.589005 0.930533 0.379731
0.609141 0.933414 0.380621
0.638658 0.937746 0.383686
0.680881 0.945123 0.389153
0.727212 0.950409 0.394618
0.780578 0.956196 0.404741
0.829255 0.961424 0.412914
0.872262 0.964781 0.419887
0.904518 0.967720 0.422953
0.934428 0.971051 0.421582
0.948312 0.965040 0.441817
0.949488 0.954642 0.466574
0.949690 0.945955 0.476511
0.949498 0.940622 0.478773
0.950283 0.936602 0.480281
0.950485 0.929931 0.479836
0.951663 0.923901 0.482098
0.951863 0.916895 0.483384
0.952064 0.910559 0.481206
0.953634 0.902856 0.482492
0.951883 0.894232 0.480094
0.599356 0.933875 0.438173
0.597009 0.934604 0.432004
0.594080 0.932684 0.423883
0.594080 0.933692 0.418692
0.592126 0.932410 0.413278
0.589782 0.933139 0.407110
0.591543 0.931440 0.402672
0.587829 0.932867 0.396504
0.588614 0.929855 0.392820
0.586267 0.930248 0.388382
0.585290 0.929607 0.385676
0.586267 0.931256 0.383192
0.593698 0.930419 0.385145
0.610117 0.933718 0.385058
0.632598 0.936541 0.388657
0.660747 0.941571 0.391723
0.701016 0.946660 0.396966
0.746953 0.953283 0.405137
0.795629 0.958510 0.413309
0.844698 0.962065 0.420503
0.883014 0.964192 0.428985
0.916247 0.968780 0.429567
0.945180 0.970798 0.428948
0.949086 0.970334 0.455352
0.950265 0.960944 0.474918
0.947335 0.957342 0.475449
0.950465 0.953602 0.477934
0.949298 0.947628 0.477487
0.949107 0.942632 0.478021
0.950283 0.936602 0.480281
0.950091 0.931605 0.480812
0.950293 0.924598 0.482098
0.953816 0.919184 0.483605
0.601309 0.934484 0.447047
0.599356 0.933875 0.438173
0.599747 0.933210 0.432004
0.593103 0.932043 0.421176
0.593103 0.932715 0.417715
0.592126 0.932410 0.413278
0.587829 0.931186 0.405157
0.586852 0.930881 0.400719
0.586852 0.931890 0.395527
0.588614 0.929855 0.392820
0.586267 0.930248 0.388382
0.586267 0.931256 0.383192
0.586267 0.931256 0.383192
0.600342 0.933938 0.383859
0.626537 0.936344 0.388433
0.654686 0.940702 0.394962
0.686549 0.945314 0.399004
0.723104 0.950821 0.403269
0.770410 0.956074 0.414902
0.812049 0.960129 0.421874
0.856034 0.964463 0.429825
0.893373 0.965949 0.435597
0.924260 0.969585 0.438663
0.947133 0.971070 0.439554
0.945955 0.972396 0.461519
0.949670 0.970298 0.471148
0.949086 0.966974 0.472655
0.949871 0.962618 0.475894
0.949288 0.959631 0.475672
0.947727 0.955333 0.476204
0.950275 0.948941 0.476735
0.950083 0.943608 0.478997
0.948915 0.937635 0.478551
0.603262 0.935429 0.454192
0.600332 0.933843 0.444339
0.597986 0.935245 0.434712
0.596033 0.933628 0.431028
0.594080 0.933356 0.420422
0.593103 0.933051 0.415984
0.589782 0.932467 0.410570
0.588805 0.932498 0.404402
0.591543 0.931776 0.400941
0.586852 0.931890 0.395527
0.588614 0.929855 0.392820
0.586267 0.930920 0.384921
0.586267 0.931256 0.383192
0.595651 0.933380 0.381906
0.619500 0.935170 0.387234
0.640219 0.940029 0.393540
0.668760 0.943385 0.395629
0.706684 0.948195 0.399896
0.745585 0.952972 0.410329
0.785854 0.957052 0.420762
0.827100 0.962109 0.432171
0.869131 0.964826 0.436438
0.903733 0.967707 0.442211
0.935989 0.970981 0.443546
