XH2S_FLog2C_FGamutC_to_ETERNA_BT.709_33grid_V.1.00.cube
#title:FLog2C_FGamutC_to_ETERNA_BT.709
#FUJIFILM Corporation
#Gamma:F-Log2C to ETERNA
#Gamut:F-GamutC to ITU-R BT.709
#Version:1.00
LUT_3D_SIZE 5
0.006836 0.006836 0.006836
0.470166 0.024014 0.065202
1.000000 0.348255 0.406176
1.000000 0.348255 0.406176
1.000000 0.348255 0.406176
0.000000 0.258016 0.000816
0.188918 0.165098 0.000000
0.998981 0.256476 0.282441
1.000000 0.348255 0.406176
1.000000 0.348255 0.406176
0.000000 0.962037 0.000321
0.000000 0.797022 0.000546
0.774609 0.691965 0.000000
0.998506 0.586133 0.299515
0.999561 0.483353 0.354825
0.000000 0.975018 0.000000
0.000000 0.976691 0.000457
0.133881 0.983347 0.000000
0.947010 0.970101 0.000000
0.963518 0.868395 0.000106
0.000000 0.976691 0.000457
0.000000 0.975018 0.000000
0.000549 0.977668 0.001434
0.731539 0.994935 0.000000
0.942098 0.999212 0.000000
0.006616 0.003570 0.178426
0.406036 0.010320 0.149723
1.000000 0.348255 0.406176
1.000000 0.348255 0.406176
1.000000 0.348255 0.406176
0.000000 0.294857 0.306645
0.173828 0.173828 0.173828
1.000000 0.227449 0.283145
1.000000 0.348255 0.406176
1.000000 0.348255 0.406176
0.000000 0.959114 0.375316
0.000283 0.828340 0.000066
0.727868 0.710681 0.000000
0.999856 0.604737 0.320110
1.000000 0.499688 0.346308
0.000701 0.968841 0.312043
0.000000 0.976691 0.000457
0.000000 0.981688 0.000000
0.938978 0.990613 0.000532
0.960378 0.883466 0.000000
0.000068 0.963026 0.626337
0.000000 0.968251 0.274280
0.000000 0.976691 0.000457
0.679340 0.993106 0.000501
0.942098 0.999212 0.000000
0.020219 0.000000 0.701984
0.421029 0.009712 0.533286
0.999638 0.351031 0.556246
0.999255 0.359186 0.463863
1.000000 0.348255 0.406176
0.000203 0.279891 0.914020
0.171021 0.154392 0.701020
0.999794 0.131757 0.725477
0.999638 0.352375 0.549324
1.000000 0.356846 0.456718
0.000000 0.878660 0.865177
0.000558 0.815442 0.776770
0.714844 0.714844 0.714844
0.999001 0.628590 0.636405
0.999301 0.527765 0.520879
0.000230 0.957318 0.860890
0.000000 0.960945 0.691032
0.000000 0.971567 0.497168
0.966081 0.988958 0.451942
0.977907 0.882085 0.414422
0.000000 0.956342 0.859914
0.000230 0.956982 0.862621
0.000000 0.961961 0.676211
0.675346 0.986662 0.549570
0.950485 0.999162 0.123359
0.027599 0.000000 0.999417
0.451456 0.006625 1.000000
1.000000 0.231208 0.854095
1.000000 0.304768 0.705684
0.999638 0.346998 0.577012
0.027599 0.000000 0.999417
0.027599 0.000000 0.999417
0.972087 0.012945 0.998738
0.999295 0.239589 0.839719
1.000000 0.309130 0.692816
0.000000 0.801986 0.865246
0.000000 0.624911 0.911972
0.581187 0.574725 0.998782
0.999605 0.556824 0.901562
1.000000 0.500320 0.788175
0.000000 0.956342 0.859914
0.000000 0.956342 0.859914
0.000029 0.960629 0.878642
0.942383 0.942383 0.942383
0.999553 0.863583 0.846969
0.000000 0.956342 0.859914
0.000000 0.956342 0.859914
0.000000 0.956342 0.859914
0.550362 0.977528 0.932981
0.985362 0.999898 0.850461
0.027599 0.000000 0.999417
0.206486 0.003455 0.999706
1.000000 0.013651 0.998875
1.000000 0.016639 0.999098
0.999899 0.210504 0.885107
0.027599 0.000000 0.999417
0.027599 0.000000 0.999417
0.768565 0.010179 0.998535
1.000000 0.013651 0.998875
1.000000 0.016639 0.999098
0.000000 0.824985 0.866804
0.000867 0.656234 0.901862
0.452243 0.467283 0.999317
1.000000 0.272980 0.998937
1.000000 0.207974 0.998922
0.000000 0.956342 0.859914
0.000000 0.956342 0.859914
0.000422 0.959626 0.874204
0.864984 0.907388 0.982922
0.999995 0.773999 0.998704
0.000000 0.956342 0.859914
0.000000 0.956342 0.859914
0.000000 0.956342 0.859914
0.478027 0.974163 0.925871
1.000000 1.000000 1.000000
