XH2S_FLog2C_FGamutC_to_ETERNA_BT.709_33grid_V.1.00.cube
#title:FLog2C_FGamutC_to_ETERNA_BT.709
#FUJIFILM Corporation
#Gamma:F-Log2C to ETERNA
#Gamut:F-GamutC to ITU-R BT.709
#Version:1.00
LUT_3D_SIZE 9
0.006836 0.006836 0.006836
0.128047 0.010439 0.013019
0.470166 0.024014 0.065202
0.999491 0.125215 0.228852
1.000000 0.348255 0.406176
1.000000 0.348255 0.406176
1.000000 0.348255 0.406176
1.000000 0.348255 0.406176
1.000000 0.348255 0.406176
0.000526 0.072990 0.000000
0.043774 0.023008 0.006578
0.284837 0.017229 0.029413
0.812839 0.067848 0.157152
1.000000 0.348255 0.406176
1.000000 0.348255 0.406176
1.000000 0.348255 0.406176
1.000000 0.348255 0.406176
1.000000 0.348255 0.406176
0.000000 0.258016 0.000816
0.000619 0.194323 0.000047
0.188918 0.165098 0.000000
0.599082 0.172173 0.034992
0.998981 0.256476 0.282441
1.000000 0.348255 0.406176
1.000000 0.348255 0.406176
1.000000 0.348255 0.406176
1.000000 0.348255 0.406176
0.000651 0.623327 0.001082
0.000000 0.501018 0.000000
0.000000 0.401010 0.000007
0.440757 0.367783 0.000000
0.949039 0.415047 0.000000
0.998795 0.462695 0.360409
0.999217 0.422659 0.376997
0.999830 0.387619 0.393051
0.999265 0.359617 0.401652
0.000000 0.962037 0.000321
0.000000 0.888350 0.000613
0.000000 0.797022 0.000546
0.172030 0.720817 0.000461
0.774609 0.691965 0.000000
0.998286 0.646720 0.142317
0.998506 0.586133 0.299515
0.999914 0.532717 0.331007
0.999561 0.483353 0.354825
0.000000 0.976691 0.000457
0.000000 0.976691 0.000457
0.000000 0.975715 0.000000
0.000157 0.979678 0.000679
0.588855 0.952803 0.000000
0.957630 0.896528 0.000000
0.978445 0.786059 0.000000
0.991371 0.728518 0.159019
0.999424 0.670556 0.230757
0.000000 0.975018 0.000000
0.000000 0.976691 0.000457
0.000000 0.976691 0.000457
0.000549 0.977668 0.001434
0.133881 0.983347 0.000000
0.761842 0.996257 0.000000
0.947010 0.970101 0.000000
0.953895 0.919945 0.000000
0.963518 0.868395 0.000106
0.000000 0.976691 0.000457
0.000000 0.975018 0.000000
0.000000 0.976691 0.000457
0.000000 0.976691 0.000457
0.000000 0.978702 0.000000
0.479927 0.988247 0.000297
0.878362 0.999974 0.000000
0.942098 0.999212 0.000000
0.942098 0.999212 0.000000
0.000000 0.976691 0.000457
0.000000 0.976691 0.000457
0.000000 0.975018 0.000000
0.000000 0.976691 0.000457
0.000549 0.977668 0.001434
0.218145 0.983453 0.000574
0.731539 0.994935 0.000000
0.942098 0.999212 0.000000
0.942098 0.999212 0.000000
0.007028 0.006120 0.035722
0.112996 0.006445 0.013107
0.433803 0.023505 0.060407
0.992665 0.110744 0.201336
1.000000 0.348255 0.406176
1.000000 0.348255 0.406176
1.000000 0.348255 0.406176
1.000000 0.348255 0.406176
1.000000 0.348255 0.406176
0.000123 0.073224 0.068086
0.029297 0.029297 0.029297
0.264700 0.014013 0.030253
0.772178 0.068467 0.132121
1.000000 0.337932 0.399340
1.000000 0.348255 0.406176
1.000000 0.348255 0.406176
1.000000 0.348255 0.406176
1.000000 0.348255 0.406176
0.000148 0.273539 0.081668
0.000217 0.204975 0.014781
0.169559 0.169865 0.000000
0.564280 0.175962 0.029664
0.999585 0.241506 0.255148
0.999860 0.350264 0.405422
1.000000 0.348255 0.406176
1.000000 0.348255 0.406176
1.000000 0.348255 0.406176
0.000000 0.657352 0.000000
0.000000 0.529349 0.000000
0.000000 0.418371 0.000000
0.411816 0.377432 0.000364
0.918929 0.418722 0.000000
0.999571 0.470342 0.361832
0.999408 0.427654 0.376465
1.000000 0.392952 0.390789
0.999850 0.362939 0.400145
0.000000 0.970021 0.000012
0.000000 0.901692 0.001503
0.000102 0.811677 0.000684
0.058430 0.732370 0.000000
0.747036 0.700917 0.000000
0.996141 0.661278 0.030145
0.999283 0.595460 0.292285
0.999712 0.540732 0.324531
1.000000 0.492009 0.351055
0.000549 0.977668 0.001434
0.000000 0.976691 0.000457
0.000000 0.976691 0.000457
0.000000 0.978702 0.000000
0.555219 0.961558 0.000212
0.955273 0.907581 0.000000
0.978829 0.795717 0.000090
0.991562 0.736874 0.141184
0.999223 0.679578 0.219089
0.000549 0.977668 0.001434
0.000549 0.977668 0.001434
0.000000 0.975018 0.000000
0.000000 0.976691 0.000457
0.000000 0.981688 0.000000
0.729194 0.994657 0.000000
0.942893 0.983861 0.000000
0.953302 0.928626 0.000000
0.962924 0.877075 0.000000
0.000357 0.973008 0.000234
0.000549 0.977668 0.001434
0.000549 0.977668 0.001434
0.000000 0.976691 0.000457
0.000000 0.978702 0.000000
0.447278 0.986647 0.000000
0.855096 1.000000 0.000035
0.942098 0.999212 0.000000
0.942098 0.999212 0.000000
0.000000 0.969348 0.218238
0.000000 0.972032 0.000000
0.000549 0.977668 0.001434
0.000000 0.976691 0.000457
0.000000 0.976691 0.000457
0.133881 0.983347 0.000000
0.704559 0.995206 0.000637
0.942098 0.999212 0.000000
0.942098 0.999212 0.000000
0.006616 0.003570 0.178426
0.106524 0.006386 0.141742
0.406036 0.010320 0.149723
0.960610 0.101136 0.197824
1.000000 0.348255 0.406176
1.000000 0.348255 0.406176
1.000000 0.348255 0.406176
1.000000 0.348255 0.406176
1.000000 0.348255 0.406176
0.000000 0.063655 0.231333
0.014035 0.016753 0.168180
0.257252 0.009954 0.173488
0.741301 0.034680 0.224316
0.998912 0.318655 0.382207
1.000000 0.348255 0.406176
1.000000 0.348255 0.406176
1.000000 0.348255 0.406176
1.000000 0.348255 0.406176
0.000000 0.294857 0.306645
0.000000 0.216687 0.204035
0.173828 0.173828 0.173828
0.550568 0.173672 0.197348
1.000000 0.227449 0.283145
1.000000 0.355598 0.403160
1.000000 0.348255 0.406176
1.000000 0.348255 0.406176
1.000000 0.348255 0.406176
0.000000 0.687414 0.384970
0.000000 0.568294 0.243657
0.000000 0.449111 0.156655
0.406108 0.393328 0.147641
0.897587 0.419906 0.186578
0.999561 0.477640 0.384242
0.999207 0.434326 0.376911
0.998843 0.398981 0.388527
1.000000 0.367936 0.399614
0.000000 0.959114 0.375316
0.000377 0.904303 0.234020
0.000283 0.828340 0.000066
0.000543 0.751666 0.000137
0.727868 0.710681 0.000000
0.999232 0.668247 0.217445
0.999856 0.604737 0.320110
1.000000 0.549051 0.322492
1.000000 0.499688 0.346308
0.000000 0.970965 0.049133
0.000000 0.972032 0.000000
0.000000 0.973705 0.000234
0.000000 0.978702 0.000000
0.515333 0.965118 0.000828
0.931223 0.911454 0.000157
0.983098 0.799680 0.174078
0.990767 0.745840 0.174200
0.996284 0.689324 0.210883
0.000701 0.968841 0.312043
0.000000 0.971696 0.000989
0.000000 0.976691 0.000457
0.000000 0.976691 0.000457
0.000000 0.981688 0.000000
0.695177 0.993418 0.000192
0.938978 0.990613 0.000532
0.951147 0.933007 0.000000
0.960378 0.883466 0.000000
0.000088 0.965569 0.493262
0.000117 0.968879 0.296245
0.000357 0.973008 0.000234
0.000000 0.976691 0.000457
0.000000 0.978702 0.000000
0.416974 0.985326 0.000555
0.830854 0.999375 0.000000
0.942098 0.999212 0.000000
0.942098 0.999212 0.000000
0.000068 0.963026 0.626337
0.000000 0.965270 0.479196
0.000000 0.968251 0.274280
0.000000 0.972032 0.000000
0.000000 0.976691 0.000457
0.105924 0.982640 0.000000
0.679340 0.993106 0.000501
0.942098 0.999212 0.000000
0.942098 0.999212 0.000000
0.014599 0.003082 0.374157
0.103957 0.006201 0.295051
0.407186 0.010053 0.302278
0.939125 0.037978 0.390918
1.000000 0.357182 0.454989
0.999275 0.346942 0.406930
1.000000 0.348255 0.406176
1.000000 0.348255 0.406176
1.000000 0.348255 0.406176
0.010655 0.020639 0.499692
0.013623 0.004122 0.362797
0.262508 0.006586 0.331235
0.729361 0.016671 0.399762
1.000000 0.307825 0.469175
1.000000 0.356180 0.450551
1.000000 0.348255 0.406176
1.000000 0.348255 0.406176
1.000000 0.348255 0.406176
0.000222 0.312680 0.625203
0.000713 0.222900 0.477996
0.171645 0.171874 0.386641
0.557194 0.162886 0.389703
0.998999 0.197855 0.464312
0.998843 0.378145 0.495817
0.999850 0.354202 0.445136
1.000000 0.348255 0.406176
1.000000 0.348255 0.406176
0.000000 0.696588 0.697668
0.000000 0.599750 0.586801
0.000689 0.486591 0.465191
0.415039 0.415039 0.415039
0.889534 0.415021 0.438438
0.999521 0.498096 0.518875
1.000000 0.452492 0.469344
1.000000 0.409565 0.425227
0.999255 0.371957 0.398106
0.000671 0.930579 0.689028
0.000126 0.894367 0.619930
0.000000 0.834534 0.517680
0.000655 0.764975 0.436727
0.722322 0.716500 0.404011
0.998802 0.672565 0.444770
1.000000 0.614159 0.467164
0.998899 0.560261 0.423133
0.999339 0.508317 0.381055
0.000078 0.964129 0.560663
0.000000 0.963919 0.495746
0.000098 0.966000 0.431051
0.000108 0.968783 0.356727
0.492611 0.956822 0.300164
0.916325 0.908712 0.258937
0.991858 0.800453 0.404109
0.996013 0.747755 0.364739
0.999778 0.696057 0.329805
0.000000 0.961630 0.668312
0.000000 0.965511 0.537946
0.000108 0.968111 0.360187
0.000000 0.971657 0.016785
0.000549 0.977668 0.001434
0.662528 0.991817 0.000000
0.944645 0.992820 0.000000
0.959735 0.932672 0.090243
0.968965 0.884475 0.082910
0.000049 0.958802 0.768062
0.000259 0.961300 0.660414
0.000000 0.965854 0.526585
0.000000 0.968486 0.342660
0.000000 0.973901 0.084411
0.426167 0.982454 0.000000
0.803289 0.996659 0.000000
0.942098 0.999212 0.000000
0.942098 0.999212 0.000000
0.000000 0.956684 0.848555
0.000049 0.960483 0.759410
0.000653 0.961643 0.649054
0.000000 0.965220 0.514250
0.000000 0.968524 0.326863
0.224961 0.978001 0.190667
0.665266 0.990422 0.000000
0.942098 0.999212 0.000000
0.942098 0.999212 0.000000
0.020219 0.000000 0.701984
0.089642 0.003423 0.569629
0.421029 0.009712 0.533286
0.928354 0.016196 0.616992
0.999638 0.351031 0.556246
1.000000 0.362756 0.511477
0.999255 0.359186 0.463863
0.999467 0.350258 0.415052
1.000000 0.348255 0.406176
0.023128 0.000159 0.837988
0.020612 0.000450 0.688894
0.279080 0.006772 0.612340
0.737145 0.013107 0.646121
1.000000 0.250262 0.610801
0.999638 0.352039 0.551054
0.999830 0.365102 0.508993
0.999648 0.357848 0.461155
0.999467 0.350594 0.413320
0.000203 0.279891 0.914020
0.000280 0.208398 0.802226
0.171021 0.154392 0.701020
0.580439 0.129235 0.681894
0.999794 0.131757 0.725477
0.999429 0.360295 0.603329
0.999638 0.352375 0.549324
0.999830 0.366110 0.503801
1.000000 0.356846 0.456718
0.000474 0.658245 0.901110
0.000342 0.593663 0.848512
0.000000 0.498822 0.756149
0.422410 0.424722 0.722770
0.885004 0.398675 0.722953
1.000000 0.496865 0.651194
0.999531 0.470970 0.598562
0.998785 0.438066 0.547215
1.000000 0.395114 0.499637
0.000000 0.878660 0.865177
0.000126 0.854038 0.827585
0.000558 0.815442 0.776770
0.000000 0.764867 0.731231
0.714844 0.714844 0.714844
1.000000 0.670820 0.680524
0.999001 0.628590 0.636405
0.999837 0.578333 0.576047
0.999301 0.527765 0.520879
0.000240 0.957077 0.802140
0.000049 0.959475 0.764602
0.000000 0.958213 0.730302
0.000000 0.961624 0.677942
0.440172 0.938094 0.662637
0.895748 0.893924 0.628913
1.000000 0.797575 0.627749
1.000000 0.750330 0.571075
0.999940 0.700433 0.512446
0.000230 0.957318 0.860890
0.000240 0.958421 0.795218
0.000000 0.960945 0.691032
0.000000 0.964794 0.566831
0.000000 0.971567 0.497168
0.656388 0.985482 0.511140
0.966081 0.988958 0.451942
0.977273 0.928024 0.462222
0.977907 0.882085 0.414422
0.000000 0.956342 0.859914
0.000000 0.956006 0.861645
0.000000 0.959126 0.785590
0.000451 0.961928 0.682379
0.000270 0.966774 0.572246
0.434887 0.978814 0.492520
0.801470 0.992746 0.393040
0.950283 1.000000 0.153223
0.946790 1.000000 0.000000
0.000000 0.956342 0.859914
0.000000 0.956342 0.859914
0.000230 0.956982 0.862621
0.000000 0.958460 0.779422
0.000000 0.961961 0.676211
0.086678 0.970806 0.590406
0.675346 0.986662 0.549570
0.960805 0.999193 0.378816
0.950485 0.999162 0.123359
0.027599 0.000139 0.997688
0.023904 0.000000 0.880941
0.462819 0.006283 0.843945
0.924599 0.014217 0.868321
1.000000 0.310804 0.693793
0.999447 0.332592 0.625997
0.999638 0.349015 0.566628
1.000000 0.361076 0.520130
0.999055 0.363503 0.476422
0.027599 0.000000 0.999417
0.024277 0.000000 0.990543
0.289198 0.003392 0.920155
0.752549 0.010343 0.911207
0.999766 0.149955 0.811742
0.999065 0.311508 0.684165
0.999447 0.333937 0.619074
0.999638 0.350023 0.561438
0.999247 0.360771 0.515692
0.000350 0.088415 1.000000
0.017010 0.038374 0.999915
0.079214 0.000000 0.993300
0.583619 0.010698 0.975527
1.000000 0.016682 0.973672
1.000000 0.317386 0.745091
1.000000 0.313493 0.679950
0.999447 0.334609 0.615613
0.999638 0.350695 0.557977
0.000017 0.497200 0.934883
0.000429 0.471518 0.937539
0.000066 0.436847 0.945696
0.390929 0.380364 0.973774
0.878168 0.343445 0.965305
1.000000 0.437958 0.799743
1.000000 0.437419 0.726926
0.999962 0.408511 0.670609
1.000000 0.383598 0.609324
0.000175 0.787972 0.867817
0.000396 0.756286 0.876195
0.001191 0.740263 0.879519
0.000426 0.713556 0.916255
0.674565 0.679078 0.927555
1.000000 0.626167 0.885249
0.999183 0.620385 0.763845
1.000000 0.580114 0.712050
1.000000 0.541853 0.659504
0.000000 0.956342 0.859914
0.000039 0.952658 0.859692
0.000059 0.929323 0.859863
0.000000 0.911987 0.863942
0.315246 0.894578 0.863132
0.860352 0.860352 0.860352
1.000000 0.793972 0.801070
1.000000 0.752390 0.750031
1.000000 0.707794 0.695308
0.000000 0.956342 0.859914
0.000000 0.956342 0.859914
0.000000 0.956342 0.859914
0.000000 0.957407 0.810040
0.000000 0.964839 0.756173
0.607472 0.981838 0.769562
0.977578 0.976912 0.740808
0.991319 0.915971 0.718743
0.995857 0.874946 0.669656
0.000000 0.956342 0.859914
0.000000 0.956342 0.859914
0.000000 0.956342 0.859914
0.000000 0.956342 0.859914
0.000432 0.959721 0.813722
0.348238 0.973342 0.756527
0.793206 0.989732 0.730050
0.970934 0.999942 0.605386
0.964108 0.999586 0.505191
0.000000 0.956342 0.859914
0.000000 0.956342 0.859914
0.000000 0.956342 0.859914
0.000000 0.956342 0.859914
0.000000 0.956342 0.859914
0.000000 0.966050 0.825527
0.639729 0.982423 0.784742
0.964460 0.999548 0.735753
0.970350 0.999644 0.591320
0.027599 0.000000 0.999417
0.027599 0.000000 0.999417
0.451456 0.006625 1.000000
0.916757 0.014184 1.000000
1.000000 0.231208 0.854095
1.000000 0.274997 0.773789
1.000000 0.304768 0.705684
1.000000 0.329542 0.638110
0.999638 0.346998 0.577012
0.027599 0.000000 0.999417
0.027599 0.000000 0.999417
0.206486 0.003455 0.999706
0.749016 0.009949 0.999597
1.000000 0.016639 0.999098
1.000000 0.234225 0.848148
1.000000 0.278016 0.767844
0.999457 0.306474 0.700492
0.999840 0.329237 0.633673
0.027599 0.000000 0.999417
0.027599 0.000000 0.999417
0.027599 0.000000 0.999417
0.518514 0.007454 1.000000
0.972087 0.012945 0.998738
0.999687 0.223801 0.911423
0.999295 0.239589 0.839719
0.999860 0.281033 0.761899
1.000000 0.309130 0.692816
0.000851 0.433163 0.945474
0.000000 0.282142 0.972015
0.000060 0.202779 0.985929
0.301315 0.226332 0.999683
0.813764 0.201499 0.999917
1.000000 0.314323 0.991226
1.000000 0.361176 0.879550
0.999791 0.352286 0.814941
1.000000 0.339712 0.750109
0.000000 0.801986 0.865246
0.000034 0.721278 0.886083
0.000000 0.624911 0.911972
0.000150 0.570518 0.942489
0.581187 0.574725 0.998782
1.000000 0.524326 0.999309
0.999605 0.556824 0.901562
1.000000 0.531239 0.843737
1.000000 0.500320 0.788175
0.000000 0.956342 0.859914
0.000000 0.954668 0.858937
0.000000 0.904676 0.860788
0.000328 0.838294 0.873864
0.151277 0.808496 0.922641
0.786678 0.796469 0.988476
0.999822 0.760791 0.921535
1.000000 0.727190 0.870188
0.999699 0.694288 0.818840
0.000000 0.956342 0.859914
0.000000 0.956342 0.859914
0.000000 0.956342 0.859914
0.000000 0.956342 0.859914
0.000029 0.960629 0.878642
0.489957 0.969559 0.926847
0.942383 0.942383 0.942383
0.999906 0.899504 0.892371
0.999553 0.863583 0.846969
0.000000 0.956342 0.859914
0.000000 0.956342 0.859914
0.000000 0.956342 0.859914
0.000000 0.956342 0.859914
0.001207 0.956950 0.868790
0.078614 0.966163 0.901016
0.748798 0.985443 0.911442
0.987706 0.999169 0.856629
0.983025 1.000000 0.785543
0.000000 0.956342 0.859914
0.000000 0.956342 0.859914
0.000000 0.956342 0.859914
0.000000 0.956342 0.859914
0.000000 0.956342 0.859914
0.000000 0.961629 0.883078
0.550362 0.977528 0.932981
0.943512 0.996033 0.937293
0.985362 0.999898 0.850461
0.027599 0.000000 0.999417
0.027599 0.000000 0.999417
0.300526 0.003678 1.000000
0.840709 0.009893 0.999254
1.000000 0.016639 0.999098
0.999937 0.151065 0.951207
0.999697 0.219864 0.871707
1.000000 0.264631 0.792378
1.000000 0.299093 0.719305
0.027599 0.000000 0.999417
0.027599 0.000000 0.999417
0.027599 0.000000 0.999417
0.607862 0.007118 0.998914
1.000000 0.013651 0.998875
1.000000 0.016639 0.999098
1.000000 0.158046 0.946461
1.000000 0.224194 0.865008
1.000000 0.269995 0.783949
0.027599 0.000000 0.999417
0.027599 0.000000 0.999417
0.027599 0.000000 0.999417
0.331221 0.002989 1.000000
0.866904 0.013305 0.998637
1.000000 0.013651 0.998875
0.999843 0.020322 0.999321
1.000000 0.166061 0.939985
0.999495 0.229895 0.854847
0.000832 0.456833 0.943572
0.000174 0.304139 0.969137
0.001469 0.154069 0.993197
0.186734 0.010232 0.999485
0.636402 0.010810 0.999274
1.000000 0.013651 0.998875
1.000000 0.207974 0.998922
0.999669 0.232685 0.985660
1.000000 0.247439 0.915687
0.001133 0.812619 0.866892
0.000024 0.733618 0.882535
0.000292 0.640572 0.906918
0.000380 0.528847 0.942300
0.483733 0.451243 0.999317
0.887492 0.408516 0.999845
1.000000 0.412650 0.999636
0.999512 0.416335 0.999859
1.000000 0.407077 0.943149
0.000000 0.956342 0.859914
0.000623 0.955645 0.859914
0.000854 0.913300 0.863187
0.000711 0.848959 0.869339
0.000367 0.782215 0.922659
0.716355 0.724044 0.989027
1.000000 0.662323 0.999031
1.000000 0.650656 0.999117
0.999930 0.625394 0.958821
0.000000 0.956342 0.859914
0.000000 0.956342 0.859914
0.000000 0.956342 0.859914
0.000000 0.956342 0.859914
0.000422 0.959290 0.875933
0.465926 0.950097 0.927329
0.887082 0.899882 0.989313
1.000000 0.853324 1.000000
0.999954 0.826716 0.967211
0.000000 0.956342 0.859914
0.000000 0.956342 0.859914
0.000000 0.956342 0.859914
0.000000 0.956342 0.859914
0.001207 0.957623 0.865328
0.000412 0.966252 0.900075
0.702460 0.983087 0.950883
1.000000 1.000000 1.000000
0.997080 0.989771 0.974660
0.000000 0.956342 0.859914
0.000000 0.956342 0.859914
0.000000 0.956342 0.859914
0.000000 0.956342 0.859914
0.000000 0.956342 0.859914
0.000000 0.961629 0.883078
0.516736 0.975287 0.929915
0.908900 0.994736 0.983347
1.000000 1.000000 1.000000
0.027599 0.000000 0.999417
0.027599 0.000000 0.999417
0.206486 0.003455 0.999706
0.690364 0.009932 0.999325
1.000000 0.013651 0.998875
1.000000 0.013651 0.998875
1.000000 0.016639 0.999098
0.999756 0.131040 0.969129
0.999899 0.210504 0.885107
0.027599 0.000000 0.999417
0.027599 0.000000 0.999417
0.027599 0.000000 0.999417
0.484495 0.006550 0.999875
0.924188 0.014021 0.998910
1.000000 0.013651 0.998875
1.000000 0.013651 0.998875
1.000000 0.016639 0.999098
1.000000 0.138357 0.962653
0.027599 0.000000 0.999417
0.027599 0.000000 0.999417
0.027599 0.000000 0.999417
0.288403 0.003284 0.999894
0.768565 0.010179 0.998535
1.000000 0.013651 0.998875
1.000000 0.013651 0.998875
1.000000 0.013651 0.998875
1.000000 0.016639 0.999098
0.000228 0.478188 0.937984
0.001131 0.329121 0.966480
0.000472 0.177099 0.988586
0.169489 0.057287 0.999448
0.584596 0.007306 0.999001
0.978149 0.013143 0.998961
1.000000 0.013651 0.998875
1.000000 0.013651 0.998875
1.000000 0.013651 0.998875
0.000000 0.824985 0.866804
0.000000 0.747969 0.878234
0.000867 0.656234 0.901862
0.000561 0.546854 0.934762
0.452243 0.467283 0.999317
0.846649 0.387765 0.999657
1.000000 0.272980 0.998937
1.000000 0.169986 0.998957
1.000000 0.207974 0.998922
0.000000 0.956342 0.859914
0.000623 0.955645 0.859914
0.000000 0.921004 0.861903
0.000000 0.859986 0.866548
0.000750 0.793217 0.916408
0.691518 0.732608 0.984368
0.999297 0.672677 0.999698
0.999395 0.556342 0.998828
0.999865 0.460994 1.000000
0.000000 0.956342 0.859914
0.000000 0.956342 0.859914
0.000000 0.956342 0.859914
0.000000 0.956342 0.859914
0.000422 0.959626 0.874204
0.422908 0.958070 0.922000
0.864984 0.907388 0.982922
0.998960 0.842689 0.998942
0.999995 0.773999 0.998704
0.000000 0.956342 0.859914
0.000000 0.956342 0.859914
0.000000 0.956342 0.859914
0.000000 0.956342 0.859914
0.000230 0.956646 0.864351
0.000000 0.965612 0.897366
0.674894 0.981043 0.948038
1.000000 1.000000 1.000000
0.998448 0.984369 0.998887
0.000000 0.956342 0.859914
0.000000 0.956342 0.859914
0.000000 0.956342 0.859914
0.000000 0.956342 0.859914
0.000000 0.956342 0.859914
0.000029 0.960293 0.880371
0.478027 0.974163 0.925871
0.887396 0.992890 0.980727
1.000000 1.000000 1.000000
