XH2S_FLog2C_FGamutC_to_ETERNA_BT.709_33grid_V.1.00.cube
#title:FLog2C_FGamutC_to_ETERNA_BT.709
#FUJIFILM Corporation
#Gamma:F-Log2C to ETERNA
#Gamut:F-GamutC to ITU-R BT.709
#Version:1.00
LUT_3D_SIZE 33
0.006836 0.006836 0.006836
0.006836 0.006836 0.006836
0.026387 0.006729 0.007503
0.073895 0.006993 0.010039
0.128047 0.010439 0.013019
0.182985 0.010202 0.015778
0.253365 0.009599 0.031317
0.346811 0.017158 0.038562
0.470166 0.024014 0.065202
0.613455 0.038405 0.103562
0.762211 0.063019 0.134914
0.901776 0.089160 0.173941
0.999491 0.125215 0.228852
0.999766 0.244391 0.325480
1.000000 0.333943 0.394680
1.000000 0.348255 0.406176
1.000000 0.348255 0.406176
1.000000 0.348255 0.406176
1.000000 0.348255 0.406176
1.000000 0.348255 0.406176
1.000000 0.348255 0.406176
1.000000 0.348255 0.406176
1.000000 0.348255 0.406176
1.000000 0.348255 0.406176
1.000000 0.348255 0.406176
1.000000 0.348255 0.406176
1.000000 0.348255 0.406176
1.000000 0.348255 0.406176
1.000000 0.348255 0.406176
1.000000 0.348255 0.406176
1.000000 0.348255 0.406176
1.000000 0.348255 0.406176
1.000000 0.348255 0.406176
0.006836 0.006836 0.006836
0.006836 0.006836 0.006836
0.006836 0.006836 0.006836
0.051998 0.006484 0.010126
0.105566 0.006944 0.012882
0.163434 0.009973 0.016840
0.225408 0.009902 0.025989
0.304196 0.013135 0.025422
0.418360 0.022863 0.052816
0.552265 0.035466 0.090731
0.700056 0.046427 0.126382
0.845871 0.078098 0.163371
0.977030 0.104771 0.196007
1.000000 0.202769 0.290239
0.999909 0.299322 0.367782
1.000000 0.348255 0.406176
1.000000 0.348255 0.406176
1.000000 0.348255 0.406176
1.000000 0.348255 0.406176
1.000000 0.348255 0.406176
1.000000 0.348255 0.406176
1.000000 0.348255 0.406176
1.000000 0.348255 0.406176
1.000000 0.348255 0.406176
1.000000 0.348255 0.406176
1.000000 0.348255 0.406176
1.000000 0.348255 0.406176
1.000000 0.348255 0.406176
1.000000 0.348255 0.406176
1.000000 0.348255 0.406176
1.000000 0.348255 0.406176
1.000000 0.348255 0.406176
1.000000 0.348255 0.406176
0.006836 0.006836 0.006836
0.006836 0.006836 0.006836
0.006836 0.006836 0.006836
0.028732 0.006673 0.010211
0.083670 0.006771 0.011238
0.137823 0.010218 0.014219
0.195105 0.009924 0.019684
0.269785 0.013906 0.026040
0.364992 0.016740 0.044421
0.492455 0.022514 0.065872
0.640435 0.038472 0.100991
0.787622 0.068435 0.143172
0.924448 0.096644 0.178738
1.000000 0.152835 0.247406
1.000000 0.260681 0.342391
0.999669 0.345604 0.404223
1.000000 0.348255 0.406176
1.000000 0.348255 0.406176
1.000000 0.348255 0.406176
1.000000 0.348255 0.406176
1.000000 0.348255 0.406176
1.000000 0.348255 0.406176
1.000000 0.348255 0.406176
1.000000 0.348255 0.406176
1.000000 0.348255 0.406176
1.000000 0.348255 0.406176
1.000000 0.348255 0.406176
1.000000 0.348255 0.406176
1.000000 0.348255 0.406176
1.000000 0.348255 0.406176
1.000000 0.348255 0.406176
1.000000 0.348255 0.406176
1.000000 0.348255 0.406176
0.002910 0.026265 0.002757
0.003505 0.017584 0.003066
0.007419 0.010495 0.003597
0.016612 0.006951 0.006305
0.065488 0.006181 0.010569
0.115342 0.006723 0.014083
0.173209 0.010087 0.016308
0.240851 0.013231 0.019735
0.321200 0.017403 0.035942
0.439863 0.023366 0.062360
0.579246 0.035868 0.086431
0.727417 0.056149 0.124479
0.868935 0.084579 0.163731
0.997356 0.111975 0.199828
0.999595 0.220093 0.305419
0.999114 0.312321 0.380032
1.000000 0.348255 0.406176
1.000000 0.348255 0.406176
1.000000 0.348255 0.406176
1.000000 0.348255 0.406176
1.000000 0.348255 0.406176
1.000000 0.348255 0.406176
1.000000 0.348255 0.406176
1.000000 0.348255 0.406176
1.000000 0.348255 0.406176
1.000000 0.348255 0.406176
1.000000 0.348255 0.406176
1.000000 0.348255 0.406176
1.000000 0.348255 0.406176
1.000000 0.348255 0.406176
1.000000 0.348255 0.406176
1.000000 0.348255 0.406176
1.000000 0.348255 0.406176
0.000526 0.072990 0.000000
0.000535 0.061323 0.000000
0.000000 0.046669 0.000000
0.000363 0.032319 0.003957
0.043774 0.023008 0.006578
0.096959 0.013475 0.010399
0.145252 0.010054 0.012711
0.208596 0.009622 0.020130
0.284837 0.017229 0.029413
0.388842 0.017187 0.056672
0.519236 0.025553 0.082781
0.666822 0.043184 0.118878
0.812839 0.067848 0.157152
0.947904 0.099099 0.190235
0.999441 0.175820 0.268223
0.999928 0.278676 0.354110
1.000000 0.348255 0.406176
1.000000 0.348255 0.406176
1.000000 0.348255 0.406176
1.000000 0.348255 0.406176
1.000000 0.348255 0.406176
1.000000 0.348255 0.406176
1.000000 0.348255 0.406176
1.000000 0.348255 0.406176
1.000000 0.348255 0.406176
1.000000 0.348255 0.406176
1.000000 0.348255 0.406176
1.000000 0.348255 0.406176
1.000000 0.348255 0.406176
1.000000 0.348255 0.406176
1.000000 0.348255 0.406176
1.000000 0.348255 0.406176
1.000000 0.348255 0.406176
0.000000 0.113349 0.000649
0.000000 0.100008 0.000000
0.000000 0.088341 0.000000
0.000133 0.074663 0.000683
0.003656 0.069585 0.000460
0.079321 0.063548 0.004417
0.134270 0.051643 0.007261
0.188240 0.038091 0.012590
0.254523 0.029592 0.019562
0.341918 0.023606 0.035323
0.462152 0.020520 0.069949
0.605834 0.034919 0.098680
0.753029 0.054560 0.134024
0.895715 0.089972 0.168527
0.999692 0.120224 0.219753
1.000000 0.236382 0.322327
1.000000 0.327609 0.392504
1.000000 0.348255 0.406176
1.000000 0.348255 0.406176
1.000000 0.348255 0.406176
1.000000 0.348255 0.406176
1.000000 0.348255 0.406176
1.000000 0.348255 0.406176
1.000000 0.348255 0.406176
1.000000 0.348255 0.406176
1.000000 0.348255 0.406176
1.000000 0.348255 0.406176
1.000000 0.348255 0.406176
1.000000 0.348255 0.406176
1.000000 0.348255 0.406176
1.000000 0.348255 0.406176
1.000000 0.348255 0.406176
1.000000 0.348255 0.406176
0.000064 0.156335 0.000082
0.000074 0.144667 0.000167
0.000084 0.133000 0.000254
0.000879 0.117649 0.000116
0.000000 0.106679 0.000204
0.044490 0.102003 0.000562
0.113120 0.095463 0.000000
0.171188 0.091150 0.006832
0.234733 0.084718 0.010344
0.312352 0.080634 0.016254
0.422226 0.078816 0.028691
0.553213 0.078501 0.055109
0.696119 0.079875 0.110106
0.838442 0.080950 0.151036
0.969600 0.105606 0.194053
0.999422 0.196467 0.281895
0.999717 0.294661 0.366582
1.000000 0.348255 0.406176
1.000000 0.348255 0.406176
1.000000 0.348255 0.406176
1.000000 0.348255 0.406176
1.000000 0.348255 0.406176
1.000000 0.348255 0.406176
1.000000 0.348255 0.406176
1.000000 0.348255 0.406176
1.000000 0.348255 0.406176
1.000000 0.348255 0.406176
1.000000 0.348255 0.406176
1.000000 0.348255 0.406176
1.000000 0.348255 0.406176
1.000000 0.348255 0.406176
1.000000 0.348255 0.406176
1.000000 0.348255 0.406176
0.000000 0.201690 0.000493
0.000000 0.188350 0.000000
0.000000 0.174672 0.000442
0.000000 0.163005 0.000527
0.000266 0.149664 0.000000
0.000467 0.142656 0.000922
0.081610 0.134839 0.000000
0.149262 0.126987 0.000000
0.212415 0.122565 0.002496
0.283188 0.122304 0.006676
0.384264 0.122020 0.017160
0.509190 0.123862 0.031243
0.647012 0.132063 0.055844
0.790894 0.137774 0.094512
0.925586 0.145012 0.140856
0.999844 0.169538 0.230992
0.999554 0.261048 0.334491
0.999477 0.341615 0.399563
1.000000 0.348255 0.406176
1.000000 0.348255 0.406176
1.000000 0.348255 0.406176
1.000000 0.348255 0.406176
1.000000 0.348255 0.406176
1.000000 0.348255 0.406176
1.000000 0.348255 0.406176
1.000000 0.348255 0.406176
1.000000 0.348255 0.406176
1.000000 0.348255 0.406176
1.000000 0.348255 0.406176
1.000000 0.348255 0.406176
1.000000 0.348255 0.406176
1.000000 0.348255 0.406176
1.000000 0.348255 0.406176
0.000000 0.258016 0.000816
0.000000 0.239679 0.000456
0.000000 0.225025 0.000320
0.000800 0.210986 0.000000
0.000619 0.194323 0.000047
0.000629 0.182656 0.000133
0.032894 0.174599 0.000000
0.117359 0.168371 0.000000
0.188918 0.165098 0.000000
0.260477 0.161825 0.000000
0.350408 0.163468 0.003899
0.466928 0.165505 0.013320
0.599082 0.172173 0.034992
0.741596 0.179925 0.066739
0.878633 0.191138 0.095022
0.998857 0.199384 0.131293
0.998981 0.256476 0.282441
0.999878 0.333987 0.369253
0.999265 0.359617 0.401652
0.999073 0.354621 0.402183
1.000000 0.348255 0.406176
1.000000 0.348255 0.406176
1.000000 0.348255 0.406176
1.000000 0.348255 0.406176
1.000000 0.348255 0.406176
1.000000 0.348255 0.406176
1.000000 0.348255 0.406176
1.000000 0.348255 0.406176
1.000000 0.348255 0.406176
1.000000 0.348255 0.406176
1.000000 0.348255 0.406176
1.000000 0.348255 0.406176
1.000000 0.348255 0.406176
0.000000 0.325034 0.000078
0.000000 0.304686 0.000473
0.000000 0.286348 0.000113
0.000000 0.265023 0.000000
0.000000 0.249335 0.001125
0.000197 0.231334 0.000000
0.000791 0.222317 0.001074
0.074896 0.212989 0.000371
0.158968 0.208436 0.000336
0.232290 0.202792 0.000000
0.317529 0.204212 0.000265
0.429749 0.205361 0.000000
0.558582 0.211445 0.016094
0.696988 0.222633 0.040919
0.834026 0.234519 0.065742
0.958942 0.245339 0.093582
0.998981 0.268911 0.218413
0.999496 0.332060 0.328785
0.999638 0.383294 0.390121
0.999447 0.377626 0.394113
0.999648 0.370282 0.397129
0.999850 0.362939 0.400145
0.999659 0.357608 0.402406
0.999860 0.350264 0.405422
1.000000 0.348255 0.406176
1.000000 0.348255 0.406176
1.000000 0.348255 0.406176
1.000000 0.348255 0.406176
1.000000 0.348255 0.406176
1.000000 0.348255 0.406176
1.000000 0.348255 0.406176
1.000000 0.348255 0.406176
1.000000 0.348255 0.406176
0.000000 0.414687 0.000000
0.000000 0.388366 0.000000
0.000000 0.363022 0.000044
0.000693 0.338990 0.000215
0.000713 0.315655 0.000387
0.000000 0.296004 0.000782
0.000000 0.276690 0.000000
0.000000 0.265023 0.000000
0.114743 0.256097 0.000000
0.202923 0.249452 0.000000
0.289927 0.248164 0.000540
0.392372 0.249535 0.000000
0.519643 0.254345 0.000126
0.652774 0.264005 0.012392
0.788834 0.274578 0.037969
0.915311 0.289697 0.065278
0.999756 0.302100 0.088321
0.999104 0.344824 0.272657
0.999439 0.396014 0.359419
1.000000 0.405291 0.387242
0.999237 0.396635 0.391012
0.999830 0.387619 0.393051
1.000000 0.380612 0.394337
1.000000 0.372934 0.399083
1.000000 0.366262 0.398637
0.999265 0.359617 0.401652
0.999073 0.354621 0.402183
1.000000 0.348255 0.406176
1.000000 0.348255 0.406176
1.000000 0.348255 0.406176
1.000000 0.348255 0.406176
1.000000 0.348255 0.406176
1.000000 0.348255 0.406176
0.000155 0.515671 0.000000
0.000375 0.485667 0.000000
0.000204 0.457336 0.000333
0.000031 0.429005 0.001034
0.000000 0.402683 0.000983
0.000271 0.376001 0.000000
0.000000 0.349680 0.000000
0.000000 0.335026 0.000000
0.014001 0.322358 0.000000
0.160643 0.310734 0.000316
0.254883 0.304285 0.000504
0.359089 0.302948 0.000000
0.481277 0.308873 0.000000
0.612848 0.316587 0.000551
0.743633 0.328320 0.000000
0.874217 0.341684 0.025305
0.990334 0.354038 0.051192
1.000000 0.372927 0.193944
0.999820 0.414409 0.315093
0.999792 0.437312 0.377133
0.999408 0.427319 0.378194
1.000000 0.417967 0.381965
0.999227 0.409311 0.385735
0.999820 0.400630 0.386044
0.999045 0.391975 0.389812
0.999638 0.383294 0.390121
0.999447 0.377626 0.394113
0.999648 0.370282 0.397129
0.999850 0.362939 0.400145
0.999659 0.357608 0.402406
0.999860 0.350264 0.405422
1.000000 0.348255 0.406176
1.000000 0.348255 0.406176
0.000651 0.623327 0.001082
0.000000 0.594019 0.000809
0.000000 0.564015 0.000536
0.000336 0.531999 0.001016
0.000000 0.501018 0.000000
0.000385 0.473663 0.001445
0.000605 0.443658 0.001172
0.000000 0.419348 0.000367
0.000000 0.401010 0.000007
0.058913 0.387349 0.001121
0.206531 0.377037 0.001136
0.320714 0.368808 0.001016
0.440757 0.367783 0.000000
0.572328 0.375497 0.000516
0.703506 0.385220 0.000444
0.833506 0.400639 0.000000
0.949039 0.415047 0.000000
0.999275 0.420877 0.026226
0.999610 0.444509 0.254886
0.999379 0.468033 0.348519
0.998795 0.462695 0.360409
0.999782 0.450660 0.368395
0.999006 0.442340 0.370433
0.999600 0.432651 0.375934
0.999217 0.422659 0.376997
0.999810 0.412970 0.382496
1.000000 0.405291 0.387242
0.999628 0.395297 0.388304
0.999830 0.387619 0.393051
1.000000 0.380612 0.394337
1.000000 0.372934 0.399083
1.000000 0.366262 0.398637
0.999265 0.359617 0.401652
0.000000 0.729029 0.000308
0.000000 0.701034 0.000000
0.000000 0.670694 0.000738
0.000000 0.640689 0.000465
0.000000 0.610683 0.000192
0.000000 0.579702 0.000000
0.000000 0.549361 0.000398
0.000000 0.519356 0.000126
0.000365 0.497334 0.000000
0.000000 0.477683 0.000000
0.114378 0.460775 0.000126
0.270794 0.449264 0.000364
0.395336 0.444136 0.000000
0.530429 0.447107 0.000000
0.662977 0.455797 0.000324
0.791416 0.466916 0.000254
0.904996 0.479036 0.000000
0.999419 0.489252 0.000000
0.998805 0.491019 0.154571
0.999359 0.502122 0.292972
0.999743 0.501698 0.345556
0.999359 0.490696 0.351809
0.999369 0.478356 0.355355
0.999963 0.468331 0.362586
0.999580 0.458002 0.365379
0.999590 0.445327 0.370657
1.000000 0.435974 0.374425
0.999408 0.427319 0.378194
1.000000 0.417967 0.381965
0.999227 0.409311 0.385735
0.999820 0.400630 0.386044
0.999045 0.391975 0.389812
0.999638 0.383294 0.390121
0.000000 0.818683 0.000000
0.000000 0.795349 0.000000
0.000331 0.770004 0.000495
0.000000 0.743683 0.000444
0.000000 0.715689 0.000000
0.000000 0.685347 0.000874
0.000000 0.657352 0.000000
0.000000 0.626035 0.000329
0.000000 0.601026 0.000000
0.000000 0.577692 0.000000
0.000000 0.557343 0.000090
0.184690 0.544865 0.000000
0.350488 0.535144 0.000172
0.486176 0.529435 0.000000
0.620877 0.533743 0.000648
0.746387 0.541596 0.000000
0.860752 0.549695 0.000372
0.969449 0.555923 0.000165
0.999953 0.550574 0.000000
1.000000 0.548563 0.214621
0.999904 0.545729 0.324000
0.999914 0.532717 0.331007
0.998554 0.520403 0.338015
0.999934 0.507366 0.341562
0.999551 0.496365 0.347816
0.999561 0.483353 0.354825
1.000000 0.474000 0.358594
0.998795 0.462695 0.360409
0.999782 0.450660 0.368395
0.999006 0.442340 0.370433
0.999600 0.432651 0.375934
0.999217 0.422659 0.376997
0.999810 0.412970 0.382496
0.000225 0.898344 0.000000
0.000000 0.876683 0.000699
0.000000 0.855358 0.000117
0.000000 0.832024 0.000288
0.000000 0.808689 0.000461
0.000000 0.784379 0.000000
0.000342 0.758338 0.000582
0.000170 0.730006 0.001285
0.000000 0.702708 0.000257
0.000000 0.680686 0.000000
0.000000 0.662013 0.001047
0.000000 0.642698 0.000000
0.278268 0.628768 0.000000
0.440351 0.619129 0.000203
0.577993 0.615709 0.000000
0.702334 0.617253 0.000000
0.819247 0.619295 0.000000
0.925599 0.624909 0.000000
0.999894 0.620241 0.000317
0.999119 0.606881 0.028312
1.000000 0.592163 0.255277
0.998708 0.578454 0.304262
0.998718 0.565442 0.311270
0.999704 0.553071 0.320985
1.000000 0.538722 0.325286
1.000000 0.528361 0.334246
0.999732 0.514372 0.340277
0.999743 0.501698 0.345556
0.999359 0.490696 0.351809
0.999369 0.478356 0.355355
0.999963 0.468331 0.362586
0.999580 0.458002 0.365379
0.999590 0.445327 0.370657
0.000000 0.962037 0.000321
0.000000 0.946686 0.000183
0.000000 0.927036 0.000577
0.000000 0.908698 0.000219
0.000000 0.888350 0.000613
0.000000 0.865017 0.000785
0.000000 0.843692 0.000203
0.000000 0.820357 0.000375
0.000000 0.797022 0.000546
0.000523 0.775001 0.000000
0.000000 0.755350 0.000359
0.000000 0.737013 0.000000
0.172030 0.720817 0.000461
0.380453 0.706141 0.000526
0.531393 0.697420 0.000764
0.658674 0.691234 0.000000
0.774609 0.691965 0.000000
0.880771 0.692582 0.000230
0.977547 0.691409 0.000863
0.993986 0.671709 0.000000
0.998286 0.646720 0.142317
0.998478 0.626848 0.269840
0.999463 0.614140 0.281285
0.999472 0.601129 0.288292
0.998506 0.586133 0.299515
0.998516 0.573457 0.304793
0.998526 0.559773 0.315262
0.999904 0.545729 0.324000
0.999914 0.532717 0.331007
0.998554 0.520403 0.338015
0.999934 0.507366 0.341562
0.999551 0.496365 0.347816
0.999561 0.483353 0.354825
0.000000 0.976691 0.000457
0.000000 0.975715 0.000000
0.000000 0.975715 0.000000
0.000000 0.972032 0.000000
0.000000 0.955367 0.000000
0.000387 0.938005 0.000492
0.000000 0.918356 0.000887
0.000000 0.899041 0.000000
0.000000 0.878693 0.000000
0.000063 0.858345 0.000339
0.000000 0.838696 0.000734
0.000000 0.822368 0.000000
0.000000 0.803694 0.000993
0.312934 0.788657 0.001160
0.479124 0.777597 0.000000
0.611883 0.767949 0.000437
0.733105 0.761230 0.000000
0.841419 0.757465 0.000641
0.938981 0.752944 0.000000
0.985521 0.740900 0.000000
0.988481 0.709500 0.000000
0.998639 0.680960 0.196372
0.999626 0.662205 0.238965
0.999635 0.648521 0.249434
0.999645 0.633829 0.265093
0.999654 0.620818 0.272102
0.999664 0.606126 0.287762
0.998698 0.592138 0.293794
0.998708 0.578454 0.304262
0.998718 0.565442 0.311270
0.999704 0.553071 0.320985
1.000000 0.538722 0.325286
0.998746 0.526072 0.334024
0.000000 0.975715 0.000000
0.000000 0.975715 0.000000
0.000000 0.976691 0.000457
0.000000 0.976691 0.000457
0.000000 0.975018 0.000000
0.000000 0.975715 0.000000
0.000000 0.974682 0.001211
0.000000 0.963350 0.000000
0.000000 0.946686 0.000183
0.000000 0.930022 0.000801
0.000000 0.913359 0.001418
0.000000 0.895357 0.000000
0.000000 0.878693 0.000000
0.211205 0.865608 0.000234
0.419630 0.850931 0.000301
0.567638 0.838609 0.001070
0.689252 0.830216 0.000000
0.796006 0.822151 0.000828
0.896306 0.816236 0.000000
0.975497 0.805792 0.000000
0.978455 0.774392 0.000000
0.984545 0.739588 0.000000
0.994704 0.714745 0.178363
0.997058 0.699323 0.200191
0.998045 0.686281 0.213366
0.999424 0.670556 0.230757
0.999434 0.656535 0.242958
0.999444 0.641843 0.258617
0.998478 0.626848 0.269840
0.999463 0.614140 0.281285
0.999472 0.601129 0.288292
0.998506 0.586133 0.299515
0.998516 0.573457 0.304793
0.000000 0.976691 0.000457
0.000000 0.976691 0.000457
0.000000 0.976691 0.000457
0.000000 0.976691 0.000457
0.000000 0.975715 0.000000
0.000000 0.975715 0.000000
0.000000 0.976691 0.000457
0.000000 0.976691 0.000457
0.000000 0.975715 0.000000
0.000000 0.975715 0.000000
0.000357 0.973008 0.000234
0.000000 0.960028 0.001074
0.000000 0.946686 0.000183
0.000000 0.932033 0.000046
0.353298 0.916421 0.000000
0.513428 0.904829 0.000000
0.643256 0.891915 0.000000
0.752356 0.884467 0.000039
0.853442 0.874532 0.000226
0.945145 0.862808 0.000000
0.970192 0.836912 0.000000
0.975306 0.800796 0.000312
0.986278 0.765161 0.035093
0.986278 0.750037 0.112966
0.991562 0.735866 0.146374
0.990787 0.722841 0.172639
0.995881 0.706698 0.191007
0.996868 0.693319 0.205914
0.999223 0.678569 0.224281
0.999626 0.662205 0.238965
0.999635 0.648521 0.249434
0.999645 0.633829 0.265093
0.999654 0.620818 0.272102
0.000000 0.976691 0.000457
0.000000 0.976691 0.000457
0.000000 0.976691 0.000457
0.000000 0.976691 0.000457
0.000000 0.976691 0.000457
0.000000 0.976691 0.000457
0.000000 0.976691 0.000457
0.000000 0.975715 0.000000
0.000000 0.975715 0.000000
0.000000 0.976691 0.000457
0.000000 0.976691 0.000457
0.000000 0.976691 0.000457
0.000157 0.979678 0.000679
0.000000 0.981688 0.000000
0.266246 0.975709 0.000000
0.454334 0.964822 0.000000
0.588855 0.952803 0.000000
0.707144 0.942482 0.000000
0.808623 0.930537 0.000723
0.902088 0.916441 0.000000
0.957630 0.896528 0.000000
0.964696 0.863037 0.000000
0.970201 0.825246 0.000000
0.976674 0.800099 0.000312
0.978445 0.786059 0.000000
0.984908 0.771235 0.007406
0.986861 0.758065 0.087231
0.988824 0.741629 0.123879
0.991371 0.728518 0.159019
0.993727 0.713096 0.180847
0.997058 0.699323 0.200191
0.999806 0.683573 0.214121
0.999424 0.670556 0.230757
0.000000 0.976691 0.000457
0.000000 0.976691 0.000457
0.000000 0.976691 0.000457
0.000000 0.976691 0.000457
0.000000 0.976691 0.000457
0.000000 0.976691 0.000457
0.000000 0.976691 0.000457
0.000000 0.976691 0.000457
0.000000 0.976691 0.000457
0.000000 0.976691 0.000457
0.000000 0.976691 0.000457
0.000000 0.976691 0.000457
0.000000 0.978702 0.000000
0.000000 0.980375 0.000679
0.162231 0.982042 0.000301
0.403484 0.985630 0.000110
0.532124 0.990077 0.000000
0.652168 0.988717 0.000141
0.755016 0.976409 0.000000
0.848089 0.963988 0.000000
0.932171 0.947432 0.000875
0.953895 0.919945 0.000000
0.960378 0.883466 0.000000
0.966467 0.848662 0.000000
0.970584 0.834903 0.000000
0.972356 0.820864 0.000000
0.975497 0.805792 0.000000
0.978246 0.792730 0.000000
0.983732 0.778273 0.000000
0.984908 0.762834 0.050668
0.986278 0.750037 0.112966
0.991562 0.735866 0.146374
0.992549 0.720806 0.169934
0.000000 0.975018 0.000000
0.000000 0.976691 0.000457
0.000000 0.976691 0.000457
0.000000 0.976691 0.000457
0.000000 0.976691 0.000457
0.000000 0.975018 0.000000
0.000000 0.976691 0.000457
0.000000 0.976691 0.000457
0.000000 0.976691 0.000457
0.000000 0.976691 0.000457
0.000000 0.976691 0.000457
0.000000 0.976691 0.000457
0.000000 0.976691 0.000457
0.000000 0.978702 0.000000
0.000000 0.981688 0.000000
0.254509 0.984972 0.000179
0.453339 0.986844 0.000161
0.589409 0.990792 0.000000
0.702213 0.994927 0.000000
0.798205 0.997439 0.000515
0.887755 0.990096 0.000481
0.947010 0.970101 0.000000
0.950946 0.939679 0.000121
0.957822 0.901189 0.000379
0.960770 0.881458 0.000019
0.963518 0.868395 0.000106
0.966266 0.855333 0.000192
0.970384 0.841573 0.000277
0.970786 0.828232 0.000000
0.972558 0.813858 0.000226
0.976674 0.800099 0.000312
0.979815 0.785362 0.000000
0.984908 0.771235 0.007406
0.000000 0.975018 0.000000
0.000000 0.975018 0.000000
0.000000 0.976691 0.000457
0.000000 0.976691 0.000457
0.000000 0.976691 0.000457
0.000000 0.976691 0.000457
0.000000 0.976691 0.000457
0.000000 0.976691 0.000457
0.000000 0.976691 0.000457
0.000000 0.976691 0.000457
0.000000 0.976691 0.000457
0.000000 0.976691 0.000457
0.000000 0.976691 0.000457
0.000000 0.978702 0.000000
0.000000 0.980375 0.000679
0.000000 0.981688 0.000000
0.326651 0.984685 0.000899
0.493417 0.987943 0.000743
0.623426 0.991695 0.000226
0.736232 0.995831 0.000019
0.832223 0.998678 0.000000
0.919810 1.000000 0.000532
0.942108 0.987545 0.000000
0.947806 0.954750 0.000000
0.955064 0.925919 0.000208
0.956442 0.913554 0.000294
0.959190 0.900492 0.000379
0.960568 0.888128 0.000465
0.961948 0.875763 0.000552
0.963719 0.861724 0.000000
0.966467 0.848662 0.000000
0.969608 0.833927 0.000000
0.972356 0.820864 0.000000
0.000000 0.975018 0.000000
0.000000 0.975018 0.000000
0.000000 0.975018 0.000000
0.000000 0.976691 0.000457
0.000000 0.976691 0.000457
0.000000 0.976691 0.000457
0.000000 0.976691 0.000457
0.000000 0.976691 0.000457
0.000000 0.976691 0.000457
0.000000 0.976691 0.000457
0.000000 0.976691 0.000457
0.000000 0.976691 0.000457
0.000549 0.977668 0.001434
0.000549 0.977668 0.001434
0.000000 0.978702 0.000000
0.000157 0.979678 0.000679
0.133881 0.983347 0.000000
0.380220 0.985818 0.000196
0.528803 0.988485 0.000000
0.655097 0.992318 0.000000
0.761842 0.996257 0.000000
0.860181 0.999384 0.000000
0.942098 0.999212 0.000000
0.937015 0.999992 0.000223
0.947010 0.970101 0.000000
0.948389 0.957737 0.000000
0.948399 0.946069 0.000000
0.951147 0.933007 0.000000
0.953895 0.919945 0.000000
0.956643 0.906883 0.000000
0.959391 0.893821 0.000000
0.960770 0.881458 0.000019
0.963518 0.868395 0.000106
0.000000 0.975018 0.000000
0.000000 0.975018 0.000000
0.000000 0.975018 0.000000
0.000000 0.975018 0.000000
0.000000 0.976691 0.000457
0.000000 0.976691 0.000457
0.000000 0.976691 0.000457
0.000000 0.976691 0.000457
0.000000 0.976691 0.000457
0.000000 0.976691 0.000457
0.000000 0.976691 0.000457
0.000000 0.976691 0.000457
0.000000 0.976691 0.000457
0.000549 0.977668 0.001434
0.000000 0.978702 0.000000
0.000157 0.979678 0.000679
0.000000 0.981688 0.000000
0.227920 0.983569 0.000043
0.417951 0.986639 0.000000
0.557737 0.990168 0.000484
0.679340 0.993106 0.000501
0.784715 0.997743 0.000070
0.882077 0.999892 0.000000
0.942098 0.999212 0.000000
0.942098 0.999212 0.000000
0.940145 0.996923 0.000000
0.941524 0.984558 0.000000
0.944856 0.974483 0.000000
0.944866 0.962815 0.000000
0.947221 0.951428 0.000790
0.950946 0.939679 0.000121
0.955064 0.925919 0.000208
0.956442 0.913554 0.000294
0.000000 0.976691 0.000457
0.000000 0.975018 0.000000
0.000000 0.975018 0.000000
0.000000 0.975018 0.000000
0.000000 0.975018 0.000000
0.000000 0.976691 0.000457
0.000000 0.976691 0.000457
0.000000 0.976691 0.000457
0.000000 0.976691 0.000457
0.000000 0.976691 0.000457
0.000000 0.976691 0.000457
0.000000 0.976691 0.000457
0.000000 0.976691 0.000457
0.000000 0.976691 0.000457
0.000000 0.976691 0.000457
0.000000 0.978702 0.000000
0.000000 0.980375 0.000679
0.005825 0.981885 0.000148
0.314529 0.984291 0.000454
0.465459 0.987238 0.000606
0.596839 0.990291 0.000090
0.705928 0.994509 0.000637
0.811304 0.999145 0.000208
0.905343 0.999704 0.000000
0.942098 0.999212 0.000000
