luts/FLog2C_to_WDR-709_33grid_V.1.10.cube
#title:FLog2C_to_WDR
#FUJIFILM Corporation
#Gamma:F-Log2C to Wide Dynamic Range curve
#Gamut:F-GamutC to ITU-R BT.709
#Version:1.10
LUT_3D_SIZE 9
0.000000 0.000000 0.000000
0.018347 0.002263 0.003741
0.149756 0.018427 0.029576
0.345769 0.041612 0.065397
0.596434 0.058982 0.095235
0.786169 0.066587 0.111299
0.902725 0.216552 0.180333
0.932539 0.309956 0.241084
0.932539 0.309956 0.241084
0.003542 0.015907 0.008216
0.018365 0.019405 0.005470
0.176449 0.021279 0.024948
0.359376 0.042625 0.061808
0.604979 0.059322 0.090878
0.792906 0.066726 0.106648
0.905654 0.225869 0.181284
0.934252 0.316392 0.242530
0.934252 0.316392 0.242530
0.031069 0.138671 0.076591
0.031701 0.142897 0.070921
0.161978 0.163379 0.044921
0.409950 0.154952 0.058424
0.667865 0.115460 0.065453
0.849645 0.087472 0.069487
0.925895 0.294865 0.188679
0.953409 0.365583 0.251108
0.953409 0.365583 0.251108
0.061511 0.339165 0.210382
0.061567 0.341401 0.202429
0.061234 0.358942 0.091339
0.396121 0.383733 0.070283
0.693240 0.386327 0.068459
0.900778 0.382545 0.062858
0.978015 0.444222 0.195410
0.996397 0.491341 0.277569
0.996397 0.491341 0.277569
0.070084 0.590149 0.358801
0.070091 0.591708 0.349068
0.070126 0.604329 0.273939
0.294766 0.639746 0.066119
0.682572 0.651621 0.022475
0.918533 0.648232 0.000000
1.000000 0.670983 0.260958
1.000000 0.702211 0.412875
1.000000 0.702211 0.412875
0.052599 0.782721 0.457239
0.052691 0.784000 0.448527
0.053220 0.794598 0.381604
0.059612 0.819616 0.098248
0.628988 0.848920 0.000000
0.885413 0.842075 0.000000
1.000000 0.843451 0.402124
1.000000 0.861726 0.613726
1.000000 0.861726 0.613726
0.012179 0.927662 0.518757
0.012304 0.928869 0.510345
0.013069 0.938945 0.444960
0.017780 0.966372 0.219338
0.571906 0.980160 0.000000
0.855370 0.972153 0.000000
1.000000 0.950493 0.675311
1.000000 0.962907 0.858895
1.000000 0.962907 0.858895
0.071168 1.000000 0.562335
0.101312 1.000000 0.558032
0.253243 1.000000 0.531829
0.485078 1.000000 0.498100
0.755854 1.000000 0.509502
0.937537 1.000000 0.612655
1.000000 0.996200 0.966891
1.000000 1.000000 0.999928
1.000000 1.000000 0.999928
0.071168 1.000000 0.562335
0.101312 1.000000 0.558032
0.253243 1.000000 0.531829
0.485078 1.000000 0.498100
0.755854 1.000000 0.509502
0.937537 1.000000 0.612655
1.000000 0.996200 0.966891
1.000000 1.000000 0.999928
1.000000 1.000000 0.999928
0.000000 0.000000 0.000000
0.014488 0.002085 0.009798
0.147212 0.018546 0.038983
0.344913 0.041910 0.077005
0.596394 0.059317 0.113127
0.786680 0.066845 0.134363
0.903301 0.214525 0.200325
0.932980 0.308432 0.257781
0.932980 0.308432 0.257781
0.003557 0.014889 0.013847
0.018000 0.018000 0.018000
0.170122 0.023827 0.038884
0.356791 0.046005 0.074998
0.604315 0.063028 0.110150
0.793286 0.070430 0.131064
0.905688 0.225239 0.202074
0.934693 0.314893 0.259229
0.934693 0.314893 0.259229
0.031220 0.138068 0.083532
0.033770 0.142083 0.079914
0.160585 0.163243 0.048111
0.420876 0.140676 0.061148
0.673733 0.077503 0.069328
0.849847 0.101066 0.095446
0.923712 0.297250 0.212554
0.954113 0.364100 0.267776
0.954113 0.364100 0.267776
0.061603 0.338779 0.218147
0.065358 0.341051 0.212298
0.067520 0.359242 0.116612
0.393648 0.384218 0.075020
0.701215 0.381156 0.074182
0.912980 0.371182 0.069690
0.976450 0.444597 0.220272
0.996879 0.490041 0.293869
0.996879 0.490041 0.293869
0.070058 0.589756 0.368124
0.076717 0.591519 0.360869
0.077931 0.604340 0.293810
0.269387 0.640943 0.074021
0.679079 0.652505 0.031211
0.921562 0.646617 0.010026
0.998593 0.670653 0.281811
1.000000 0.701457 0.423762
1.000000 0.701457 0.423762
0.052186 0.782382 0.468575
0.057963 0.784140 0.461525
0.061993 0.795238 0.400626
0.071385 0.823762 0.157405
0.616380 0.851360 0.011561
0.881473 0.843056 0.012186
0.999468 0.843321 0.407054
1.000000 0.861430 0.616693
1.000000 0.861430 0.616693
0.011563 0.927232 0.531813
0.011653 0.928440 0.524012
0.023599 0.939458 0.464629
0.030954 0.968519 0.259102
0.551948 0.983189 0.013190
0.846809 0.974114 0.013784
0.999838 0.951271 0.663617
1.000000 0.962929 0.857772
1.000000 0.962929 0.857772
0.050108 1.000000 0.573527
0.081257 1.000000 0.569519
0.242781 1.000000 0.545049
0.478903 1.000000 0.513881
0.751620 1.000000 0.526531
0.934086 1.000000 0.627274
1.000000 0.996324 0.964851
1.000000 1.000000 0.999928
1.000000 1.000000 0.999928
0.050108 1.000000 0.573527
0.081257 1.000000 0.569519
0.242781 1.000000 0.545049
0.478903 1.000000 0.513881
0.751620 1.000000 0.526531
0.934086 1.000000 0.627274
1.000000 0.996324 0.964851
1.000000 1.000000 0.999928
1.000000 1.000000 0.999928
0.000000 0.000000 0.000000
0.000830 0.000165 0.001344
0.127410 0.018646 0.093204
0.335505 0.043747 0.160745
0.592079 0.061001 0.218327
0.784730 0.067921 0.252504
0.904505 0.198120 0.304882
0.934617 0.297138 0.349100
0.934617 0.297138 0.349100
0.003905 0.005056 0.073342
0.023204 0.006653 0.081727
0.149825 0.024212 0.112589
0.347720 0.047701 0.164128
0.600235 0.064588 0.218499
0.791534 0.071402 0.251920
0.907115 0.209741 0.306858
0.936364 0.303810 0.350595
0.936364 0.303810 0.350595
0.031670 0.132740 0.122432
0.034705 0.136517 0.127072
0.156583 0.156583 0.156583
0.438471 0.097052 0.167914
0.670546 0.089519 0.208074
0.850244 0.097758 0.239942
0.923654 0.288827 0.320861
0.957064 0.353657 0.359962
0.957064 0.353657 0.359962
0.061970 0.335656 0.257587
0.066303 0.337876 0.256163
0.079926 0.357143 0.230727
0.380043 0.386238 0.145889
0.766890 0.330079 0.134912
0.929210 0.354154 0.233489
0.975434 0.438344 0.336921
0.999156 0.481190 0.385842
0.999156 0.481190 0.385842
0.069927 0.586921 0.416512
0.075860 0.588570 0.413481
0.101101 0.602048 0.384726
0.119841 0.640891 0.208614
0.653412 0.658659 0.062045
0.953974 0.630296 0.044888
0.992891 0.666850 0.388929
1.000000 0.696226 0.489323
1.000000 0.696226 0.489323
0.050209 0.779838 0.527008
0.056305 0.781577 0.523395
0.086786 0.794827 0.491797
0.105458 0.829974 0.358466
0.512161 0.869731 0.056214
0.854395 0.849900 0.059877
0.997034 0.841739 0.440700
1.000000 0.859094 0.638323
1.000000 0.859094 0.638323
0.008592 0.924236 0.599057
0.008853 0.925441 0.594340
0.037501 0.937519 0.559118
0.083506 0.966692 0.436941
0.441562 0.995988 0.179762
0.783276 0.988201 0.070403
0.987682 0.976563 0.073098
0.999256 0.962934 0.852531
0.999256 0.962934 0.852531
0.000000 0.997136 0.638868
0.000000 0.998218 0.634154
0.169058 1.000000 0.614914
0.439575 1.000000 0.596909
0.725572 1.000000 0.615323
0.913902 1.000000 0.702028
1.000000 0.998302 0.937275
1.000000 1.000000 0.999928
1.000000 1.000000 0.999928
0.000000 0.997136 0.638868
0.000000 0.998218 0.634154
0.169058 1.000000 0.614914
0.439575 1.000000 0.596909
0.725572 1.000000 0.615323
0.913902 1.000000 0.702028
1.000000 0.998302 0.937275
1.000000 1.000000 0.999928
1.000000 1.000000 0.999928
0.000000 0.000000 0.000000
0.000000 0.000000 0.000000
0.085252 0.014187 0.101586
0.305940 0.043864 0.242132
0.572056 0.062033 0.332860
0.769242 0.068634 0.381959
0.899008 0.157247 0.424735
0.933917 0.273241 0.457910
0.933917 0.273241 0.457910
0.000000 0.000000 0.000000
0.000000 0.000000 0.000000
0.108013 0.020401 0.135159
0.317954 0.047474 0.252409
0.580249 0.065280 0.336368
0.776087 0.071826 0.383694
0.902672 0.171900 0.427435
0.935819 0.280462 0.459581
0.935819 0.280462 0.459581
0.030305 0.111529 0.196913
0.033340 0.113874 0.211255
0.145012 0.114703 0.325049
0.415415 0.069548 0.334363
0.650848 0.088870 0.360840
0.835360 0.096517 0.394673
0.922925 0.263218 0.444586
0.957604 0.333307 0.471876
0.957604 0.333307 0.471876
0.062046 0.327094 0.306579
0.064873 0.329123 0.309162
0.079818 0.346705 0.330565
0.373027 0.373027 0.373027
0.769659 0.307286 0.384073
0.932389 0.331067 0.418550
0.977264 0.420044 0.471038
1.000000 0.465085 0.501560
1.000000 0.465085 0.501560
0.069842 0.580822 0.468011
0.074120 0.582303 0.467913
0.098240 0.594979 0.464498
0.120835 0.634479 0.412959
0.640995 0.653271 0.321111
0.979821 0.605654 0.310510
0.992275 0.655117 0.515628
1.000000 0.685888 0.581517
1.000000 0.685888 0.581517
0.048830 0.774462 0.585805
0.053606 0.776015 0.584859
0.082269 0.788603 0.574746
0.113948 0.824741 0.518855
0.354199 0.885933 0.246822
0.827045 0.851799 0.239305
0.995036 0.835080 0.525219
1.000000 0.853036 0.684226
1.000000 0.853036 0.684226
0.006400 0.918649 0.665587
0.011854 0.920095 0.664065
0.050355 0.929664 0.649544
0.100678 0.955914 0.589953
0.368550 0.994993 0.423915
0.717883 0.995950 0.296284
0.951213 0.983967 0.153177
0.998699 0.961486 0.845446
0.998699 0.961486 0.845446
0.000000 0.990416 0.707836
0.000000 0.991363 0.705666
0.000000 0.999677 0.687070
0.375269 1.000000 0.681762
0.687124 1.000000 0.703656
0.887069 1.000000 0.770656
0.992008 1.000000 0.921361
1.000000 1.000000 0.999928
1.000000 1.000000 0.999928
0.000000 0.990416 0.707836
0.000000 0.991363 0.705666
0.000000 0.999677 0.687070
0.375269 1.000000 0.681762
0.687124 1.000000 0.703656
0.887069 1.000000 0.770656
0.992008 1.000000 0.921361
1.000000 1.000000 0.999928
1.000000 1.000000 0.999928
0.000000 0.000000 0.000000
0.000000 0.000000 0.000000
0.005944 0.000956 0.006333
0.257843 0.040816 0.271229
0.532675 0.061892 0.427440
0.735728 0.068869 0.502757
0.875686 0.070527 0.544906
0.927791 0.226937 0.574957
0.927791 0.226937 0.574957
0.000000 0.000000 0.000000
0.000000 0.000000 0.000000
0.042100 0.007264 0.047832
0.269727 0.044385 0.286515
0.540647 0.064769 0.434167
0.742444 0.071700 0.506821
0.881254 0.082954 0.548731
0.930183 0.235598 0.577110
0.930183 0.235598 0.577110
0.019353 0.032267 0.326346
0.023186 0.030456 0.342962
0.152680 0.039915 0.381498
0.357780 0.065162 0.421649
0.608271 0.086097 0.490729
0.800385 0.093902 0.540171
0.915443 0.210987 0.577108
0.952829 0.297467 0.594438
0.952829 0.297467 0.594438
0.061663 0.306359 0.388896
0.063902 0.308034 0.394727
0.080758 0.321147 0.453524
0.364968 0.328756 0.607197
0.760240 0.246222 0.626422
0.926730 0.282269 0.614703
0.976037 0.388015 0.621758
1.000000 0.437624 0.633102
1.000000 0.437624 0.633102
0.069829 0.568825 0.532759
0.072706 0.570157 0.534432
0.092603 0.581724 0.548622
0.121457 0.617000 0.590270
0.627717 0.627717 0.627717
0.974269 0.575045 0.627478
0.991803 0.633588 0.670718
1.000000 0.667826 0.697666
1.000000 0.667826 0.697666
0.048210 0.764434 0.651321
0.051445 0.765793 0.651988
0.074107 0.777314 0.656754
0.108029 0.811567 0.660162
0.337867 0.865894 0.598116
0.820347 0.830856 0.594959
0.993878 0.818476 0.682812
1.000000 0.840434 0.767246
1.000000 0.840434 0.767246
0.005215 0.908969 0.735686
0.009062 0.910233 0.735775
0.041279 0.918696 0.734803
0.101621 0.942068 0.722235
0.182528 0.994704 0.631856
0.663465 0.990898 0.566532
0.945475 0.966166 0.563772
1.000000 0.955609 0.852961
1.000000 0.955609 0.852961
0.000000 0.980529 0.778340
0.000000 0.981371 0.777861
0.000000 0.988848 0.773355
0.256216 1.000000 0.768777
0.628858 1.000000 0.790878
0.849302 1.000000 0.834013
0.975864 1.000000 0.922745
1.000000 1.000000 0.999928
1.000000 1.000000 0.999928
0.000000 0.980529 0.778340
0.000000 0.981371 0.777861
0.000000 0.988848 0.773355
0.256216 1.000000 0.768777
0.628858 1.000000 0.790878
0.849302 1.000000 0.834013
0.975864 1.000000 0.922745
1.000000 1.000000 0.999928
1.000000 1.000000 0.999928
0.000000 0.000000 0.000000
0.000000 0.000000 0.000000
0.000000 0.000000 0.000000
0.217888 0.035888 0.251122
0.497871 0.060990 0.464750
0.703992 0.068730 0.566200
0.846141 0.070525 0.621369
0.916703 0.171863 0.651612
0.916703 0.171863 0.651612
0.000000 0.000000 0.000000
0.000000 0.000000 0.000000
0.000000 0.000000 0.000000
0.229799 0.040759 0.267266
0.505681 0.063709 0.473226
0.710553 0.071343 0.571679
0.852157 0.073145 0.625549
0.920101 0.183273 0.654663
0.920101 0.183273 0.654663
0.088544 0.019148 0.206653
0.096419 0.020900 0.217731
0.159563 0.033486 0.294329
0.322736 0.057339 0.423923
0.570923 0.083856 0.546544
0.766856 0.091912 0.618400
0.900520 0.143615 0.662057
0.944103 0.260544 0.676708
0.944103 0.260544 0.676708
0.060707 0.278716 0.472467
0.063081 0.279913 0.480180
0.083348 0.287480 0.556549
0.347729 0.273405 0.759248
0.739239 0.155771 0.779145
0.915116 0.222449 0.745048
0.972369 0.356144 0.726995
0.998239 0.411386 0.726391
0.998239 0.411386 0.726391
0.069872 0.555726 0.590157
0.072240 0.556953 0.592841
0.090190 0.567549 0.617195
0.123779 0.597669 0.710954
0.623305 0.595074 0.837516
0.968458 0.541293 0.835318
0.991518 0.611991 0.786072
1.000000 0.650242 0.785592
1.000000 0.650242 0.785592
0.048246 0.754043 0.704025
0.050771 0.755295 0.705498
0.069745 0.766062 0.718072
0.104178 0.798203 0.754932
0.320049 0.844497 0.813963
0.809785 0.809785 0.809785
0.993307 0.799792 0.820878
1.000000 0.827162 0.843801
1.000000 0.827162 0.843801
0.004981 0.899318 0.789380
0.008003 0.900484 0.790236
0.035177 0.908546 0.796066
0.096113 0.930193 0.808174
0.133676 0.979866 0.806756
0.654606 0.972522 0.791540
0.939466 0.947255 0.789608
1.000000 0.946554 0.896543
1.000000 0.946554 0.896543
0.000000 0.971325 0.831029
0.000000 0.972113 0.831332
0.000000 0.979109 0.833765
0.049887 1.000000 0.838708
0.567668 1.000000 0.860172
0.810744 1.000000 0.887386
0.955974 1.000000 0.932649
1.000000 1.000000 0.999928
1.000000 1.000000 0.999928
0.000000 0.971325 0.831029
0.000000 0.972113 0.831332
0.000000 0.979109 0.833765
0.049887 1.000000 0.838708
0.567668 1.000000 0.860172
0.810744 1.000000 0.887386
0.955974 1.000000 0.932649
1.000000 1.000000 0.999928
1.000000 1.000000 0.999928
0.000000 0.000000 0.000000
0.000000 0.000000 0.000000
0.000000 0.000000 0.000000
0.185487 0.030828 0.220104
0.472602 0.060005 0.475161
0.680148 0.068493 0.596798
0.823421 0.070499 0.662403
0.901296 0.111945 0.695392
0.901296 0.111945 0.695392
0.000000 0.000000 0.000000
0.000000 0.000000 0.000000
0.000000 0.000000 0.000000
0.200364 0.034294 0.240397
0.480382 0.062700 0.484552
0.686613 0.071000 0.603089
0.829342 0.072992 0.667309
0.906154 0.126811 0.699777
0.906154 0.126811 0.699777
0.058540 0.011296 0.105370
0.067932 0.013380 0.124606
0.141166 0.026989 0.234295
0.300684 0.050666 0.407155
0.546541 0.072822 0.569108
0.742291 0.086291 0.657717
0.880354 0.093093 0.709369
0.935447 0.226838 0.728048
0.935447 0.226838 0.728048
0.059282 0.250193 0.536963
0.061936 0.250939 0.545434
0.075827 0.252523 0.630838
0.339143 0.223061 0.831969
0.705810 0.110073 0.842657
0.902613 0.138114 0.825263
0.968057 0.329359 0.795228
0.995859 0.390172 0.787852
0.995859 0.390172 0.787852
0.069931 0.544047 0.636247
0.072117 0.545189 0.639590
0.089516 0.554954 0.670421
0.107644 0.579889 0.795811
0.615486 0.568352 0.973695
0.963626 0.511660 0.971834
0.991401 0.594140 0.864574
1.000000 0.636006 0.845921
1.000000 0.636006 0.845921
0.048494 0.745185 0.744091
0.050696 0.746373 0.746057
0.067834 0.756615 0.763392
0.087256 0.786308 0.820269
0.304590 0.826353 0.953825
0.807454 0.789394 0.951921
0.993058 0.783675 0.920140
1.000000 0.816143 0.900626
1.000000 0.816143 0.900626
0.005084 0.891280 0.829004
0.007700 0.892388 0.830301
0.031928 0.900271 0.840149
0.092660 0.920739 0.866679
0.134528 0.965651 0.920915
0.647185 0.957037 0.935065
0.932186 0.932186 0.932186
1.000000 0.937667 0.944061
1.000000 0.937667 0.944061
0.000000 0.963877 0.869382
0.000000 0.964633 0.870111
0.000000 0.971329 0.876427
0.000000 0.992814 0.894905
0.507730 1.000000 0.918839
0.773113 1.000000 0.939025
0.932920 1.000000 0.958895
1.000000 1.000000 0.999928
1.000000 1.000000 0.999928
0.000000 0.963877 0.869382
0.000000 0.964633 0.870111
0.000000 0.971329 0.876427
0.000000 0.992814 0.894905
0.507730 1.000000 0.918839
0.773113 1.000000 0.939025
0.932920 1.000000 0.958895
1.000000 1.000000 0.999928
1.000000 1.000000 0.999928
0.000000 0.000000 0.000000
0.000000 0.000000 0.000000
0.000000 0.000000 0.000000
0.164045 0.027338 0.196347
0.458217 0.059327 0.476040
0.666452 0.068310 0.609337
0.810208 0.070473 0.681140
0.890365 0.073987 0.716243
0.890365 0.073987 0.716243
0.000000 0.000000 0.000000
0.000000 0.000000 0.000000
0.000000 0.000000 0.000000
0.181186 0.030310 0.219515
0.466557 0.059926 0.486642
0.673164 0.068502 0.616286
0.816239 0.070507 0.686458
0.895464 0.088635 0.721021
0.895464 0.088635 0.721021
0.025684 0.004331 0.031909
0.038911 0.006681 0.051070
0.123629 0.022738 0.196913
0.288096 0.046920 0.392924
0.533429 0.064170 0.577110
0.729589 0.069779 0.675949
0.867684 0.070558 0.732076
0.930629 0.202760 0.755001
0.930629 0.202760 0.755001
0.058007 0.229795 0.572824
0.058203 0.229931 0.582497
0.059492 0.225962 0.673519
0.341389 0.194402 0.849488
0.687625 0.077454 0.869664
0.887228 0.070195 0.860291
0.972032 0.301832 0.836502
0.994103 0.377136 0.820788
0.994103 0.377136 0.820788
0.069975 0.536429 0.664441
0.069939 0.537435 0.668290
0.069576 0.545991 0.703974
0.067920 0.566970 0.846926
0.617640 0.558372 0.999607
0.929136 0.520662 1.000000
1.000000 0.577466 0.914092
1.000000 0.627337 0.879101
1.000000 0.627337 0.879101
0.048714 0.739587 0.767989
0.048389 0.740588 0.770109
0.045467 0.749397 0.789221
0.035568 0.776629 0.856505
0.376065 0.809013 1.000000
0.805369 0.780712 1.000000
1.000000 0.769905 0.982523
1.000000 0.809394 0.932833
1.000000 0.809394 0.932833
0.005232 0.886275 0.852254
0.004867 0.887211 0.853650
0.001610 0.895493 0.866036
0.000000 0.917920 0.902779
0.000000 0.961300 0.988317
0.674050 0.942399 1.000000
0.931418 0.922550 1.000000
1.000000 0.931867 0.974799
1.000000 0.931867 0.974799
0.000000 0.959304 0.891725
0.000000 0.960042 0.892669
0.000000 0.966575 0.900946
0.000000 0.987444 0.926682
0.463188 1.000000 0.958193
0.745036 1.000000 0.977968
0.912055 1.000000 0.992037
1.000000 1.000000 0.999928
1.000000 1.000000 0.999928
0.000000 0.959304 0.891725
0.000000 0.960042 0.892669
0.000000 0.966575 0.900946
0.000000 0.987444 0.926682
0.463188 1.000000 0.958193
0.745036 1.000000 0.977968
0.912055 1.000000 0.992037
1.000000 1.000000 0.999928
1.000000 1.000000 0.999928
0.000000 0.000000 0.000000
0.000000 0.000000 0.000000
0.000000 0.000000 0.000000
0.164045 0.027338 0.196347
0.458217 0.059327 0.476040
0.666452 0.068310 0.609337
0.810208 0.070473 0.681140
0.890365 0.073987 0.716243
0.890365 0.073987 0.716243
0.000000 0.000000 0.000000
0.000000 0.000000 0.000000
0.000000 0.000000 0.000000
0.181186 0.030310 0.219515
0.466557 0.059926 0.486642
0.673164 0.068502 0.616286
0.816239 0.070507 0.686458
0.895464 0.088635 0.721021
0.895464 0.088635 0.721021
0.025684 0.004331 0.031909
0.038911 0.006681 0.051070
0.123629 0.022738 0.196913
0.288096 0.046920 0.392924
0.533429 0.064170 0.577110
0.729589 0.069779 0.675949
0.867684 0.070558 0.732076
0.930629 0.202760 0.755001
0.930629 0.202760 0.755001
0.058007 0.229795 0.572824
0.058203 0.229931 0.582497
0.059492 0.225962 0.673519
0.341389 0.194402 0.849488
0.687625 0.077454 0.869664
0.887228 0.070195 0.860291
0.972032 0.301832 0.836502
0.994103 0.377136 0.820788
0.994103 0.377136 0.820788
0.069975 0.536429 0.664441
0.069939 0.537435 0.668290
0.069576 0.545991 0.703974
0.067920 0.566970 0.846926
0.617640 0.558372 0.999607
0.929136 0.520662 1.000000
1.000000 0.577466 0.914092
1.000000 0.627337 0.879101
1.000000 0.627337 0.879101
0.048714 0.739587 0.767989
0.048389 0.740588 0.770109
0.045467 0.749397 0.789221
0.035568 0.776629 0.856505
0.376065 0.809013 1.000000
0.805369 0.780712 1.000000
1.000000 0.769905 0.982523
1.000000 0.809394 0.932833
1.000000 0.809394 0.932833
0.005232 0.886275 0.852254
0.004867 0.887211 0.853650
0.001610 0.895493 0.866036
0.000000 0.917920 0.902779
0.000000 0.961300 0.988317
0.674050 0.942399 1.000000
0.931418 0.922550 1.000000
1.000000 0.931867 0.974799
1.000000 0.931867 0.974799
0.000000 0.959304 0.891725
0.000000 0.960042 0.892669
0.000000 0.966575 0.900946
0.000000 0.987444 0.926682
0.463188 1.000000 0.958193
0.745036 1.000000 0.977968
0.912055 1.000000 0.992037
1.000000 1.000000 0.999928
1.000000 1.000000 0.999928
0.000000 0.959304 0.891725
0.000000 0.960042 0.892669
0.000000 0.966575 0.900946
0.000000 0.987444 0.926682
0.463188 1.000000 0.958193
0.745036 1.000000 0.977968
0.912055 1.000000 0.992037
1.000000 1.000000 0.999928
1.000000 1.000000 0.999928
