luts/FLog2C_to_WDR-709_33grid_V.1.10.cube
#title:FLog2C_to_WDR
#FUJIFILM Corporation
#Gamma:F-Log2C to Wide Dynamic Range curve
#Gamut:F-GamutC to ITU-R BT.709
#Version:1.10
LUT_3D_SIZE 33
0.000000 0.000000 0.000000
0.000000 0.000000 0.000000
0.000000 0.000000 0.000000
0.000000 0.000000 0.000000
0.018347 0.002263 0.003741
0.042810 0.005279 0.008729
0.077153 0.009481 0.014960
0.112697 0.013837 0.021578
0.149756 0.018427 0.029576
0.191377 0.023566 0.038202
0.236834 0.029153 0.047038
0.287516 0.035352 0.056201
0.345769 0.041612 0.065397
0.412930 0.047172 0.074405
0.478002 0.051905 0.082412
0.539298 0.055806 0.089328
0.596434 0.058982 0.095235
0.649784 0.061563 0.100298
0.699102 0.063634 0.104593
0.744558 0.065285 0.108231
0.786169 0.066587 0.111299
0.824138 0.067606 0.113882
0.858303 0.098540 0.127081
0.885665 0.168782 0.155993
0.902725 0.216552 0.180333
0.914725 0.252383 0.201638
0.923836 0.281092 0.220528
0.931044 0.304884 0.237360
0.932539 0.309956 0.241084
0.932539 0.309956 0.241084
0.932539 0.309956 0.241084
0.932539 0.309956 0.241084
0.932539 0.309956 0.241084
0.000000 0.000000 0.000000
0.000000 0.000000 0.000000
0.000000 0.000000 0.000000
0.000000 0.000000 0.000000
0.018347 0.002263 0.003741
0.042810 0.005279 0.008729
0.077153 0.009481 0.014960
0.112697 0.013837 0.021578
0.149756 0.018427 0.029576
0.191377 0.023566 0.038202
0.236834 0.029153 0.047038
0.287516 0.035352 0.056201
0.345769 0.041612 0.065397
0.412930 0.047172 0.074405
0.478002 0.051905 0.082412
0.539298 0.055806 0.089328
0.596434 0.058982 0.095235
0.649784 0.061563 0.100298
0.699102 0.063634 0.104593
0.744558 0.065285 0.108231
0.786169 0.066587 0.111299
0.824138 0.067606 0.113882
0.858303 0.098540 0.127081
0.885665 0.168782 0.155993
0.902725 0.216552 0.180333
0.914725 0.252383 0.201638
0.923836 0.281092 0.220528
0.931044 0.304884 0.237360
0.932539 0.309956 0.241084
0.932539 0.309956 0.241084
0.932539 0.309956 0.241084
0.932539 0.309956 0.241084
0.932539 0.309956 0.241084
0.000000 0.000000 0.000000
0.000000 0.000000 0.000000
0.000000 0.000000 0.000000
0.000000 0.000000 0.000000
0.018347 0.002263 0.003741
0.042810 0.005279 0.008729
0.077153 0.009481 0.014960
0.112697 0.013837 0.021578
0.149756 0.018427 0.029576
0.191377 0.023566 0.038202
0.236834 0.029153 0.047038
0.287516 0.035352 0.056201
0.345769 0.041612 0.065397
0.412930 0.047172 0.074405
0.478002 0.051905 0.082412
0.539298 0.055806 0.089328
0.596434 0.058982 0.095235
0.649784 0.061563 0.100298
0.699102 0.063634 0.104593
0.744558 0.065285 0.108231
0.786169 0.066587 0.111299
0.824138 0.067606 0.113882
0.858303 0.098540 0.127081
0.885665 0.168782 0.155993
0.902725 0.216552 0.180333
0.914725 0.252383 0.201638
0.923836 0.281092 0.220528
0.931044 0.304884 0.237360
0.932539 0.309956 0.241084
0.932539 0.309956 0.241084
0.932539 0.309956 0.241084
0.932539 0.309956 0.241084
0.932539 0.309956 0.241084
0.000000 0.000000 0.000000
0.000000 0.000000 0.000000
0.000000 0.000000 0.000000
0.000000 0.000000 0.000000
0.018347 0.002263 0.003741
0.042810 0.005279 0.008729
0.077153 0.009481 0.014960
0.112697 0.013837 0.021578
0.149756 0.018427 0.029576
0.191377 0.023566 0.038202
0.236834 0.029153 0.047038
0.287516 0.035352 0.056201
0.345769 0.041612 0.065397
0.412930 0.047172 0.074405
0.478002 0.051905 0.082412
0.539298 0.055806 0.089328
0.596434 0.058982 0.095235
0.649784 0.061563 0.100298
0.699102 0.063634 0.104593
0.744558 0.065285 0.108231
0.786169 0.066587 0.111299
0.824138 0.067606 0.113882
0.858303 0.098540 0.127081
0.885665 0.168782 0.155993
0.902725 0.216552 0.180333
0.914725 0.252383 0.201638
0.923836 0.281092 0.220528
0.931044 0.304884 0.237360
0.932539 0.309956 0.241084
0.932539 0.309956 0.241084
0.932539 0.309956 0.241084
0.932539 0.309956 0.241084
0.932539 0.309956 0.241084
0.003542 0.015907 0.008216
0.003542 0.015907 0.008216
0.003542 0.015907 0.008216
0.003542 0.015907 0.008216
0.018365 0.019405 0.005470
0.053389 0.020153 0.009006
0.098618 0.020606 0.013474
0.141778 0.019015 0.017354
0.176449 0.021279 0.024948
0.213391 0.025906 0.034114
0.255158 0.031088 0.043349
0.302840 0.036959 0.052845
0.359376 0.042625 0.061808
0.424646 0.047922 0.070531
0.488341 0.052471 0.078330
0.548617 0.056242 0.085089
0.604979 0.059322 0.090878
0.657722 0.061833 0.095843
0.706554 0.063849 0.100062
0.751617 0.065457 0.103637
0.792906 0.066726 0.106648
0.830608 0.067717 0.109185
0.864217 0.114041 0.127845
0.889739 0.180751 0.156788
0.905654 0.225869 0.181284
0.917079 0.260348 0.202769
0.925837 0.288217 0.221815
0.932803 0.311431 0.238779
0.934252 0.316392 0.242530
0.934252 0.316392 0.242530
0.934252 0.316392 0.242530
0.934252 0.316392 0.242530
0.934252 0.316392 0.242530
0.008263 0.037116 0.019169
0.008263 0.037116 0.019169
0.008263 0.037116 0.019169
0.008263 0.037116 0.019169
0.009314 0.044171 0.009571
0.042829 0.045285 0.012763
0.090468 0.046305 0.017573
0.136113 0.045661 0.021873
0.181265 0.043018 0.025745
0.229829 0.037875 0.029472
0.277989 0.033335 0.034959
0.322231 0.038894 0.046354
0.376844 0.043861 0.056067
0.439824 0.048856 0.064863
0.501818 0.053183 0.072532
0.560816 0.056794 0.079173
0.616196 0.059756 0.084862
0.668162 0.062176 0.089739
0.716373 0.064123 0.093878
0.760930 0.065677 0.097388
0.801803 0.066903 0.100343
0.839159 0.067861 0.102831
0.871916 0.134835 0.128678
0.894649 0.195516 0.157727
0.909305 0.237699 0.182504
0.920056 0.270587 0.204252
0.928389 0.297441 0.223520
0.935058 0.319944 0.240663
0.936450 0.324768 0.244453
0.936450 0.324768 0.244453
0.936450 0.324768 0.244453
0.936450 0.324768 0.244453
0.936450 0.324768 0.244453
0.014559 0.065390 0.033799
0.014559 0.065390 0.033799
0.014559 0.065390 0.033799
0.014559 0.065390 0.033799
0.015758 0.072350 0.028451
0.029384 0.078713 0.017819
0.078814 0.080035 0.022860
0.129492 0.080109 0.027784
0.177074 0.078402 0.032070
0.227115 0.074406 0.036158
0.279523 0.067709 0.039806
0.337165 0.057329 0.042578
0.399083 0.045306 0.046012
0.459345 0.049997 0.056542
0.519280 0.054067 0.064340
0.576703 0.057484 0.070925
0.630857 0.060301 0.076545
0.681845 0.062609 0.081357
0.729267 0.064470 0.085435
0.773178 0.065956 0.088884
0.813518 0.067127 0.091784
0.850276 0.083275 0.099321
0.881048 0.160489 0.129393
0.900480 0.213551 0.158822
0.913789 0.252576 0.184063
0.923773 0.283644 0.206196
0.931604 0.309297 0.225774
0.938032 0.330900 0.243102
0.940230 0.335209 0.246418
0.940230 0.335209 0.246418
0.940230 0.335209 0.246418
0.940230 0.335209 0.246418
0.940230 0.335209 0.246418
0.022252 0.099794 0.052410
0.022252 0.099794 0.052410
0.022252 0.099794 0.052410
0.022252 0.099794 0.052410
0.023150 0.105117 0.047857
0.024059 0.112238 0.034325
0.061305 0.116680 0.028134
0.119604 0.119244 0.034270
0.171832 0.119948 0.039413
0.225502 0.118425 0.043175
0.281077 0.114041 0.046441
0.340594 0.105495 0.049228
0.405257 0.093145 0.051703
0.474668 0.077995 0.053981
0.539214 0.063705 0.055944
0.596951 0.058322 0.059766
0.649624 0.060966 0.065334
0.699415 0.063140 0.070090
0.745865 0.064895 0.074117
0.788975 0.066298 0.077511
0.828649 0.067402 0.080361
0.864209 0.119544 0.099396
0.890581 0.188536 0.129763
0.907193 0.235045 0.160067
0.919126 0.270820 0.186014
0.928276 0.299893 0.208699
0.935540 0.324184 0.228707
0.943883 0.343887 0.244936
0.945935 0.348029 0.248341
0.945935 0.348029 0.248341
0.945935 0.348029 0.248341
0.945935 0.348029 0.248341
0.945935 0.348029 0.248341
0.031069 0.138671 0.076591
0.031069 0.138671 0.076591
0.031069 0.138671 0.076591
0.031069 0.138671 0.076591
0.031701 0.142897 0.070921
0.032330 0.148503 0.058045
0.036231 0.155999 0.033184
0.100421 0.160117 0.039982
0.161978 0.163379 0.044921
0.220568 0.164491 0.048961
0.279481 0.163664 0.052446
0.342092 0.160638 0.055587
0.409950 0.154952 0.058424
0.482637 0.146444 0.060930
0.550175 0.136703 0.062861
0.611794 0.126081 0.064318
0.667865 0.115460 0.065453
0.719583 0.106083 0.066421
0.766922 0.097754 0.067230
0.810244 0.090391 0.067904
0.849645 0.087472 0.069487
0.881550 0.168006 0.098143
0.901448 0.222302 0.129649
0.915429 0.262600 0.161581
0.925895 0.294865 0.188679
0.934090 0.321640 0.212215
0.942623 0.343555 0.231626
0.951538 0.361649 0.247576
0.953409 0.365583 0.251108
0.953409 0.365583 0.251108
0.953409 0.365583 0.251108
0.953409 0.365583 0.251108
0.953409 0.365583 0.251108
0.040060 0.178819 0.104799
0.040060 0.178819 0.104799
0.040060 0.178819 0.104799
0.040060 0.178819 0.104799
0.040406 0.182340 0.098087
0.040683 0.186941 0.083610
0.040905 0.193300 0.058292
0.070936 0.200116 0.043591
0.145703 0.205851 0.049362
0.211624 0.208948 0.053648
0.274518 0.210255 0.057118
0.339803 0.210069 0.060160
0.409960 0.208292 0.062874
0.485376 0.204735 0.065230
0.556076 0.200040 0.066978
0.621044 0.194728 0.068238
0.680449 0.189159 0.069131
0.735075 0.183522 0.069751
0.784949 0.178011 0.070161
0.830455 0.172721 0.070413
0.871769 0.167736 0.070545
0.896761 0.214273 0.094844
0.912412 0.258597 0.128848
0.924239 0.293697 0.163216
0.933354 0.322686 0.191926
0.942515 0.346471 0.215326
0.952259 0.366015 0.234212
0.960228 0.383012 0.250977
0.961906 0.386722 0.254678
0.961906 0.386722 0.254678
0.961906 0.386722 0.254678
0.961906 0.386722 0.254678
0.961906 0.386722 0.254678
0.047843 0.226330 0.136913
0.047843 0.226330 0.136913
0.047843 0.226330 0.136913
0.047843 0.226330 0.136913
0.048060 0.229313 0.129919
0.048210 0.233214 0.115695
0.048221 0.238436 0.089218
0.048218 0.244937 0.055640
0.117054 0.252666 0.053154
0.196905 0.258173 0.057927
0.265996 0.261190 0.061291
0.335036 0.262858 0.064036
0.407968 0.263331 0.066341
0.485829 0.262522 0.068194
0.558718 0.260662 0.069417
0.625765 0.258128 0.070144
0.687178 0.255207 0.070502
0.743750 0.252083 0.070586
0.795487 0.248922 0.070468
0.842759 0.245816 0.070203
0.885730 0.242843 0.069836
0.912063 0.265231 0.088563
0.924530 0.301808 0.126955
0.934432 0.332124 0.165185
0.945165 0.356743 0.194150
0.955503 0.377348 0.217547
0.963899 0.395310 0.237940
0.970808 0.411057 0.255887
0.972266 0.414508 0.259831
0.972266 0.414508 0.259831
0.972266 0.414508 0.259831
0.972266 0.414508 0.259831
0.972266 0.414508 0.259831
0.055052 0.279069 0.171749
0.055052 0.279069 0.171749
0.055052 0.279069 0.171749
0.055052 0.279069 0.171749
0.055175 0.281638 0.164338
0.055252 0.285018 0.150579
0.055256 0.289571 0.127336
0.055096 0.294976 0.091913
0.068634 0.302083 0.055809
0.171766 0.311018 0.061438
0.252144 0.315773 0.064742
0.327156 0.318744 0.067082
0.403925 0.320601 0.068816
0.484560 0.321431 0.069981
0.559482 0.321272 0.070510
0.628201 0.320410 0.070560
0.691092 0.319077 0.070265
0.749026 0.317438 0.069719
0.802024 0.315632 0.069000
0.850467 0.313753 0.068164
0.894516 0.311877 0.067261
0.926897 0.320048 0.078249
0.937046 0.350661 0.123483
0.950343 0.375100 0.163282
0.961095 0.396255 0.194532
0.969731 0.414813 0.220707
0.976776 0.431152 0.243188
0.982592 0.445586 0.262756
0.983822 0.448762 0.267034
0.983822 0.448762 0.267034
0.983822 0.448762 0.267034
0.983822 0.448762 0.267034
0.983822 0.448762 0.267034
0.061511 0.339165 0.210382
0.061511 0.339165 0.210382
0.061511 0.339165 0.210382
0.061511 0.339165 0.210382
0.061567 0.341401 0.202429
0.061594 0.344356 0.188889
0.061597 0.348368 0.168447
0.061519 0.353214 0.138569
0.061234 0.358942 0.091339
0.120509 0.368456 0.063784
0.227546 0.376563 0.067424
0.313186 0.380878 0.069275
0.396121 0.383733 0.070283
0.480803 0.385585 0.070587
0.558324 0.386465 0.070269
0.628896 0.386645 0.069513
0.693240 0.386327 0.068459
0.752400 0.385656 0.067195
0.806468 0.384746 0.065804
0.855868 0.383685 0.064342
0.900778 0.382545 0.062858
0.944059 0.380604 0.058728
0.957950 0.404601 0.109354
0.969274 0.425620 0.158387
0.978015 0.444222 0.195410
0.985009 0.460733 0.225571
0.990706 0.475402 0.250996
0.995404 0.488458 0.272830
0.996397 0.491341 0.277569
0.996397 0.491341 0.277569
0.996397 0.491341 0.277569
0.996397 0.491341 0.277569
0.996397 0.491341 0.277569
0.066621 0.406386 0.252221
0.066621 0.406386 0.252221
0.066621 0.406386 0.252221
0.066621 0.406386 0.252221
0.066637 0.408362 0.243606
0.066638 0.410968 0.230297
0.066635 0.414521 0.211703
0.066606 0.418894 0.186349
0.066485 0.424203 0.147473
0.066134 0.430586 0.082261
0.181528 0.442686 0.069111
0.288557 0.449308 0.070419
0.381812 0.453164 0.070520
0.472788 0.455709 0.069777
0.554103 0.457185 0.068459
0.627182 0.457953 0.066776
0.693322 0.458221 0.064864
0.753867 0.458128 0.062804
0.811615 0.457248 0.056662
0.864900 0.455976 0.050569
0.913730 0.454455 0.044728
0.958359 0.452786 0.039184
0.978488 0.466581 0.087806
0.987843 0.484599 0.152019
0.994791 0.500764 0.197506
1.000000 0.515344 0.233578
1.000000 0.529700 0.267643
1.000000 0.542492 0.296139
1.000000 0.545317 0.302240
1.000000 0.545317 0.302240
1.000000 0.545317 0.302240
1.000000 0.545317 0.302240
1.000000 0.545317 0.302240
0.069549 0.471527 0.291340
0.069549 0.471527 0.291340
0.069549 0.471527 0.291340
0.069549 0.471527 0.291340
0.069549 0.473323 0.282033
0.069545 0.475673 0.269168
0.069540 0.478885 0.251765
0.069528 0.482874 0.228942
0.069490 0.487844 0.196233
0.069357 0.493957 0.140800
0.097177 0.502466 0.069601
0.251524 0.514600 0.070549
0.360526 0.519827 0.069606
0.460061 0.522955 0.067728
0.546309 0.524756 0.065370
0.622538 0.525784 0.062749
0.692781 0.526353 0.054687
0.757570 0.526168 0.046723
0.817085 0.525445 0.038996
0.871784 0.524341 0.031568
0.921813 0.522983 0.024516
0.967476 0.521468 0.017874
0.994986 0.528335 0.059324
1.000000 0.544528 0.149012
1.000000 0.560086 0.212158
1.000000 0.574064 0.259558
1.000000 0.586608 0.297349
1.000000 0.597861 0.328455
1.000000 0.600357 0.335059
1.000000 0.600357 0.335059
1.000000 0.600357 0.335059
1.000000 0.600357 0.335059
1.000000 0.600357 0.335059
0.070574 0.532775 0.326795
0.070574 0.532775 0.326795
0.070574 0.532775 0.326795
0.070574 0.532775 0.326795
0.070573 0.534440 0.317051
0.070572 0.536599 0.304695
0.070571 0.539555 0.288125
0.070570 0.543247 0.266885
0.070566 0.547901 0.237603
0.070553 0.553861 0.191787
0.070493 0.560457 0.110528
0.197177 0.574373 0.070208
0.331841 0.582039 0.067995
0.442611 0.585879 0.064867
0.535064 0.588360 0.058856
0.616452 0.590081 0.048715
0.689745 0.590664 0.038900
0.756851 0.590483 0.029383
0.818185 0.589769 0.020270
0.874356 0.588685 0.011597
0.925601 0.587357 0.003424
0.970047 0.586197 0.000000
1.000000 0.589162 0.034452
1.000000 0.603987 0.160288
1.000000 0.617430 0.235183
1.000000 0.629625 0.289066
1.000000 0.640658 0.330951
1.000000 0.650622 0.364827
1.000000 0.652842 0.371955
1.000000 0.652842 0.371955
1.000000 0.652842 0.371955
1.000000 0.652842 0.371955
1.000000 0.652842 0.371955
0.070084 0.590149 0.358801
0.070084 0.590149 0.358801
0.070084 0.590149 0.358801
0.070084 0.590149 0.358801
0.070091 0.591708 0.349068
0.070096 0.593720 0.337137
0.070102 0.596482 0.321200
0.070110 0.599941 0.301050
0.070126 0.604329 0.273939
0.070163 0.610051 0.233363
0.070258 0.616829 0.167824
0.107509 0.626374 0.070099
0.294766 0.639746 0.066119
0.420006 0.645334 0.059217
0.519636 0.649303 0.046232
0.605874 0.651086 0.034029
0.682572 0.651621 0.022475
0.752225 0.651362 0.011446
0.815532 0.650571 0.001002
0.870118 0.649311 0.000000
0.918533 0.648232 0.000000
0.961790 0.647332 0.000000
1.000000 0.646778 0.002988
1.000000 0.659389 0.171277
1.000000 0.670983 0.260958
1.000000 0.681632 0.322237
1.000000 0.691365 0.368513
1.000000 0.700229 0.405224
1.000000 0.702211 0.412875
1.000000 0.702211 0.412875
1.000000 0.702211 0.412875
1.000000 0.702211 0.412875
1.000000 0.702211 0.412875
0.068428 0.643412 0.387540
0.068428 0.643412 0.387540
0.068428 0.643412 0.387540
0.068428 0.643412 0.387540
0.068442 0.644880 0.378143
0.068455 0.646777 0.366576
0.068470 0.649387 0.351138
0.068488 0.652662 0.331785
0.068518 0.656833 0.306164
0.068582 0.662324 0.268882
0.068734 0.669045 0.212275
0.069175 0.676297 0.105840
0.247483 0.692439 0.064415
0.391353 0.702019 0.049387
0.499863 0.706580 0.033610
0.591501 0.708463 0.019276
0.671908 0.708938 0.005982
0.743225 0.707851 0.000000
0.805534 0.706243 0.000000
0.860862 0.704928 0.000000
0.910049 0.703849 0.000000
0.953887 0.702960 0.000000
0.993080 0.702221 0.000000
1.000000 0.710510 0.181026
1.000000 0.720376 0.289672
1.000000 0.729633 0.359221
1.000000 0.738222 0.410021
1.000000 0.746129 0.449468
1.000000 0.747906 0.457607
1.000000 0.747906 0.457607
1.000000 0.747906 0.457607
1.000000 0.747906 0.457607
1.000000 0.747906 0.457607
0.065909 0.692580 0.413545
0.065909 0.692580 0.413545
0.065909 0.692580 0.413545
0.065909 0.692580 0.413545
0.065930 0.693974 0.404456
0.065951 0.695781 0.393200
0.065974 0.698268 0.378172
0.066002 0.701395 0.359429
0.066044 0.705388 0.334888
0.066126 0.710676 0.299860
0.066306 0.717257 0.248603
0.066786 0.724923 0.160942
0.184751 0.739460 0.063409
0.357620 0.754625 0.040299
0.476500 0.760034 0.021427
0.574057 0.762088 0.004879
0.658196 0.760668 0.000000
0.731277 0.758597 0.000000
0.795186 0.756921 0.000000
0.851671 0.755556 0.000000
0.901715 0.754445 0.000000
0.946202 0.753534 0.000000
0.985897 0.752783 0.000000
1.000000 0.757435 0.188229
1.000000 0.765552 0.321934
1.000000 0.773502 0.400458
1.000000 0.781062 0.455644
1.000000 0.788130 0.497522
1.000000 0.789731 0.506070
1.000000 0.789731 0.506070
1.000000 0.789731 0.506070
1.000000 0.789731 0.506070
1.000000 0.789731 0.506070
0.062781 0.737779 0.437046
0.062781 0.737779 0.437046
0.062781 0.737779 0.437046
0.062781 0.737779 0.437046
0.062808 0.739115 0.428220
0.062836 0.740848 0.417232
0.062869 0.743238 0.402545
0.062906 0.746244 0.384286
0.062960 0.750091 0.360562
0.063055 0.755204 0.327162
0.063251 0.761630 0.279485
0.063725 0.769417 0.203144
0.091163 0.778958 0.063964
0.319136 0.803023 0.032371
0.450255 0.809624 0.010003
0.555429 0.809614 0.000000
0.643658 0.806940 0.000000
0.719196 0.804767 0.000000
0.784810 0.803008 0.000000
0.842532 0.801578 0.000000
0.893495 0.800416 0.000000
0.938681 0.799466 0.000000
0.978918 0.798686 0.000000
1.000000 0.800399 0.190513
1.000000 0.806567 0.358862
1.000000 0.813253 0.446602
1.000000 0.819880 0.505628
1.000000 0.826213 0.549359
1.000000 0.827660 0.558190
1.000000 0.827660 0.558190
1.000000 0.827660 0.558190
1.000000 0.827660 0.558190
1.000000 0.827660 0.558190
0.052599 0.782721 0.457239
0.052599 0.782721 0.457239
0.052599 0.782721 0.457239
0.052599 0.782721 0.457239
0.052691 0.784000 0.448527
0.052790 0.785666 0.437632
0.052906 0.787972 0.423051
0.053040 0.790878 0.404965
0.053220 0.794598 0.381604
0.053525 0.799530 0.349075
0.054112 0.805692 0.303549
0.055448 0.813075 0.233787
0.059612 0.819616 0.098248
0.275942 0.847057 0.025980
0.421942 0.855165 0.000000
0.536791 0.851714 0.000000
0.628988 0.848920 0.000000
0.707095 0.846644 0.000000
0.774487 0.844798 0.000000
0.833493 0.843297 0.000000
0.885413 0.842075 0.000000
0.931329 0.841078 0.000000
0.972134 0.840259 0.000000
1.000000 0.839713 0.181630
1.000000 0.843451 0.402124
1.000000 0.848908 0.498323
1.000000 0.854701 0.560081
1.000000 0.860407 0.604785
1.000000 0.861726 0.613726
1.000000 0.861726 0.613726
1.000000 0.861726 0.613726
1.000000 0.861726 0.613726
1.000000 0.861726 0.613726
0.042186 0.824058 0.475316
0.042186 0.824058 0.475316
0.042186 0.824058 0.475316
0.042186 0.824058 0.475316
0.042288 0.825313 0.466694
0.042400 0.826952 0.455871
0.042533 0.829218 0.441366
0.042685 0.832079 0.423393
0.042885 0.835745 0.400268
0.043205 0.840623 0.368308
0.043791 0.846760 0.324152
0.045053 0.854269 0.258226
0.048577 0.861992 0.140785
0.227391 0.886619 0.021520
0.395423 0.893436 0.000000
0.517963 0.889861 0.000000
0.614325 0.886956 0.000000
0.695085 0.884581 0.000000
0.764294 0.882650 0.000000
0.824610 0.881076 0.000000
0.877504 0.879793 0.000000
0.924163 0.878745 0.000000
0.965549 0.877883 0.000000
1.000000 0.876215 0.128300
1.000000 0.876283 0.454002
1.000000 0.880590 0.556224
1.000000 0.885680 0.618974
1.000000 0.890876 0.663502
1.000000 0.892093 0.672335
1.000000 0.892093 0.672335
1.000000 0.892093 0.672335
1.000000 0.892093 0.672335
1.000000 0.892093 0.672335
0.031875 0.861833 0.491455
0.031875 0.861833 0.491455
0.031875 0.861833 0.491455
0.031875 0.861833 0.491455
0.031986 0.863069 0.482912
0.032110 0.864683 0.472156
0.032258 0.866919 0.457717
0.032428 0.869741 0.439835
0.032645 0.873362 0.416896
0.032980 0.878190 0.385371
0.033568 0.884296 0.342244
0.034777 0.891870 0.279043
0.037852 0.900275 0.173302
0.171625 0.921305 0.019593
0.368212 0.927975 0.000000
0.499164 0.924289 0.000000
0.599852 0.921280 0.000000
0.683304 0.918813 0.000000
0.754339 0.916801 0.000000
0.815968 0.915157 0.000000
0.869835 0.913815 0.000000
0.917237 0.912715 0.000000
0.959202 0.911810 0.000000
0.996385 0.911064 0.000000
1.000000 0.905011 0.516625
1.000000 0.908368 0.620249
1.000000 0.912927 0.681735
1.000000 0.917751 0.724779
1.000000 0.918893 0.733275
1.000000 0.918893 0.733275
1.000000 0.918893 0.733275
1.000000 0.918893 0.733275
1.000000 0.918893 0.733275
0.021827 0.896311 0.505883
0.021827 0.896311 0.505883
0.021827 0.896311 0.505883
0.021827 0.896311 0.505883
0.021945 0.897531 0.497409
0.022080 0.899125 0.486711
0.022241 0.901334 0.472331
0.022426 0.904124 0.454527
0.022660 0.907707 0.431734
0.023010 0.912492 0.400551
0.023602 0.918567 0.358216
0.024773 0.926171 0.297042
0.027570 0.934957 0.198617
0.102175 0.950078 0.021618
0.340354 0.959151 0.000000
0.480523 0.955365 0.000000
0.585670 0.952264 0.000000
0.671833 0.949712 0.000000
0.744686 0.947625 0.000000
0.807612 0.945915 0.000000
0.862440 0.944515 0.000000
0.910575 0.943366 0.000000
0.953112 0.942419 0.000000
0.990748 0.941637 0.000000
1.000000 0.929711 0.591028
1.000000 0.932477 0.689802
1.000000 0.936719 0.747609
1.000000 0.941320 0.787878
1.000000 0.942416 0.795814
1.000000 0.942416 0.795814
1.000000 0.942416 0.795814
1.000000 0.942416 0.795814
1.000000 0.942416 0.795814
0.012179 0.927662 0.518757
0.012179 0.927662 0.518757
0.012179 0.927662 0.518757
0.012179 0.927662 0.518757
0.012304 0.928869 0.510345
0.012448 0.930445 0.499700
0.012622 0.932632 0.485372
0.012820 0.935395 0.467633
0.013069 0.938945 0.444960
0.013434 0.943692 0.414048
0.014030 0.949736 0.372338
0.015174 0.957352 0.312716
0.017780 0.966372 0.219338
0.026133 0.973338 0.028424
0.311920 0.987219 0.000000
0.462200 0.983344 0.000000
0.571906 0.980160 0.000000
0.660770 0.977532 0.000000
0.735411 0.975377 0.000000
0.799605 0.973605 0.000000
0.855370 0.972153 0.000000
0.904217 0.970958 0.000000
0.947311 0.969970 0.000000
0.985387 0.969154 0.000000
1.000000 0.950493 0.675311
1.000000 0.953141 0.763268
1.000000 0.957299 0.815296
1.000000 0.961827 0.851705
1.000000 0.962907 0.858895
1.000000 0.962907 0.858895
1.000000 0.962907 0.858895
1.000000 0.962907 0.858895
1.000000 0.962907 0.858895
0.003026 0.956080 0.530234
0.003026 0.956080 0.530234
0.003026 0.956080 0.530234
0.003026 0.956080 0.530234
0.003157 0.957275 0.521875
0.003308 0.958838 0.511277
0.003493 0.961004 0.496995
0.003704 0.963744 0.479312
0.003966 0.967266 0.456738
0.004344 0.971982 0.426044
0.004947 0.977996 0.384833
0.006070 0.985614 0.326430
0.011935 0.995138 0.237422
0.253563 1.000000 0.199135
0.391334 1.000000 0.165082
0.496869 1.000000 0.129841
0.584673 1.000000 0.091199
0.660847 1.000000 0.047975
0.727719 1.000000 0.006476
0.791994 0.998486 0.000000
0.848661 0.996984 0.000000
0.898195 0.995746 0.000000
0.941823 0.994722 0.000000
0.980323 0.993872 0.000000
1.000000 0.967682 0.765022
1.000000 0.970666 0.838498
1.000000 0.974962 0.883330
1.000000 0.979555 0.915126
1.000000 0.980645 0.921441
1.000000 0.980645 0.921441
1.000000 0.980645 0.921441
1.000000 0.980645 0.921441
1.000000 0.980645 0.921441
0.000000 0.978778 0.541288
0.000000 0.978778 0.541288
0.000000 0.978778 0.541288
0.000000 0.978778 0.541288
0.000000 0.980022 0.533025
0.000000 0.981641 0.522529
0.000000 0.983876 0.508366
0.000000 0.986692 0.490820
0.000000 0.990311 0.468424
0.000000 0.995178 0.438006
0.037247 1.000000 0.403787
0.198080 1.000000 0.388088
0.316755 1.000000 0.371704
0.425356 1.000000 0.355755
0.518775 1.000000 0.343269
0.600357 1.000000 0.334645
0.672439 1.000000 0.329860
0.737024 1.000000 0.328836
0.794724 1.000000 0.331602
0.846327 1.000000 0.338248
0.892236 1.000000 0.348960
0.932910 1.000000 0.364103
0.968758 1.000000 0.384342
1.000000 0.983125 0.716778
1.000000 0.981770 0.855287
