luts/FLog2C_to_WDR-709_33grid_V.1.10.cube
#title:FLog2C_to_WDR
#FUJIFILM Corporation
#Gamma:F-Log2C to Wide Dynamic Range curve
#Gamut:F-GamutC to ITU-R BT.709
#Version:1.10
LUT_3D_SIZE 5
0.000000 0.000000 0.000000
0.149756 0.018427 0.029576
0.596434 0.058982 0.095235
0.902725 0.216552 0.180333
0.932539 0.309956 0.241084
0.031069 0.138671 0.076591
0.161978 0.163379 0.044921
0.667865 0.115460 0.065453
0.925895 0.294865 0.188679
0.953409 0.365583 0.251108
0.070084 0.590149 0.358801
0.070126 0.604329 0.273939
0.682572 0.651621 0.022475
1.000000 0.670983 0.260958
1.000000 0.702211 0.412875
0.012179 0.927662 0.518757
0.013069 0.938945 0.444960
0.571906 0.980160 0.000000
1.000000 0.950493 0.675311
1.000000 0.962907 0.858895
0.071168 1.000000 0.562335
0.253243 1.000000 0.531829
0.755854 1.000000 0.509502
1.000000 0.996200 0.966891
1.000000 1.000000 0.999928
0.000000 0.000000 0.000000
0.127410 0.018646 0.093204
0.592079 0.061001 0.218327
0.904505 0.198120 0.304882
0.934617 0.297138 0.349100
0.031670 0.132740 0.122432
0.156583 0.156583 0.156583
0.670546 0.089519 0.208074
0.923654 0.288827 0.320861
0.957064 0.353657 0.359962
0.069927 0.586921 0.416512
0.101101 0.602048 0.384726
0.653412 0.658659 0.062045
0.992891 0.666850 0.388929
1.000000 0.696226 0.489323
0.008592 0.924236 0.599057
0.037501 0.937519 0.559118
0.441562 0.995988 0.179762
0.987682 0.976563 0.073098
0.999256 0.962934 0.852531
0.000000 0.997136 0.638868
0.169058 1.000000 0.614914
0.725572 1.000000 0.615323
1.000000 0.998302 0.937275
1.000000 1.000000 0.999928
0.000000 0.000000 0.000000
0.005944 0.000956 0.006333
0.532675 0.061892 0.427440
0.875686 0.070527 0.544906
0.927791 0.226937 0.574957
0.019353 0.032267 0.326346
0.152680 0.039915 0.381498
0.608271 0.086097 0.490729
0.915443 0.210987 0.577108
0.952829 0.297467 0.594438
0.069829 0.568825 0.532759
0.092603 0.581724 0.548622
0.627717 0.627717 0.627717
0.991803 0.633588 0.670718
1.000000 0.667826 0.697666
0.005215 0.908969 0.735686
0.041279 0.918696 0.734803
0.182528 0.994704 0.631856
0.945475 0.966166 0.563772
1.000000 0.955609 0.852961
0.000000 0.980529 0.778340
0.000000 0.988848 0.773355
0.628858 1.000000 0.790878
0.975864 1.000000 0.922745
1.000000 1.000000 0.999928
0.000000 0.000000 0.000000
0.000000 0.000000 0.000000
0.472602 0.060005 0.475161
0.823421 0.070499 0.662403
0.901296 0.111945 0.695392
0.058540 0.011296 0.105370
0.141166 0.026989 0.234295
0.546541 0.072822 0.569108
0.880354 0.093093 0.709369
0.935447 0.226838 0.728048
0.069931 0.544047 0.636247
0.089516 0.554954 0.670421
0.615486 0.568352 0.973695
0.991401 0.594140 0.864574
1.000000 0.636006 0.845921
0.005084 0.891280 0.829004
0.031928 0.900271 0.840149
0.134528 0.965651 0.920915
0.932186 0.932186 0.932186
1.000000 0.937667 0.944061
0.000000 0.963877 0.869382
0.000000 0.971329 0.876427
0.507730 1.000000 0.918839
0.932920 1.000000 0.958895
1.000000 1.000000 0.999928
0.000000 0.000000 0.000000
0.000000 0.000000 0.000000
0.458217 0.059327 0.476040
0.810208 0.070473 0.681140
0.890365 0.073987 0.716243
0.025684 0.004331 0.031909
0.123629 0.022738 0.196913
0.533429 0.064170 0.577110
0.867684 0.070558 0.732076
0.930629 0.202760 0.755001
0.069975 0.536429 0.664441
0.069576 0.545991 0.703974
0.617640 0.558372 0.999607
1.000000 0.577466 0.914092
1.000000 0.627337 0.879101
0.005232 0.886275 0.852254
0.001610 0.895493 0.866036
0.000000 0.961300 0.988317
0.931418 0.922550 1.000000
1.000000 0.931867 0.974799
0.000000 0.959304 0.891725
0.000000 0.966575 0.900946
0.463188 1.000000 0.958193
0.912055 1.000000 0.992037
1.000000 1.000000 0.999928
