luts/GFX100II_FLog2C_FGamutC_to_ETERNA-BB_BT.709_33grid_V.1.00.cube
#title:FLog2C_FGamutC_to_ETERNA-BB_BT.709
#FUJIFILM Corporation
#Gamma:F-Log2C to ETERNA BLEACH BYPASS
#Gamut:F-GamutC to ITU-R BT.709
#Version:1.00
LUT_3D_SIZE 5
0.000000 0.000000 0.000000
0.339532 0.065291 0.058230
0.812518 0.410521 0.372355
0.812518 0.410521 0.372355
0.812518 0.410521 0.372355
0.000427 0.182605 0.035187
0.109395 0.105196 0.010909
0.757678 0.316266 0.256246
0.812518 0.410521 0.372355
0.812518 0.410521 0.372355
0.136056 0.891105 0.331609
0.000303 0.758964 0.237311
0.810856 0.771652 0.316132
0.914336 0.685513 0.411172
0.877294 0.560684 0.405813
0.237514 0.898462 0.353144
0.235168 0.898182 0.352167
0.545988 0.935482 0.389977
0.944415 0.967614 0.344551
0.944262 0.921662 0.316007
0.343051 0.913185 0.505937
0.245920 0.898938 0.354345
0.301049 0.903361 0.358302
0.844497 0.969072 0.419220
0.945180 0.978863 0.387418
0.003121 0.000532 0.040468
0.271710 0.046155 0.051962
0.812518 0.410521 0.372355
0.812518 0.410521 0.372355
0.812518 0.410521 0.372355
0.049226 0.238204 0.229118
0.116211 0.116211 0.116211
0.747529 0.295836 0.251003
0.812518 0.410521 0.372355
0.812518 0.410521 0.372355
0.260327 0.912146 0.651160
0.000000 0.808981 0.453687
0.790682 0.792926 0.430840
0.931311 0.718734 0.452582
0.887827 0.591109 0.409992
0.373516 0.922578 0.668925
0.326439 0.911275 0.473676
0.486953 0.927488 0.380382
0.948503 0.975413 0.413598
0.947956 0.932144 0.380840
0.415125 0.934413 0.815808
0.378197 0.927074 0.710593
0.379797 0.918311 0.537360
0.813216 0.967110 0.417129
0.945180 0.978863 0.387418
0.049593 0.010675 0.346075
0.260363 0.017448 0.238097
0.835352 0.440863 0.464616
0.817592 0.418049 0.388821
0.812518 0.410521 0.372355
0.175280 0.219761 0.618812
0.164063 0.108275 0.451320
0.757879 0.258849 0.517102
0.832423 0.434237 0.480723
0.824618 0.427192 0.408968
0.334413 0.892209 0.825062
0.228312 0.833687 0.762202
0.807617 0.807617 0.807617
0.971713 0.749755 0.709426
0.927645 0.637963 0.569707
0.453824 0.938803 0.863027
0.414933 0.931768 0.804227
0.551003 0.945126 0.755481
0.972091 0.985319 0.771871
0.964722 0.936653 0.664875
0.459885 0.938664 0.864980
0.459885 0.938664 0.864980
0.425484 0.935498 0.825883
0.844811 0.976719 0.850172
0.960383 0.983442 0.649489
0.135561 0.013889 0.677996
0.372113 0.032281 0.656731
0.800435 0.316745 0.612788
0.817199 0.391828 0.533425
0.834376 0.438879 0.468832
0.150027 0.014225 0.681148
0.188737 0.014006 0.692113
0.724523 0.119537 0.765109
0.794778 0.298502 0.635903
0.813886 0.374873 0.552323
0.369658 0.829417 0.824652
0.342279 0.617795 0.761145
0.730719 0.635552 0.884464
0.957678 0.666796 0.882149
0.924322 0.596044 0.777140
0.459885 0.938664 0.864980
0.459885 0.938664 0.864980
0.559582 0.948728 0.885762
0.970703 0.970703 0.970703
0.989709 0.930016 0.924770
0.459885 0.938664 0.864980
0.459885 0.938664 0.864980
0.459885 0.938664 0.864980
0.815274 0.976228 0.947301
0.992188 0.997901 0.962769
0.136931 0.013191 0.677996
0.302315 0.023101 0.707172
0.744850 0.126743 0.768930
0.748344 0.172460 0.687116
0.794576 0.308197 0.620774
0.150027 0.014225 0.681148
0.157457 0.013726 0.681371
0.643793 0.099996 0.777652
0.743480 0.127440 0.768930
0.730794 0.114503 0.697484
0.381357 0.864807 0.834468
0.351250 0.643249 0.769317
0.492134 0.274448 0.748301
0.744448 0.133698 0.802699
0.798895 0.249455 0.817687
0.459885 0.938664 0.864980
0.459885 0.938664 0.864980
0.529672 0.947077 0.878481
0.937873 0.951094 0.977882
0.990160 0.846575 0.984875
0.459885 0.938664 0.864980
0.459885 0.938664 0.864980
0.459885 0.938664 0.864980
0.781065 0.972345 0.937089
1.000000 1.000000 1.000000
