luts/GFX100II_FLog2C_FGamutC_to_ETERNA_BT.709_33grid_V.1.00.cube
#title:FLog2C_FGamutC_to_ETERNA_BT.709
#FUJIFILM Corporation
#Gamma:F-Log2C to ETERNA
#Gamut:F-GamutC to ITU-R BT.709
#Version:1.00
LUT_3D_SIZE 9
0.006836 0.006836 0.006836
0.128047 0.010439 0.013019
0.468758 0.073061 0.056207
0.999614 0.228350 0.142925
1.000000 0.361406 0.313262
1.000000 0.361406 0.313262
1.000000 0.361406 0.313262
1.000000 0.361406 0.313262
1.000000 0.361406 0.313262
0.000000 0.078683 0.000000
0.043774 0.023008 0.006578
0.285410 0.032555 0.026091
0.810627 0.149290 0.120519
1.000000 0.361406 0.313262
1.000000 0.361406 0.313262
1.000000 0.361406 0.313262
1.000000 0.361406 0.313262
1.000000 0.361406 0.313262
0.000751 0.268986 0.000731
0.000000 0.200017 0.000000
0.182465 0.166576 0.000062
0.593203 0.185278 0.051457
1.000000 0.302638 0.161136
1.000000 0.361406 0.313262
1.000000 0.361406 0.313262
1.000000 0.361406 0.313262
1.000000 0.361406 0.313262
0.000000 0.650682 0.000000
0.000000 0.519356 0.000126
0.000242 0.410667 0.000676
0.433911 0.371270 0.000000
0.940413 0.439870 0.022851
0.999398 0.467552 0.231019
0.998843 0.422506 0.267394
1.000000 0.388101 0.295785
1.000000 0.361406 0.313262
0.000000 0.976691 0.000457
0.000000 0.900017 0.000526
0.000000 0.807016 0.000000
0.096756 0.724173 0.000720
0.766787 0.694140 0.000000
0.983052 0.653954 0.000000
0.991709 0.589760 0.000000
0.998967 0.531691 0.150321
0.999782 0.479562 0.219575
0.000000 0.981688 0.000000
0.000000 0.981688 0.000000
0.000000 0.981688 0.000000
0.000349 0.984674 0.000148
0.562659 0.949390 0.000519
0.944140 0.896832 0.000000
0.963779 0.791721 0.000176
0.972434 0.727526 0.000000
0.982068 0.664309 0.000059
0.000000 0.981688 0.000000
0.000000 0.981688 0.000000
0.000000 0.981688 0.000000
0.000000 0.981688 0.000000
0.000000 0.988359 0.000372
0.739161 0.999432 0.000000
0.932543 0.969092 0.000000
0.941775 0.919551 0.000000
0.950812 0.865014 0.000000
0.000000 0.981688 0.000000
0.000000 0.981688 0.000000
0.000000 0.981688 0.000000
0.000000 0.981688 0.000000
0.000000 0.983697 0.000000
0.381388 0.991791 0.000641
0.852751 0.999884 0.000000
0.927239 0.999877 0.000754
0.924892 0.999597 0.000000
0.000000 0.983361 0.000902
0.000000 0.981688 0.000000
0.000000 0.981688 0.000000
0.000000 0.981688 0.000000
0.000000 0.983361 0.000902
0.000000 0.988359 0.000372
0.678162 0.998801 0.000000
0.927239 0.999877 0.000754
0.927239 0.999877 0.000754
0.007419 0.007134 0.020902
0.114557 0.010407 0.014305
0.428497 0.056306 0.051050
0.987895 0.214278 0.143320
1.000000 0.361406 0.313262
1.000000 0.361406 0.313262
1.000000 0.361406 0.313262
1.000000 0.361406 0.313262
1.000000 0.361406 0.313262
0.000000 0.075570 0.065603
0.029297 0.029297 0.029297
0.258631 0.026828 0.023023
0.763914 0.134685 0.112656
1.000000 0.361406 0.313262
1.000000 0.361406 0.313262
1.000000 0.361406 0.313262
1.000000 0.361406 0.313262
1.000000 0.361406 0.313262
0.000000 0.285250 0.056157
0.000800 0.208970 0.009812
0.166427 0.172934 0.000816
0.552339 0.190887 0.035523
0.999756 0.295378 0.122930
1.000000 0.361406 0.313262
1.000000 0.361406 0.313262
1.000000 0.361406 0.313262
1.000000 0.361406 0.313262
0.000209 0.683673 0.000000
0.000000 0.549361 0.000398
0.000031 0.429005 0.001034
0.402232 0.382314 0.000364
0.905217 0.449031 0.000000
0.999782 0.479562 0.219575
0.999227 0.433172 0.262871
1.000000 0.394442 0.288333
0.999669 0.363416 0.312507
0.000000 0.981688 0.000000
0.000000 0.915368 0.000664
0.000000 0.824041 0.000597
0.000553 0.739999 0.000223
0.731784 0.703592 0.000215
0.980105 0.673687 0.000000
0.988569 0.604496 0.000000
0.998374 0.546085 0.120593
0.999189 0.490931 0.205422
0.000000 0.981688 0.000000
0.000000 0.981688 0.000000
0.000000 0.981688 0.000000
0.000000 0.983361 0.000902
0.513771 0.961155 0.000000
0.940998 0.911568 0.000000
0.962792 0.802411 0.000000
0.971640 0.742878 0.000000
0.979903 0.680358 0.000196
0.000000 0.983361 0.000902
0.000000 0.981688 0.000000
0.000000 0.981688 0.000000
0.000000 0.981688 0.000000
0.000000 0.986685 0.000000
0.696344 0.999727 0.000000
0.929795 0.982154 0.000000
0.939418 0.930603 0.000000
0.949434 0.877379 0.000000
0.000000 0.976691 0.000457
0.000000 0.983361 0.000902
0.000000 0.983361 0.000902
0.000000 0.981688 0.000000
0.000000 0.983361 0.000902
0.334855 0.992168 0.000812
0.813648 0.999761 0.000000
0.927239 0.999877 0.000754
0.927239 0.999877 0.000754
0.000691 0.968746 0.372523
0.000000 0.975018 0.000000
0.000000 0.981688 0.000000
0.000000 0.983361 0.000902
0.000000 0.981688 0.000000
0.000000 0.987383 0.000000
0.648836 0.998791 0.000000
0.927239 0.999877 0.000754
0.927239 0.999877 0.000754
0.007792 0.003589 0.149539
0.107309 0.007071 0.119025
0.396242 0.044293 0.094706
0.952326 0.198417 0.138386
1.000000 0.361406 0.313262
1.000000 0.361406 0.313262
1.000000 0.361406 0.313262
1.000000 0.361406 0.313262
1.000000 0.361406 0.313262
0.000000 0.064340 0.208613
0.020296 0.010952 0.164496
0.251192 0.010093 0.171535
0.730682 0.115982 0.184754
0.999878 0.347430 0.300035
1.000000 0.361406 0.313262
1.000000 0.361406 0.313262
1.000000 0.361406 0.313262
1.000000 0.361406 0.313262
0.000090 0.304559 0.281887
0.000000 0.218031 0.197113
0.173828 0.173828 0.173828
0.541175 0.182205 0.203738
0.999163 0.284231 0.224718
0.999669 0.363416 0.312507
1.000000 0.361406 0.313262
1.000000 0.361406 0.313262
1.000000 0.361406 0.313262
0.000523 0.708459 0.342597
0.000058 0.589327 0.220543
0.000000 0.460112 0.150403
0.400822 0.399097 0.157491
0.885446 0.444862 0.175578
0.999561 0.492091 0.309832
1.000000 0.444807 0.268952
0.999638 0.404130 0.282831
0.999467 0.371431 0.306031
0.000000 0.968283 0.268114
0.000000 0.920136 0.136891
0.000000 0.841682 0.000958
0.000000 0.760347 0.000000
0.714177 0.717654 0.000000
0.985743 0.685017 0.132208
0.995758 0.615326 0.216367
0.998746 0.557663 0.171360
0.999571 0.503612 0.190516
0.000549 0.977668 0.001434
0.000000 0.978702 0.000000
0.000000 0.983361 0.000902
0.000000 0.983361 0.000902
0.468409 0.967505 0.000246
0.915186 0.917812 0.000910
0.961221 0.809779 0.000000
0.969283 0.753930 0.000434
0.979500 0.694034 0.000000
0.000510 0.972583 0.267582
0.000000 0.976691 0.000457
0.000000 0.981688 0.000000
0.000000 0.983361 0.000902
0.000000 0.986685 0.000000
0.656266 0.998292 0.000056
0.923724 0.993625 0.000000
0.936872 0.936995 0.000000
0.944733 0.888152 0.000000
0.000471 0.967159 0.535461
0.000499 0.971142 0.334984
0.000000 0.975715 0.000000
0.000000 0.983361 0.000902
0.000000 0.983697 0.000000
0.286372 0.990256 0.000761
0.785691 0.999055 0.000000
0.927239 0.999877 0.000754
0.927239 0.999877 0.000754
0.000643 0.963228 0.700883
0.000000 0.965797 0.571269
0.000000 0.970071 0.394489
0.000348 0.974592 0.052063
0.000000 0.980375 0.000679
0.000000 0.988359 0.000372
0.619510 0.998782 0.000000
0.927239 0.999877 0.000754
0.927239 0.999877 0.000754
0.014025 0.002879 0.299609
0.104551 0.006931 0.246907
0.383145 0.010324 0.261141
0.925154 0.161764 0.304153
0.999073 0.365039 0.348539
1.000000 0.361406 0.313262
1.000000 0.361406 0.313262
1.000000 0.361406 0.313262
1.000000 0.361406 0.313262
0.014388 0.010329 0.431621
0.014217 0.003843 0.319844
0.259579 0.006682 0.312732
0.712138 0.046440 0.368750
0.999868 0.337925 0.408968
0.999659 0.365337 0.362607
1.000000 0.361406 0.313262
1.000000 0.361406 0.313262
1.000000 0.361406 0.313262
0.000232 0.310423 0.576836
0.000723 0.217954 0.443473
0.183775 0.165306 0.362945
0.543703 0.165205 0.378875
0.998961 0.249565 0.438011
0.999628 0.385887 0.436758
0.999850 0.367644 0.375918
0.999669 0.362408 0.317699
1.000000 0.361406 0.313262
0.000273 0.712973 0.654097
0.000180 0.610124 0.558581
0.000000 0.489642 0.453078
0.415039 0.415039 0.415039
0.878570 0.432269 0.438351
1.000000 0.509820 0.474106
0.999762 0.464585 0.416676
0.999419 0.417668 0.367899
0.999457 0.380073 0.321520
0.000000 0.943375 0.626731
0.000126 0.903777 0.571476
0.000387 0.842898 0.490214
0.000000 0.772349 0.427543
0.711953 0.723049 0.414616
0.998398 0.688259 0.433546
0.998648 0.625268 0.423147
1.000000 0.569982 0.369487
1.000000 0.515723 0.323727
0.000000 0.968295 0.463622
0.000489 0.969031 0.405847
0.000000 0.969487 0.347097
0.000308 0.973204 0.299175
0.455272 0.957688 0.282277
0.900680 0.914069 0.255255
0.977391 0.810534 0.347312
0.982917 0.757475 0.306211
0.988251 0.700762 0.258719
0.000000 0.964655 0.652738
0.000280 0.967541 0.508306
0.000701 0.971529 0.298198
0.000000 0.976691 0.000457
0.000000 0.983361 0.000902
0.615212 0.995879 0.000226
0.923916 0.998621 0.000000
0.936087 0.940679 0.000000
0.948056 0.889743 0.000000
0.000000 0.961440 0.789274
0.001035 0.964578 0.684332
0.000078 0.966818 0.546820
0.000691 0.970426 0.363872
0.000000 0.978956 0.039195
0.298886 0.988976 0.000230
0.758711 0.999326 0.000157
0.927239 0.999877 0.000754
0.927239 0.999877 0.000754
0.000230 0.959670 0.848777
0.000039 0.961396 0.814699
0.000249 0.962550 0.713972
0.000000 0.966761 0.591504
0.000000 0.969355 0.423375
0.075774 0.980221 0.270700
0.613259 0.993590 0.000005
0.927239 0.999877 0.000754
0.927239 0.999877 0.000754
0.021024 0.000000 0.561767
0.111558 0.003450 0.452043
0.397975 0.010718 0.434375
0.905441 0.082216 0.508469
0.999045 0.375507 0.474605
0.999447 0.373257 0.416610
0.999073 0.364366 0.352000
1.000000 0.361406 0.313262
1.000000 0.361406 0.313262
0.023731 0.000647 0.731093
0.019845 0.000000 0.590652
0.278506 0.006906 0.536063
0.705482 0.013922 0.579336
0.999899 0.276374 0.545934
0.999830 0.369471 0.486495
0.999638 0.374892 0.433382
0.999265 0.366003 0.368773
1.000000 0.361406 0.313262
0.000424 0.262657 0.847989
0.000119 0.181170 0.737259
0.206246 0.125353 0.646792
0.562861 0.117034 0.636628
1.000000 0.194139 0.685024
0.999429 0.368697 0.560067
0.999830 0.367118 0.498609
0.999830 0.376528 0.450157
0.999065 0.369648 0.384792
0.000072 0.677970 0.869121
0.000150 0.596060 0.810973
0.000057 0.489850 0.732763
0.436695 0.412764 0.704044
0.878158 0.404178 0.712571
1.000000 0.512565 0.630343
0.999139 0.478356 0.570121
1.000000 0.443418 0.516067
1.000000 0.401841 0.455398
0.000000 0.898392 0.823559
0.000711 0.864418 0.789737
0.000559 0.821491 0.745621
0.000024 0.766553 0.712949
0.714844 0.714844 0.714844
0.999537 0.680838 0.682922
1.000000 0.636917 0.624738
0.999051 0.585378 0.558965
0.999886 0.535792 0.495144
0.001025 0.963475 0.750004
0.000000 0.962588 0.698175
0.000000 0.962633 0.672750
0.000653 0.962651 0.643864
0.429229 0.934694 0.648880
0.888902 0.895058 0.641027
0.995534 0.804359 0.622781
0.999297 0.757031 0.565351
0.999547 0.704459 0.501309
0.000000 0.961681 0.848024
0.000240 0.962454 0.774452
0.000451 0.965289 0.665074
0.000000 0.967864 0.525833
0.000000 0.974300 0.457898
0.628039 0.988465 0.501598
0.956889 0.993512 0.444043
0.966130 0.932640 0.441988
0.969500 0.884633 0.397647
0.000230 0.959670 0.848777
0.000230 0.959670 0.848777
0.000432 0.962410 0.799879
0.000643 0.964237 0.695691
0.000000 0.969113 0.579391
0.397739 0.980980 0.493137
0.762569 0.995699 0.342806
0.934668 0.999712 0.000000
0.927239 0.999877 0.000754
0.000230 0.959670 0.848777
0.000230 0.959670 0.848777
0.000230 0.959670 0.848777
0.000000 0.961725 0.822597
0.000000 0.962543 0.723602
0.000000 0.973342 0.642800
0.654808 0.987713 0.598023
0.950829 0.999700 0.410941
0.934668 0.999712 0.000000
0.027428 0.000038 0.853032
0.116403 0.000000 0.742111
0.436644 0.007430 0.701106
0.893924 0.013752 0.754145
1.000000 0.328616 0.602079
1.000000 0.353054 0.536235
0.999439 0.372825 0.478821
0.999055 0.374258 0.421047
0.999659 0.366345 0.357415
0.036398 0.000285 0.990988
0.033679 0.000000 0.880410
0.312676 0.003349 0.824534
0.734769 0.010862 0.835238
0.999564 0.168388 0.751620
0.999850 0.319922 0.621645
1.000000 0.348356 0.550832
0.999830 0.368463 0.491687
1.000000 0.376871 0.438797
0.029715 0.041754 1.000000
0.036005 0.000280 1.000000
0.209626 0.000146 0.939980
0.580700 0.006520 0.919040
0.999068 0.023429 0.942524
1.000000 0.312441 0.710567
0.999659 0.311566 0.639482
1.000000 0.340335 0.566938
1.000000 0.363092 0.509746
0.000190 0.524521 0.939370
0.000000 0.481872 0.938206
0.000086 0.412840 0.949329
0.454112 0.346319 0.949102
0.875248 0.331200 0.950347
1.000000 0.440310 0.787630
1.000000 0.432435 0.708199
1.000000 0.406545 0.645937
0.999610 0.381328 0.580214
0.000156 0.809962 0.874566
0.000960 0.782272 0.877977
0.000000 0.754638 0.878680
0.000819 0.714234 0.903165
0.692948 0.674679 0.919126
0.999346 0.636187 0.887649
1.000000 0.621698 0.763090
1.000000 0.578777 0.709345
1.000000 0.538537 0.651383
0.000230 0.959670 0.848777
0.000230 0.960006 0.847047
0.000441 0.941669 0.846687
0.000270 0.915691 0.835278
0.369991 0.893378 0.845656
0.860352 0.860352 0.860352
0.999027 0.798995 0.804000
1.000000 0.756378 0.754692
0.999900 0.710133 0.702453
0.000230 0.959670 0.848777
0.000230 0.959670 0.848777
0.000000 0.961345 0.849754
0.000000 0.962112 0.785813
0.000049 0.967540 0.723071
0.595743 0.982458 0.754297
0.969363 0.979080 0.751191
0.988187 0.917359 0.728371
0.988036 0.875104 0.680793
0.000230 0.959670 0.848777
0.000230 0.959670 0.848777
0.000230 0.959670 0.848777
0.000230 0.959670 0.848777
0.001015 0.962372 0.815675
0.352537 0.974901 0.762917
0.779323 0.991038 0.734044
0.965265 1.000000 0.592074
0.960977 0.999295 0.523473
0.000230 0.959670 0.848777
0.000230 0.959670 0.848777
0.000230 0.959670 0.848777
0.000230 0.959670 0.848777
0.000230 0.959670 0.848777
0.001005 0.965974 0.857120
0.632098 0.982200 0.823035
0.951747 0.999769 0.776531
0.966434 0.999339 0.628859
0.036005 0.000280 1.000000
0.070808 0.000187 0.986910
0.478053 0.003082 0.966105
0.900146 0.010259 0.978539
0.999305 0.242373 0.765394
0.999083 0.288510 0.682604
1.000000 0.325598 0.608024
1.000000 0.351374 0.544887
0.999439 0.371817 0.484012
0.036005 0.000280 1.000000
0.036005 0.000280 1.000000
0.325945 0.000000 1.000000
0.754492 0.007160 0.999597
1.000000 0.014000 0.977887
0.999899 0.228988 0.789931
1.000000 0.278783 0.703902
0.999265 0.315928 0.626613
0.999840 0.343689 0.559261
0.036005 0.000280 1.000000
0.036005 0.000280 1.000000
0.177945 0.000000 0.999348
0.591442 0.003819 0.999001
0.987339 0.009935 0.999937
1.000000 0.203834 0.884660
1.000000 0.216947 0.807543
0.999094 0.268778 0.724223
0.999073 0.306898 0.647910
0.124927 0.276640 0.989113
0.125973 0.194265 0.999345
0.105867 0.156048 1.000000
0.412045 0.141847 0.998658
0.850175 0.144681 0.999954
1.000000 0.299676 0.981460
0.999791 0.341868 0.868587
0.999810 0.331641 0.801269
0.999438 0.323423 0.733199
0.000558 0.795613 0.878867
0.001039 0.683557 0.906353
0.000916 0.593193 0.926521
0.122931 0.566418 0.949958
0.642003 0.558358 1.000000
0.999615 0.526337 0.998555
1.000000 0.548479 0.900140
0.999453 0.516248 0.845332
0.999099 0.482344 0.789546
0.000230 0.959670 0.848777
0.000230 0.959670 0.848777
0.000000 0.900992 0.860566
0.000000 0.830646 0.872442
0.337987 0.809974 0.922176
0.807991 0.793655 0.989899
0.999822 0.760791 0.921535
0.999862 0.723531 0.873425
0.999900 0.685936 0.827046
0.000230 0.959670 0.848777
0.000230 0.959670 0.848777
0.000230 0.959670 0.848777
0.000230 0.959670 0.848777
0.000029 0.962981 0.866528
0.523390 0.968820 0.920062
0.942383 0.942383 0.942383
0.999515 0.899834 0.900269
0.999553 0.861230 0.859082
0.000230 0.959670 0.848777
0.000230 0.959670 0.848777
0.000230 0.959670 0.848777
0.000230 0.959670 0.848777
0.000000 0.960673 0.853214
0.252810 0.970937 0.890699
0.749775 0.986084 0.914148
0.987315 0.999835 0.862798
0.979894 1.000000 0.802094
0.000230 0.959670 0.848777
0.000230 0.959670 0.848777
0.000230 0.959670 0.848777
0.000230 0.959670 0.848777
0.000230 0.959670 0.848777
0.000614 0.964623 0.873673
0.581057 0.978183 0.926196
0.937642 0.995791 0.962496
0.987506 1.000000 0.886491
0.036005 0.000280 1.000000
0.036005 0.000280 1.000000
0.460646 0.003753 0.999737
0.895646 0.010327 0.998551
0.999853 0.014368 0.969988
1.000000 0.169516 0.862199
1.000000 0.237009 0.773823
0.999477 0.285156 0.690281
0.999457 0.322941 0.615700
0.036005 0.000280 1.000000
0.036005 0.000280 1.000000
0.259862 0.000000 0.999535
0.715391 0.007036 0.999992
1.000000 0.013651 0.998875
0.999461 0.013689 0.983077
1.000000 0.145498 0.885090
0.999313 0.224657 0.796628
0.999677 0.273781 0.714062
0.036005 0.000280 1.000000
0.036005 0.000280 1.000000
0.114209 0.000526 0.999829
0.483912 0.003564 0.999652
0.924972 0.010336 0.998688
1.000000 0.013651 0.998875
1.000000 0.013651 0.998875
1.000000 0.113775 0.909266
0.999717 0.206947 0.818234
0.089692 0.330117 0.977496
0.133480 0.100428 1.000000
0.036005 0.000280 1.000000
0.295249 0.000000 0.999894
0.728880 0.007070 0.998707
0.999461 0.010664 0.998651
1.000000 0.149639 0.999352
1.000000 0.182668 0.984051
0.998922 0.204823 0.908355
0.000000 0.816634 0.875012
0.001210 0.713232 0.898727
0.000150 0.572199 0.933837
0.212809 0.394682 0.981743
0.540952 0.295623 0.999508
0.931152 0.334869 0.998988
1.000000 0.387307 1.000000
0.999349 0.376673 0.998918
1.000000 0.366712 0.951836
0.000230 0.959670 0.848777
0.000230 0.960006 0.847047
0.001044 0.919641 0.855734
0.000328 0.838966 0.870403
0.317507 0.749424 0.927882
0.734968 0.674276 0.999446
1.000000 0.650656 0.999117
0.999719 0.636002 0.998980
0.999164 0.604063 0.967867
0.000230 0.959670 0.848777
0.000230 0.959670 0.848777
0.000230 0.959670 0.848777
0.000230 0.959670 0.848777
0.000029 0.963317 0.864797
0.512266 0.946068 0.920766
0.888460 0.887182 0.991129
1.000000 0.848662 0.999387
0.999573 0.815043 0.976926
0.000230 0.959670 0.848777
0.000230 0.959670 0.848777
0.000230 0.959670 0.848777
0.000230 0.959670 0.848777
0.000000 0.961009 0.851485
0.193575 0.968270 0.888472
0.712234 0.984211 0.945160
1.000000 1.000000 1.000000
0.998842 0.985720 0.982337
0.000230 0.959670 0.848777
0.000230 0.959670 0.848777
0.000230 0.959670 0.848777
0.000230 0.959670 0.848777
0.000230 0.959670 0.848777
0.000000 0.964318 0.869234
0.546062 0.977648 0.917938
0.910269 0.994711 0.979886
1.000000 1.000000 1.000000
0.036005 0.000280 1.000000
0.036005 0.000280 1.000000
0.346472 0.000314 0.999944
0.809430 0.007259 1.000000
1.000000 0.013651 0.998875
1.000000 0.013651 0.998875
0.999853 0.014032 0.971719
1.000000 0.159854 0.871160
0.999899 0.230333 0.783008
0.036005 0.000280 1.000000
0.036005 0.000280 1.000000
0.186352 0.000239 1.000000
0.579320 0.003090 1.000000
0.997115 0.010050 0.999407
1.000000 0.013651 0.998875
1.000000 0.013651 0.998875
1.000000 0.013321 0.990977
1.000000 0.131814 0.895560
0.036005 0.000280 1.000000
0.036005 0.000280 1.000000
0.051842 0.000591 1.000000
0.363677 0.000000 0.999637
0.807084 0.006980 0.999648
1.000000 0.013651 0.998875
1.000000 0.013651 0.998875
1.000000 0.013651 0.998875
1.000000 0.013651 0.998875
0.027478 0.382856 0.971910
0.146327 0.167141 0.999961
0.036005 0.000280 1.000000
0.256148 0.000000 1.000000
0.607862 0.007118 0.998914
0.997115 0.010050 0.999407
0.999461 0.010664 0.998651
1.000000 0.013651 0.998875
1.000000 0.013651 0.998875
0.000328 0.838966 0.870403
0.000405 0.741259 0.893586
0.000000 0.611227 0.922441
0.156855 0.441619 0.972473
0.497369 0.276267 0.999321
0.846931 0.049752 1.000000
0.999461 0.010664 0.998651
0.999461 0.010664 0.998651
1.000000 0.104979 0.998940
0.000230 0.959670 0.848777
0.000230 0.959670 0.848777
0.001226 0.936641 0.853387
0.000701 0.860962 0.867524
0.255514 0.772830 0.918562
0.709539 0.691857 0.992746
1.000000 0.610657 0.999905
0.999492 0.439669 0.999687
0.999521 0.404668 0.999946
0.000230 0.959670 0.848777
0.000230 0.959670 0.848777
0.000230 0.959670 0.848777
0.000230 0.959670 0.848777
0.000422 0.961978 0.862090
0.468069 0.960072 0.913175
0.867531 0.900998 0.983454
1.000000 0.829989 1.000000
1.000000 0.738997 0.998962
0.000230 0.959670 0.848777
0.000230 0.959670 0.848777
0.000230 0.959670 0.848777
0.000230 0.959670 0.848777
0.000000 0.961009 0.851485
0.100904 0.967687 0.886110
0.680955 0.982920 0.939609
1.000000 1.000000 1.000000
0.998448 0.984369 0.998887
0.000230 0.959670 0.848777
0.000230 0.959670 0.848777
0.000230 0.959670 0.848777
0.000230 0.959670 0.848777
0.000230 0.959670 0.848777
0.000029 0.962981 0.866528
0.512437 0.975407 0.914872
0.886419 0.992585 0.976289
1.000000 1.000000 1.000000
