luts/GFX100II_FLog2C_FGamutC_to_ETERNA-BB_BT.709_33grid_V.1.00.cube
#title:FLog2C_FGamutC_to_ETERNA-BB_BT.709
#FUJIFILM Corporation
#Gamma:F-Log2C to ETERNA BLEACH BYPASS
#Gamut:F-GamutC to ITU-R BT.709
#Version:1.00
LUT_3D_SIZE 33
0.000000 0.000000 0.000000
0.000000 0.000000 0.000000
0.010752 0.000419 0.003906
0.030102 0.006647 0.006751
0.058059 0.006681 0.010348
0.091875 0.013918 0.012882
0.144849 0.022724 0.017062
0.225379 0.044231 0.029192
0.339532 0.065291 0.058230
0.465215 0.092737 0.101249
0.580136 0.129414 0.150660
0.663956 0.181130 0.195632
0.720991 0.240130 0.230531
0.756118 0.310623 0.263699
0.812518 0.410521 0.372355
0.812518 0.410521 0.372355
0.812518 0.410521 0.372355
0.812518 0.410521 0.372355
0.812518 0.410521 0.372355
0.812518 0.410521 0.372355
0.812518 0.410521 0.372355
0.812518 0.410521 0.372355
0.812518 0.410521 0.372355
0.812518 0.410521 0.372355
0.812518 0.410521 0.372355
0.812518 0.410521 0.372355
0.812518 0.410521 0.372355
0.812518 0.410521 0.372355
0.812518 0.410521 0.372355
0.812518 0.410521 0.372355
0.812518 0.410521 0.372355
0.812518 0.410521 0.372355
0.812518 0.410521 0.372355
0.000000 0.000000 0.000000
0.000000 0.000000 0.000000
0.000000 0.000000 0.000000
0.027172 0.003717 0.003821
0.045937 0.006960 0.006442
0.076824 0.010258 0.011238
0.114355 0.016742 0.016479
0.182965 0.032193 0.022528
0.289689 0.054761 0.046152
0.411073 0.080648 0.082781
0.533623 0.110490 0.130239
0.633090 0.157521 0.175434
0.700876 0.215931 0.219430
0.737965 0.278391 0.245984
0.797496 0.376900 0.345011
0.812518 0.410521 0.372355
0.812518 0.410521 0.372355
0.812518 0.410521 0.372355
0.812518 0.410521 0.372355
0.812518 0.410521 0.372355
0.812518 0.410521 0.372355
0.812518 0.410521 0.372355
0.812518 0.410521 0.372355
0.812518 0.410521 0.372355
0.812518 0.410521 0.372355
0.812518 0.410521 0.372355
0.812518 0.410521 0.372355
0.812518 0.410521 0.372355
0.812518 0.410521 0.372355
0.812518 0.410521 0.372355
0.812518 0.410521 0.372355
0.812518 0.410521 0.372355
0.812518 0.410521 0.372355
0.000000 0.000000 0.000000
0.000000 0.000000 0.000000
0.000000 0.000000 0.000000
0.014467 0.000337 0.003152
0.032446 0.006926 0.007727
0.067049 0.010481 0.010039
0.101650 0.013697 0.014083
0.150910 0.022921 0.017285
0.242585 0.043174 0.032343
0.364943 0.070035 0.069949
0.486909 0.098236 0.110262
0.596747 0.136700 0.155235
0.676652 0.194834 0.203138
0.724695 0.250370 0.236613
0.771340 0.334884 0.304442
0.812518 0.410521 0.372355
0.812518 0.410521 0.372355
0.812518 0.410521 0.372355
0.812518 0.410521 0.372355
0.812518 0.410521 0.372355
0.812518 0.410521 0.372355
0.812518 0.410521 0.372355
0.812518 0.410521 0.372355
0.812518 0.410521 0.372355
0.812518 0.410521 0.372355
0.812518 0.410521 0.372355
0.812518 0.410521 0.372355
0.812518 0.410521 0.372355
0.812518 0.410521 0.372355
0.812518 0.410521 0.372355
0.812518 0.410521 0.372355
0.812518 0.410521 0.372355
0.812518 0.410521 0.372355
0.000000 0.017666 0.003821
0.000383 0.009657 0.000667
0.000583 0.002987 0.000222
0.003715 0.000000 0.000000
0.025802 0.003743 0.007281
0.048283 0.006902 0.009149
0.087183 0.013360 0.010929
0.128431 0.019425 0.017149
0.198801 0.032505 0.022219
0.311777 0.058922 0.052458
0.435113 0.086761 0.091038
0.554533 0.120009 0.137742
0.647547 0.168181 0.185422
0.712010 0.226008 0.224004
0.743623 0.291593 0.248829
0.802953 0.394757 0.358683
0.812518 0.410521 0.372355
0.812518 0.410521 0.372355
0.812518 0.410521 0.372355
0.812518 0.410521 0.372355
0.812518 0.410521 0.372355
0.812518 0.410521 0.372355
0.812518 0.410521 0.372355
0.812518 0.410521 0.372355
0.812518 0.410521 0.372355
0.812518 0.410521 0.372355
0.812518 0.410521 0.372355
0.812518 0.410521 0.372355
0.812518 0.410521 0.372355
0.812518 0.410521 0.372355
0.812518 0.410521 0.372355
0.812518 0.410521 0.372355
0.812518 0.410521 0.372355
0.000000 0.040328 0.007109
0.003495 0.028579 0.006442
0.000000 0.022663 0.003290
0.000000 0.017666 0.003821
0.023839 0.013793 0.003512
0.043390 0.013350 0.005910
0.068418 0.009783 0.010039
0.109664 0.016519 0.012797
0.165962 0.026244 0.020661
0.262326 0.046384 0.041132
0.385269 0.076568 0.077230
0.502544 0.104546 0.113859
0.613549 0.147977 0.164468
0.685834 0.202284 0.209219
0.733093 0.261842 0.241187
0.783049 0.355582 0.329918
0.812518 0.410521 0.372355
0.812518 0.410521 0.372355
0.812518 0.410521 0.372355
0.812518 0.410521 0.372355
0.812518 0.410521 0.372355
0.812518 0.410521 0.372355
0.812518 0.410521 0.372355
0.812518 0.410521 0.372355
0.812518 0.410521 0.372355
0.812518 0.410521 0.372355
0.812518 0.410521 0.372355
0.812518 0.410521 0.372355
0.812518 0.410521 0.372355
0.812518 0.410521 0.372355
0.812518 0.410521 0.372355
0.812518 0.410521 0.372355
0.812518 0.410521 0.372355
0.000334 0.065977 0.010620
0.000000 0.054006 0.006271
0.000938 0.046301 0.007554
0.000000 0.040328 0.007109
0.013652 0.038351 0.006578
0.038679 0.034782 0.010707
0.066053 0.032502 0.010620
0.098510 0.028769 0.013243
0.140934 0.029812 0.016530
0.215221 0.034460 0.029055
0.334258 0.061073 0.059516
0.458177 0.091899 0.098319
0.574859 0.125869 0.148484
0.661027 0.177864 0.194434
0.720407 0.237142 0.230308
0.754950 0.306666 0.252871
0.811933 0.407871 0.370402
0.812518 0.410521 0.372355
0.812518 0.410521 0.372355
0.812518 0.410521 0.372355
0.812518 0.410521 0.372355
0.812518 0.410521 0.372355
0.812518 0.410521 0.372355
0.812518 0.410521 0.372355
0.812518 0.410521 0.372355
0.812518 0.410521 0.372355
0.812518 0.410521 0.372355
0.812518 0.410521 0.372355
0.812518 0.410521 0.372355
0.812518 0.410521 0.372355
0.812518 0.410521 0.372355
0.812518 0.410521 0.372355
0.812518 0.410521 0.372355
0.000506 0.093636 0.013379
0.000123 0.084315 0.010980
0.000000 0.074658 0.010313
0.000334 0.065977 0.010620
0.000000 0.059002 0.005737
0.031815 0.061604 0.010535
0.061534 0.060611 0.006234
0.089882 0.058634 0.010586
0.129961 0.059397 0.012899
0.191734 0.066333 0.020762
0.294171 0.074666 0.043274
0.413217 0.087597 0.084202
0.526586 0.109316 0.129039
0.628005 0.158300 0.176186
0.696970 0.212025 0.215524
0.735427 0.273788 0.242078
0.793983 0.370985 0.341859
0.812518 0.410521 0.372355
0.812518 0.410521 0.372355
0.812518 0.410521 0.372355
0.812518 0.410521 0.372355
0.812518 0.410521 0.372355
0.812518 0.410521 0.372355
0.812518 0.410521 0.372355
0.812518 0.410521 0.372355
0.812518 0.410521 0.372355
0.812518 0.410521 0.372355
0.812518 0.410521 0.372355
0.812518 0.410521 0.372355
0.812518 0.410521 0.372355
0.812518 0.410521 0.372355
0.812518 0.410521 0.372355
0.812518 0.410521 0.372355
0.001061 0.130280 0.020266
0.000094 0.117972 0.017645
0.000000 0.106000 0.013294
0.000000 0.098657 0.016308
0.000314 0.088639 0.013910
0.023389 0.083790 0.012624
0.055846 0.080394 0.013516
0.082433 0.082470 0.010191
0.116451 0.082700 0.014012
0.173734 0.082742 0.017745
0.261311 0.093084 0.034622
0.372736 0.103200 0.067207
0.492165 0.124443 0.115727
0.600442 0.158609 0.161231
0.677429 0.202481 0.204558
0.724695 0.250370 0.236613
0.765873 0.328023 0.294145
0.812518 0.410521 0.372355
0.812518 0.410521 0.372355
0.812518 0.410521 0.372355
0.812518 0.410521 0.372355
0.812518 0.410521 0.372355
0.812518 0.410521 0.372355
0.812518 0.410521 0.372355
0.812518 0.410521 0.372355
0.812518 0.410521 0.372355
0.812518 0.410521 0.372355
0.812518 0.410521 0.372355
0.812518 0.410521 0.372355
0.812518 0.410521 0.372355
0.812518 0.410521 0.372355
0.812518 0.410521 0.372355
0.812518 0.410521 0.372355
0.000427 0.182605 0.035187
0.000054 0.162289 0.029413
0.000849 0.147274 0.027548
0.000000 0.136640 0.025902
0.000677 0.120286 0.021328
0.002640 0.111916 0.016445
0.052303 0.108135 0.017027
0.080068 0.104516 0.014234
0.109395 0.105196 0.010909
0.156903 0.105461 0.013445
0.234511 0.112371 0.022730
0.338901 0.121312 0.054116
0.457163 0.136584 0.102192
0.572867 0.169241 0.153109
0.664321 0.213449 0.199590
0.725270 0.264688 0.238481
0.757678 0.316266 0.256246
0.809397 0.404611 0.359575
0.816424 0.415435 0.371069
0.812518 0.410521 0.372355
0.812518 0.410521 0.372355
0.812518 0.410521 0.372355
0.812518 0.410521 0.372355
0.812518 0.410521 0.372355
0.812518 0.410521 0.372355
0.812518 0.410521 0.372355
0.812518 0.410521 0.372355
0.812518 0.410521 0.372355
0.812518 0.410521 0.372355
0.812518 0.410521 0.372355
0.812518 0.410521 0.372355
0.812518 0.410521 0.372355
0.812518 0.410521 0.372355
0.000360 0.261587 0.048430
0.000000 0.235602 0.046648
0.000000 0.210961 0.037946
0.000619 0.186929 0.038117
0.000000 0.168959 0.029859
0.000064 0.151293 0.026040
0.038391 0.143434 0.025953
0.072217 0.139339 0.026843
0.104091 0.133965 0.022321
0.142215 0.135128 0.010566
0.211227 0.137238 0.015723
0.311316 0.144619 0.040719
0.423517 0.159358 0.090300
0.544115 0.186239 0.140996
0.645928 0.232541 0.192359
0.721535 0.288440 0.237331
0.766065 0.339069 0.262464
0.808420 0.407667 0.337832
0.830861 0.449094 0.382618
0.824810 0.438238 0.377289
0.821106 0.426989 0.376399
0.814662 0.417807 0.372046
0.812518 0.410521 0.372355
0.812518 0.410521 0.372355
0.812518 0.410521 0.372355
0.812518 0.410521 0.372355
0.812518 0.410521 0.372355
0.812518 0.410521 0.372355
0.812518 0.410521 0.372355
0.812518 0.410521 0.372355
0.812518 0.410521 0.372355
0.812518 0.410521 0.372355
0.812518 0.410521 0.372355
0.000000 0.364226 0.079027
0.000100 0.333556 0.072586
0.000000 0.302580 0.061707
0.000350 0.271573 0.056997
0.000000 0.247269 0.046562
0.000000 0.219610 0.043805
0.010384 0.198039 0.040960
0.056926 0.186666 0.037414
0.097990 0.177747 0.035598
0.136900 0.173546 0.032273
0.193993 0.172289 0.017504
0.285092 0.177215 0.035887
0.397101 0.188974 0.075617
0.515354 0.215240 0.127066
0.630656 0.259558 0.187527
0.720922 0.320456 0.236851
0.788707 0.379874 0.275655
0.807635 0.420425 0.291331
0.843738 0.479798 0.387773
0.840225 0.473209 0.388082
0.836519 0.462297 0.385460
0.832814 0.451383 0.382839
0.827740 0.441168 0.380219
0.822665 0.431288 0.375867
0.816615 0.419760 0.373999
0.812518 0.410521 0.372355
0.812518 0.410521 0.372355
0.812518 0.410521 0.372355
0.812518 0.410521 0.372355
0.812518 0.410521 0.372355
0.812518 0.410521 0.372355
0.812518 0.410521 0.372355
0.812518 0.410521 0.372355
0.000000 0.482826 0.118637
0.000000 0.445853 0.103852
0.000000 0.410217 0.091773
0.000453 0.376534 0.081649
0.000000 0.343574 0.074984
0.000120 0.312910 0.058914
0.000000 0.282264 0.055933
0.016780 0.263204 0.056997
0.073881 0.247591 0.056157
0.129804 0.236664 0.059975
0.186705 0.229737 0.049199
0.263540 0.232026 0.041489
0.373405 0.238177 0.072875
0.492835 0.259085 0.123125
0.616735 0.308204 0.187715
0.721859 0.367428 0.240945
0.800588 0.431928 0.284856
0.825587 0.461008 0.300839
0.851540 0.503310 0.374734
0.859153 0.514768 0.398566
0.851149 0.501623 0.393016
0.847836 0.488364 0.392880
0.843155 0.476475 0.389281
0.836127 0.463970 0.386436
0.832029 0.455067 0.383063
0.829301 0.445130 0.381417
0.820904 0.433996 0.375113
0.817592 0.420737 0.374976
0.812125 0.412867 0.369872
0.812518 0.410521 0.372355
0.812518 0.410521 0.372355
0.812518 0.410521 0.372355
0.812518 0.410521 0.372355
0.000000 0.606416 0.167343
0.000000 0.570444 0.156995
0.000508 0.532437 0.143942
0.000000 0.495159 0.124718
0.000577 0.457823 0.108204
0.000022 0.422524 0.094395
0.000050 0.389203 0.085999
0.000000 0.361880 0.081511
0.028831 0.340228 0.082796
0.110569 0.323056 0.085332
0.179006 0.311185 0.086890
0.259364 0.306041 0.091071
0.355940 0.313220 0.083497
0.476155 0.331453 0.128332
0.600065 0.369240 0.191277
0.723956 0.431370 0.248860
0.808945 0.488387 0.297738
0.852900 0.524362 0.322734
0.855429 0.540633 0.326556
0.874950 0.560069 0.406566
0.872422 0.543799 0.402746
0.865394 0.530621 0.403364
0.860713 0.519068 0.398035
0.854079 0.504553 0.395946
0.850766 0.491630 0.394079
0.843738 0.479798 0.387773
0.838664 0.468910 0.388614
0.833982 0.457020 0.385016
0.830278 0.446107 0.382394
0.823833 0.436925 0.378042
0.819152 0.424699 0.376176
0.816424 0.415435 0.371069
0.812518 0.410521 0.372355
0.000000 0.714349 0.211477
0.000000 0.684047 0.197136
0.000007 0.654384 0.185504
0.000429 0.619725 0.174402
0.000268 0.582752 0.159618
0.000000 0.546444 0.151000
0.000000 0.507156 0.132530
0.000000 0.471158 0.118722
0.000000 0.448496 0.115434
0.072547 0.428198 0.114816
0.166405 0.410749 0.121258
0.258298 0.401332 0.134313
0.357614 0.403420 0.145773
0.469039 0.418239 0.154133
0.598818 0.454252 0.202257
0.718421 0.501811 0.260457
0.810256 0.554669 0.312796
0.874729 0.602172 0.344543
0.874930 0.595166 0.345829
0.890555 0.603398 0.399523
0.889780 0.593398 0.410214
0.883146 0.578883 0.408125
0.876509 0.564032 0.407766
0.874960 0.548738 0.404922
0.865586 0.535618 0.402833
0.861689 0.520380 0.397280
0.855055 0.505865 0.395191
0.849004 0.494337 0.393323
0.844715 0.480775 0.388750
0.838664 0.468910 0.388614
0.834566 0.459671 0.386970
0.830861 0.449094 0.382618
0.824810 0.438238 0.377289
0.000000 0.788291 0.250676
0.000000 0.766972 0.240465
0.000705 0.746968 0.229499
0.000533 0.721997 0.212897
0.000362 0.696019 0.201488
0.000000 0.665379 0.188878
0.000420 0.631056 0.176046
0.000000 0.592770 0.162016
0.000479 0.564749 0.157528
0.028848 0.540111 0.158590
0.162199 0.521111 0.163660
0.263869 0.511474 0.177914
0.365922 0.510486 0.198028
0.479109 0.520918 0.215793
0.597956 0.546905 0.224289
0.719912 0.584084 0.278360
0.811174 0.623968 0.321911
0.878978 0.662404 0.348774
0.899114 0.664277 0.354856
0.894039 0.653725 0.353964
0.905376 0.646377 0.413470
0.900109 0.630492 0.414840
0.897582 0.613885 0.412749
0.890948 0.599034 0.412391
0.883729 0.581870 0.408348
0.878071 0.569003 0.403773
0.874175 0.552757 0.403415
0.867539 0.538579 0.399594
0.864228 0.525320 0.399458
0.855247 0.510526 0.396391
0.849587 0.497324 0.393547
0.845300 0.483425 0.390703
0.840225 0.473209 0.388082
0.000000 0.844566 0.286054
0.000000 0.829919 0.276289
0.000000 0.813934 0.263817
0.000000 0.794625 0.252851
0.000485 0.774620 0.241887
0.000000 0.751989 0.232428
0.000000 0.729669 0.217780
0.000745 0.704331 0.209079
0.000000 0.675702 0.195714
0.000592 0.655691 0.194380
0.149388 0.638676 0.200117
0.268654 0.626979 0.213086
0.383222 0.624039 0.236130
0.494848 0.628491 0.263079
0.611157 0.645843 0.288433
0.722572 0.672666 0.294976
0.814629 0.699887 0.324547
0.881860 0.724007 0.349544
0.921535 0.736094 0.363129
0.913340 0.717282 0.361570
0.917649 0.699444 0.407848
0.915705 0.684144 0.414633
0.908487 0.666642 0.412320
0.906935 0.651012 0.411207
0.899717 0.632503 0.414086
0.895821 0.616593 0.411996
0.892508 0.603670 0.410129
0.884313 0.584856 0.408570
0.881977 0.572909 0.407679
0.875735 0.556721 0.404613
0.869492 0.540869 0.399816
0.863441 0.528668 0.401411
0.858177 0.513792 0.397590
0.136056 0.891105 0.331609
0.088365 0.876530 0.317578
0.000206 0.862530 0.303942
0.000024 0.848554 0.290715
0.000000 0.834243 0.279218
0.000052 0.818258 0.266746
0.000000 0.798950 0.255781
0.000000 0.778970 0.248278
0.000303 0.758964 0.237311
0.000122 0.742973 0.234470
0.144024 0.731734 0.240430
0.277949 0.725707 0.254290
0.388802 0.724193 0.271164
0.500821 0.727981 0.291945
0.614593 0.740055 0.316855
0.721911 0.756296 0.328676
0.810856 0.771652 0.316132
0.883371 0.788322 0.339930
0.929501 0.798933 0.352762
0.930294 0.782910 0.356086
0.923670 0.755720 0.359272
0.927001 0.735899 0.409764
0.921737 0.720350 0.409406
0.920579 0.702038 0.412507
0.914336 0.685513 0.411172
0.910047 0.670606 0.413520
0.908888 0.652965 0.413160
0.901278 0.636802 0.413555
0.898357 0.621869 0.412442
0.894461 0.605623 0.412082
0.887827 0.591109 0.409992
0.880607 0.573943 0.405949
0.877294 0.560684 0.405813
0.199197 0.894990 0.351586
0.196851 0.894711 0.350609
0.189421 0.895547 0.348656
0.155213 0.892336 0.334984
0.080150 0.880378 0.319308
0.000397 0.866518 0.308600
0.000000 0.853913 0.291914
0.000000 0.837255 0.282903
0.000244 0.822246 0.271406
0.000000 0.810946 0.263593
0.141418 0.802751 0.267070
0.268498 0.801556 0.274008
0.385804 0.799238 0.286669
0.494107 0.804115 0.303012
0.607294 0.813539 0.325969
0.714422 0.823438 0.345242
0.806106 0.835721 0.341351
0.870427 0.841978 0.320329
0.920662 0.849489 0.338352
0.936700 0.841786 0.344521
0.934374 0.816156 0.354097
0.934001 0.787774 0.389855
0.932058 0.771801 0.400101
0.928160 0.755220 0.401473
0.927587 0.739558 0.406528
0.924667 0.723616 0.410605
0.921162 0.705024 0.412731
0.918243 0.690092 0.411618
0.912976 0.674207 0.412989
0.907711 0.658659 0.412629
0.902838 0.640765 0.414753
0.897966 0.624215 0.409958
0.895046 0.608609 0.412305
0.209949 0.896417 0.350300
0.207604 0.896475 0.347594
0.199197 0.894990 0.351586
0.196851 0.894711 0.350609
0.196851 0.894711 0.350609
0.189421 0.895547 0.348656
0.160881 0.893199 0.341374
0.103216 0.885517 0.326590
0.026200 0.871270 0.310692
0.000405 0.857203 0.296574
0.166396 0.852815 0.294996
0.282333 0.852538 0.300734
0.384384 0.853902 0.308735
0.490344 0.859172 0.320641
0.597864 0.868070 0.335477
0.700692 0.875401 0.353551
0.791790 0.883016 0.358090
0.858849 0.886198 0.345718
0.908119 0.889467 0.319590
0.943114 0.889666 0.329577
0.943717 0.868310 0.335164
0.938069 0.840753 0.346250
0.938672 0.819733 0.350105
0.936337 0.804425 0.366519
0.933607 0.790120 0.387371
0.934011 0.774762 0.396864
0.930698 0.760495 0.401918
0.927778 0.744890 0.404265
0.925250 0.727275 0.407368
0.922330 0.710997 0.413176
0.918434 0.695088 0.411085
0.915514 0.679484 0.413433
0.910641 0.661925 0.413828
0.220702 0.897509 0.350746
0.220702 0.897509 0.350746
0.219725 0.896196 0.351500
0.209949 0.896417 0.350300
0.207604 0.896475 0.347594
0.199197 0.894990 0.351586
0.196851 0.894711 0.350609
0.189421 0.895547 0.348656
0.187077 0.894932 0.349411
0.181409 0.894069 0.343020
0.213473 0.894363 0.334504
0.306928 0.891935 0.333183
0.396860 0.893578 0.337278
0.491091 0.897788 0.342571
0.586297 0.902639 0.350571
0.688149 0.910674 0.359016
0.773187 0.917421 0.366792
0.844545 0.920818 0.367734
0.896554 0.922356 0.343337
0.934880 0.920882 0.310372
0.942902 0.909684 0.321285
0.942922 0.884669 0.330110
0.940203 0.861049 0.338933
0.942559 0.849325 0.341727
0.937877 0.836092 0.345051
0.936910 0.822776 0.347621
0.934182 0.809142 0.365011
0.935561 0.793418 0.382403
0.932247 0.777806 0.394379
0.929913 0.764515 0.400410
0.927385 0.746900 0.403513
0.927203 0.729564 0.407590
0.922914 0.714321 0.411669
0.226762 0.897706 0.350970
0.226762 0.897706 0.350970
0.220702 0.897509 0.350746
0.220702 0.897509 0.350746
0.220702 0.897509 0.350746
0.209949 0.896417 0.350300
0.207604 0.896475 0.347594
0.207604 0.896475 0.347594
0.199197 0.894990 0.351586
0.196851 0.894711 0.350609
0.220702 0.897509 0.350746
0.315122 0.905372 0.362430
0.410130 0.916893 0.370875
0.489691 0.928110 0.370000
0.582161 0.934692 0.376269
0.668961 0.940076 0.377878
0.755762 0.945123 0.381219
0.828488 0.947487 0.383890
0.880104 0.947339 0.377773
0.917847 0.944558 0.335934
0.943467 0.938022 0.310953
0.944262 0.921662 0.316007
0.942520 0.899019 0.325809
0.940184 0.886736 0.326647
0.942146 0.876014 0.333878
0.942156 0.863675 0.337426
0.939429 0.852395 0.342704
0.938069 0.840753 0.346250
0.937496 0.825763 0.347843
0.934766 0.812466 0.363505
0.935752 0.798414 0.381871
0.933809 0.782105 0.393847
0.929520 0.766862 0.397926
0.237514 0.898462 0.353144
0.235168 0.898182 0.352167
0.235168 0.898182 0.352167
0.226762 0.897706 0.350970
0.225785 0.896729 0.349993
0.224809 0.895081 0.352477
0.220702 0.897509 0.350746
0.219725 0.896196 0.351500
0.219725 0.896196 0.351500
0.209949 0.896417 0.350300
0.207604 0.896475 0.347594
0.271139 0.900703 0.356211
0.360477 0.910017 0.365187
0.449029 0.922344 0.377847
0.545988 0.935482 0.389977
0.647639 0.949851 0.400597
0.734631 0.960568 0.399945
0.805989 0.963293 0.404347
0.862688 0.962365 0.397477
0.904920 0.961771 0.383992
0.933673 0.958552 0.325156
0.941504 0.947736 0.308915
0.943275 0.932353 0.314945
0.945047 0.917643 0.317515
0.943296 0.907675 0.322040
0.942520 0.899019 0.325809
0.942137 0.888689 0.328600
0.940385 0.879058 0.331394
0.941764 0.865349 0.338403
0.940012 0.855382 0.342926
0.940022 0.843378 0.344743
0.938079 0.829086 0.346336
0.934766 0.814146 0.354852
0.237514 0.898462 0.353144
0.237514 0.898462 0.353144
0.237514 0.898462 0.353144
0.237514 0.898462 0.353144
0.235168 0.898182 0.352167
0.235168 0.898182 0.352167
0.226762 0.897706 0.350970
0.229107 0.897313 0.355406
0.220702 0.897509 0.350746
0.220702 0.897509 0.350746
0.219725 0.896196 0.351500
0.237514 0.898462 0.353144
0.315122 0.905372 0.362430
0.395663 0.916220 0.369453
0.482262 0.926930 0.378429
0.580198 0.940710 0.393265
0.676180 0.953880 0.399226
0.772555 0.962688 0.418055
0.839412 0.970188 0.418243
0.886921 0.972804 0.408665
0.922508 0.970370 0.387812
0.943439 0.966974 0.341843
0.940911 0.956417 0.308606
0.943074 0.939696 0.311930
0.944252 0.934002 0.312461
0.943477 0.925682 0.314499
0.945047 0.917978 0.315785
0.943879 0.910661 0.322262
0.942127 0.901029 0.325054
0.942720 0.891340 0.330553
0.942338 0.881347 0.331618
0.941956 0.870345 0.337872
0.941965 0.858343 0.339687
0.237514 0.898462 0.353144
0.237514 0.898462 0.353144
0.237514 0.898462 0.353144
0.237514 0.898462 0.353144
0.237514 0.898462 0.353144
0.237514 0.898462 0.353144
0.235168 0.898182 0.352167
0.235168 0.898182 0.352167
0.235168 0.898182 0.352167
0.226762 0.897706 0.350970
0.229107 0.897313 0.355406
0.224809 0.895081 0.352477
0.285605 0.901375 0.357632
0.354417 0.909484 0.366696
0.428895 0.919800 0.375227
0.517840 0.931124 0.383448
0.611085 0.944681 0.394602
0.705697 0.957541 0.405755
0.792690 0.965569 0.418945
0.858963 0.970081 0.418910
0.903340 0.975429 0.412039
0.935405 0.977741 0.393142
0.947535 0.972181 0.364254
0.940709 0.963423 0.307320
0.944042 0.952675 0.311090
0.942480 0.948376 0.311620
0.943659 0.942683 0.312152
0.945229 0.934979 0.313438
0.943084 0.928029 0.312016
0.945631 0.920629 0.317738
0.943879 0.911669 0.317071
0.944080 0.903654 0.323546
0.943697 0.893325 0.326340
0.237514 0.898462 0.353144
0.237514 0.898462 0.353144
0.237514 0.898462 0.353144
0.237514 0.898462 0.353144
0.237514 0.898462 0.353144
0.237514 0.898462 0.353144
0.237514 0.898462 0.353144
0.237514 0.898462 0.353144
0.235168 0.898182 0.352167
0.235168 0.898182 0.352167
0.235168 0.898182 0.352167
0.235168 0.898182 0.352167
0.262733 0.900226 0.355012
0.320207 0.904593 0.361675
0.383934 0.914152 0.368030
0.457435 0.923156 0.377317
0.545988 0.935482 0.389977
0.635518 0.950130 0.396691
0.729546 0.959667 0.409352
0.811848 0.967471 0.418859
0.871084 0.971484 0.414164
0.913509 0.974879 0.405340
0.947918 0.977133 0.389147
0.947335 0.976498 0.376812
0.944415 0.967614 0.344551
0.942662 0.964704 0.312734
0.942864 0.958706 0.308828
0.942672 0.953709 0.309358
0.941504 0.947736 0.308915
0.943659 0.942683 0.312152
0.943861 0.935676 0.313438
0.944060 0.928669 0.314723
0.944262 0.921662 0.316007
0.237514 0.898462 0.353144
0.237514 0.898462 0.353144
0.237514 0.898462 0.353144
0.237514 0.898462 0.353144
0.237514 0.898462 0.353144
0.237514 0.898462 0.353144
0.237514 0.898462 0.353144
0.237514 0.898462 0.353144
0.237514 0.898462 0.353144
0.235168 0.898182 0.352167
0.235168 0.898182 0.352167
0.235168 0.898182 0.352167
0.245920 0.898938 0.354345
0.295964 0.903804 0.360785
0.351094 0.908565 0.363012
0.417166 0.918068 0.372074
0.491645 0.928047 0.382336
0.571792 0.939897 0.393796
0.665428 0.952117 0.402241
0.753397 0.962128 0.411219
0.830030 0.968735 0.416066
0.884183 0.972518 0.417317
0.921914 0.975691 0.404809
0.945180 0.978863 0.387418
0.948312 0.977139 0.379520
0.947335 0.976498 0.376812
0.942452 0.972623 0.366737
0.943045 0.967639 0.348011
0.943639 0.964673 0.318903
0.942470 0.960716 0.308074
0.942279 0.955384 0.310335
0.943457 0.950025 0.309137
0.942289 0.943716 0.310423
0.245920 0.898938 0.354345
0.237514 0.898462 0.353144
0.237514 0.898462 0.353144
0.237514 0.898462 0.353144
0.237514 0.898462 0.353144
0.237514 0.898462 0.353144
0.237514 0.898462 0.353144
0.237514 0.898462 0.353144
0.237514 0.898462 0.353144
0.237514 0.898462 0.353144
0.235168 0.898182 0.352167
0.235168 0.898182 0.352167
0.235168 0.898182 0.352167
0.277200 0.900563 0.358164
0.323136 0.908194 0.361144
0.383934 0.914152 0.368030
0.443361 0.920808 0.374917
0.517840 0.931124 0.383448
0.606393 0.943786 0.394379
0.694945 0.956786 0.403578
0.779592 0.964534 0.415793
0.848211 0.969326 0.416735
0.894934 0.974282 0.414300
0.932667 0.977791 0.400063
