luts/GFX100II_FLog2C_FGamutC_to_WDR_BT.709_33grid_V.1.00.cube
#title:FLog2C_FGamutC_to_WDR_BT.709
#FUJIFILM Corporation
#Gamma:F-Log2C to Wide Dynamic Range curve
#Gamut:F-GamutC to ITU-R BT.709
#Version:1.00
LUT_3D_SIZE 9
0.000000 0.000000 0.000000
0.029800 0.003566 0.003566
0.204010 0.024409 0.024409
0.450985 0.049222 0.049222
0.769143 0.065553 0.065553
0.841515 0.067599 0.067599
0.841515 0.067599 0.067599
0.841515 0.067599 0.067599
0.841515 0.067599 0.067599
0.004531 0.021514 0.004531
0.018451 0.019659 0.005527
0.197421 0.023621 0.023621
0.447614 0.048978 0.048978
0.766978 0.065483 0.065483
0.841515 0.067599 0.067599
0.841515 0.067599 0.067599
0.841515 0.067599 0.067599
0.841515 0.067599 0.067599
0.035900 0.170447 0.035900
0.035480 0.168455 0.035480
0.160051 0.165456 0.045070
0.438880 0.115221 0.055986
0.747760 0.064839 0.064839
0.841515 0.067599 0.067599
0.841515 0.067599 0.067599
0.841515 0.067599 0.067599
0.841515 0.067599 0.067599
0.063943 0.399578 0.063943
0.063870 0.398550 0.063870
0.063195 0.389320 0.063195
0.380702 0.390867 0.070272
0.766645 0.337494 0.068871
0.903634 0.240978 0.069663
0.854711 0.100470 0.069133
0.841515 0.067599 0.067599
0.841515 0.067599 0.067599
0.068985 0.689470 0.068985
0.069006 0.688819 0.069006
0.069188 0.683013 0.069188
0.069708 0.663927 0.069708
0.644566 0.667639 0.023485
0.983295 0.624106 0.000000
1.000000 0.582369 0.000000
0.999022 0.555264 0.001629
0.999022 0.555264 0.001629
0.039278 0.920590 0.039278
0.039415 0.920010 0.039415
0.040631 0.914845 0.040631
0.044523 0.898002 0.044523
0.364118 0.898289 0.000000
0.831230 0.864692 0.000000
1.000000 0.835815 0.000000
1.000000 0.817509 0.000000
1.000000 0.817509 0.000000
0.023652 0.983359 0.023652
0.023652 0.983359 0.023652
0.023652 0.983359 0.023652
0.023652 0.983359 0.023652
0.023652 0.983359 0.023652
0.677095 1.000000 0.000000
0.954804 0.994986 0.000000
1.000000 0.979935 0.000000
1.000000 0.979935 0.000000
0.023652 0.983359 0.023652
0.023652 0.983359 0.023652
0.023652 0.983359 0.023652
0.023652 0.983359 0.023652
0.023652 0.983359 0.023652
0.558095 1.000000 0.000000
0.877016 1.000000 0.000000
1.000000 1.000000 0.000000
1.000000 1.000000 0.000000
0.023652 0.983359 0.023652
0.023652 0.983359 0.023652
0.023652 0.983359 0.023652
0.023652 0.983359 0.023652
0.023652 0.983359 0.023652
0.558095 1.000000 0.000000
0.877016 1.000000 0.000000
1.000000 1.000000 0.000000
1.000000 1.000000 0.000000
0.000747 0.000747 0.015157
0.029914 0.004228 0.018462
0.204398 0.025034 0.037703
0.451461 0.049472 0.057322
0.769054 0.065551 0.065551
0.841515 0.067599 0.067599
0.841515 0.067599 0.067599
0.841515 0.067599 0.067599
0.841515 0.067599 0.067599
0.004713 0.019938 0.017264
0.018000 0.018000 0.018000
0.197705 0.024148 0.034958
0.447938 0.049166 0.055090
0.766889 0.065481 0.065481
0.841515 0.067599 0.067599
0.841515 0.067599 0.067599
0.841515 0.067599 0.067599
0.841515 0.067599 0.067599
0.035641 0.169221 0.035641
0.035219 0.167217 0.035219
0.159371 0.164033 0.044829
0.438016 0.112825 0.055695
0.747668 0.064836 0.064836
0.841515 0.067599 0.067599
0.841515 0.067599 0.067599
0.841515 0.067599 0.067599
0.841515 0.067599 0.067599
0.063898 0.398945 0.063898
0.063825 0.397916 0.063825
0.063146 0.388673 0.063146
0.380402 0.390165 0.070259
0.766352 0.336665 0.068904
0.903273 0.239803 0.069696
0.853882 0.098353 0.069051
0.841515 0.067599 0.067599
0.841515 0.067599 0.067599
0.068998 0.689069 0.068998
0.069019 0.688418 0.069019
0.069200 0.682609 0.069200
0.069718 0.663513 0.069718
0.644401 0.667186 0.023647
0.983206 0.623638 0.000000
1.000000 0.581865 0.000000
0.998905 0.554756 0.001822
0.998905 0.554756 0.001822
0.039362 0.920233 0.039362
0.039499 0.919653 0.039499
0.040715 0.914486 0.040715
0.044605 0.897639 0.044605
0.363865 0.897973 0.000000
0.831122 0.864362 0.000000
1.000000 0.835473 0.000000
1.000000 0.817159 0.000000
1.000000 0.817159 0.000000
0.023652 0.983359 0.023652
0.023652 0.983359 0.023652
0.023652 0.983359 0.023652
0.023652 0.983359 0.023652
0.023652 0.983359 0.023652
0.676961 1.000000 0.000000
0.954711 0.994704 0.000000
1.000000 0.979648 0.000000
1.000000 0.979648 0.000000
0.023652 0.983359 0.023652
0.023652 0.983359 0.023652
0.023652 0.983359 0.023652
0.023652 0.983359 0.023652
0.023652 0.983359 0.023652
0.557930 1.000000 0.000000
0.876914 1.000000 0.000000
1.000000 1.000000 0.000000
1.000000 1.000000 0.000000
0.023652 0.983359 0.023652
0.023652 0.983359 0.023652
0.023652 0.983359 0.023652
0.023652 0.983359 0.023652
0.023652 0.983359 0.023652
0.557930 1.000000 0.000000
0.876914 1.000000 0.000000
1.000000 1.000000 0.000000
1.000000 1.000000 0.000000
0.006274 0.006274 0.127344
0.029900 0.009096 0.130061
0.207564 0.030310 0.150337
0.458890 0.052946 0.175213
0.778314 0.067193 0.190767
0.851166 0.068769 0.185637
0.850567 0.068704 0.178143
0.850183 0.068661 0.173356
0.850183 0.068661 0.173356
0.006216 0.006216 0.126172
0.014723 0.007229 0.127079
0.200838 0.029454 0.148359
0.455406 0.052688 0.173643
0.776031 0.067119 0.189277
0.851049 0.068756 0.184171
0.850444 0.068690 0.176607
0.850056 0.068647 0.171773
0.850056 0.068647 0.171773
0.038967 0.163684 0.148773
0.038515 0.161560 0.148208
0.156583 0.156583 0.156583
0.438471 0.097053 0.167913
0.755739 0.066420 0.175692
0.849970 0.068638 0.170696
0.849305 0.068563 0.162429
0.848876 0.068514 0.157106
0.848876 0.068514 0.157106
0.064815 0.397167 0.142905
0.064743 0.396119 0.142629
0.064077 0.386698 0.140144
0.380042 0.386239 0.145887
0.766891 0.330080 0.134909
0.903193 0.229491 0.121471
0.849535 0.080006 0.106496
0.844141 0.067942 0.099144
0.844141 0.067942 0.099144
0.069111 0.685496 0.069111
0.069131 0.684842 0.069131
0.069306 0.679008 0.069306
0.069804 0.659827 0.069804
0.642929 0.663148 0.025081
0.982411 0.619456 0.000000
1.000000 0.577364 0.000000
0.997850 0.550228 0.003535
0.997850 0.550228 0.003535
0.040113 0.917052 0.040113
0.040250 0.916470 0.040250
0.041461 0.911293 0.041461
0.045338 0.894411 0.045338
0.361613 0.895156 0.000000
0.830165 0.861424 0.000000
1.000000 0.832423 0.000000
1.000000 0.814034 0.000000
1.000000 0.814034 0.000000
0.023652 0.983359 0.023652
0.023652 0.983359 0.023652
0.023652 0.983359 0.023652
0.023652 0.983359 0.023652
0.023652 0.983359 0.023652
0.675766 1.000000 0.000000
0.953889 0.992189 0.000000
1.000000 0.977090 0.000000
1.000000 0.977090 0.000000
0.023652 0.983359 0.023652
0.023652 0.983359 0.023652
0.023652 0.983359 0.023652
0.023652 0.983359 0.023652
0.023652 0.983359 0.023652
0.556465 1.000000 0.000000
0.876012 1.000000 0.000000
1.000000 1.000000 0.000000
1.000000 1.000000 0.000000
0.023652 0.983359 0.023652
0.023652 0.983359 0.023652
0.023652 0.983359 0.023652
0.023652 0.983359 0.023652
0.023652 0.983359 0.023652
0.556465 1.000000 0.000000
0.876012 1.000000 0.000000
1.000000 1.000000 0.000000
1.000000 1.000000 0.000000
0.014599 0.014599 0.296330
0.020209 0.015268 0.296950
0.207948 0.037710 0.318951
0.467111 0.057418 0.355137
0.790279 0.069039 0.384882
0.866574 0.070074 0.386885
0.866335 0.070060 0.383632
0.866186 0.070051 0.381617
0.866186 0.070051 0.381617
0.014572 0.014572 0.295779
0.014569 0.014569 0.295727
0.201004 0.036856 0.317571
0.463630 0.057210 0.354109
0.788039 0.068995 0.384071
0.866526 0.070071 0.386239
0.866287 0.070057 0.382980
0.866138 0.070048 0.380961
0.866138 0.070048 0.380961
0.038796 0.130486 0.315361
0.038230 0.127811 0.314745
0.145010 0.114703 0.325048
0.432053 0.055240 0.344851
0.768159 0.068575 0.376881
0.866105 0.070046 0.380518
0.865861 0.070030 0.377204
0.865710 0.070021 0.375151
0.865710 0.070021 0.375151
0.066749 0.388117 0.358635
0.066689 0.387034 0.358386
0.066128 0.377288 0.356135
0.373027 0.373027 0.373027
0.769660 0.307286 0.384073
0.906810 0.191764 0.376423
0.864429 0.069937 0.357860
0.864267 0.069926 0.355684
0.864267 0.069926 0.355684
0.067003 0.684686 0.345342
0.067036 0.684022 0.345235
0.067325 0.678096 0.344273
0.068189 0.658606 0.341062
0.640995 0.653271 0.321111
0.979821 0.605654 0.310510
1.000000 0.562480 0.305488
1.000000 0.534138 0.302363
1.000000 0.534138 0.302363
0.027830 0.919423 0.273617
0.027989 0.918835 0.273593
0.029396 0.913599 0.273373
0.033903 0.896523 0.272599
0.354201 0.885932 0.246821
0.827045 0.851799 0.239304
1.000000 0.822426 0.232936
1.000000 0.803787 0.228947
1.000000 0.803787 0.228947
0.011572 0.992550 0.195326
0.011582 0.992543 0.195190
0.011669 0.992483 0.193975
0.011953 0.992284 0.189996
0.012580 0.991843 0.181228
0.671866 1.000000 0.162003
0.951213 0.983967 0.153178
1.000000 0.968726 0.147561
1.000000 0.968726 0.147561
0.015417 0.989796 0.141313
0.015429 0.989787 0.141135
0.015542 0.989704 0.139548
0.015912 0.989430 0.134312
0.016745 0.988809 0.122524
0.551674 1.000000 0.094389
0.873071 1.000000 0.081388
1.000000 1.000000 0.072799
1.000000 1.000000 0.072799
0.015417 0.989796 0.141313
0.015429 0.989787 0.141135
0.015542 0.989704 0.139548
0.015912 0.989430 0.134312
0.016745 0.988809 0.122524
0.551674 1.000000 0.094389
0.873071 1.000000 0.081388
1.000000 1.000000 0.072799
1.000000 1.000000 0.072799
0.024285 0.024285 0.492946
0.024284 0.024284 0.492915
0.200369 0.043856 0.518776
0.471491 0.061573 0.568534
0.800250 0.070246 0.611776
0.882807 0.070588 0.618527
0.882677 0.070588 0.616575
0.882596 0.070588 0.615372
0.882596 0.070588 0.615372
0.024269 0.024269 0.492619
0.024268 0.024268 0.492588
0.192637 0.043173 0.516781
0.467944 0.061403 0.567596
0.798003 0.070226 0.611138
0.882781 0.070588 0.618138
0.882651 0.070588 0.616185
0.882570 0.070588 0.614982
0.882570 0.070588 0.614982
0.024127 0.024127 0.489744
0.024126 0.024126 0.489712
0.106918 0.034020 0.499343
0.435722 0.059772 0.559107
0.778054 0.070022 0.605479
0.882552 0.070588 0.614719
0.882421 0.070587 0.612754
0.882340 0.070587 0.611543
0.882340 0.070587 0.611543
0.067210 0.354234 0.579667
0.067148 0.353039 0.579319
0.066556 0.342258 0.576156
0.364967 0.328757 0.607198
0.760239 0.246222 0.626423
0.882678 0.073011 0.604115
0.881668 0.070584 0.601536
0.881585 0.070584 0.600301
0.881585 0.070584 0.600301
0.065061 0.668354 0.614407
0.065103 0.667672 0.614283
0.065472 0.661585 0.613162
0.066599 0.641537 0.609402
0.627717 0.627717 0.627717
0.974269 0.575045 0.627478
1.000000 0.529272 0.625000
1.000000 0.498987 0.623471
1.000000 0.498987 0.623471
0.012087 0.911598 0.603109
0.012262 0.911008 0.603057
0.013817 0.905755 0.602584
0.018811 0.888616 0.600965
0.337869 0.865893 0.598117
0.820346 0.830856 0.594959
1.000000 0.800642 0.592337
1.000000 0.781437 0.590720
1.000000 0.781437 0.590720
0.000000 1.000000 0.575011
0.000000 1.000000 0.574960
0.000000 1.000000 0.574505
0.000000 1.000000 0.573029
0.000000 1.000000 0.569855
0.663465 0.990898 0.566533
0.945475 0.966165 0.563773
1.000000 0.950607 0.562069
1.000000 0.950607 0.562069
0.000000 1.000000 0.556794
0.000000 1.000000 0.556741
0.000000 1.000000 0.556270
0.000000 1.000000 0.554744
0.000000 1.000000 0.551460
0.541308 1.000000 0.548022
0.866760 1.000000 0.545165
1.000000 1.000000 0.543401
1.000000 1.000000 0.543401
0.000000 1.000000 0.556794
0.000000 1.000000 0.556741
0.000000 1.000000 0.556270
0.000000 1.000000 0.554744
0.000000 1.000000 0.551460
0.541308 1.000000 0.548022
0.866760 1.000000 0.545165
1.000000 1.000000 0.543401
1.000000 1.000000 0.543401
0.031205 0.031205 0.633401
0.031204 0.031204 0.633377
0.186569 0.047046 0.663659
0.470870 0.063934 0.724244
0.804792 0.070571 0.777064
0.893695 0.070352 0.787110
0.893601 0.070356 0.785596
0.893543 0.070359 0.784663
0.893543 0.070359 0.784663
0.031192 0.031192 0.633152
0.031191 0.031191 0.633129
0.177975 0.046336 0.661286
0.467246 0.063786 0.723278
0.802528 0.070567 0.776454
0.893677 0.070353 0.786808
0.893582 0.070357 0.785294
0.893524 0.070360 0.784361
0.893524 0.070360 0.784361
0.031085 0.031085 0.630964
0.031083 0.031083 0.630940
0.075315 0.036367 0.636023
0.434274 0.062356 0.714483
0.782419 0.070501 0.771042
0.893511 0.070360 0.784157
0.893416 0.070365 0.782637
0.893358 0.070367 0.781701
0.893358 0.070367 0.781701
0.066396 0.309867 0.727923
0.066315 0.308501 0.727438
0.065544 0.296110 0.723001
0.347728 0.273407 0.759248
0.739240 0.155774 0.779145
0.892971 0.070384 0.775534
0.892875 0.070388 0.773997
0.892816 0.070390 0.773050
0.892816 0.070390 0.773050
0.064249 0.646463 0.794765
0.064296 0.645758 0.794607
0.064707 0.639461 0.793191
0.065969 0.618695 0.788435
0.623306 0.595074 0.837515
0.968458 0.541294 0.835317
1.000000 0.492288 0.833496
1.000000 0.459525 0.832375
1.000000 0.459525 0.832375
0.004502 0.895717 0.816063
0.004688 0.895121 0.815966
0.006342 0.889807 0.815093
0.011657 0.872467 0.812150
0.320050 0.844496 0.813962
0.809785 0.809785 0.809785
1.000000 0.777278 0.809816
1.000000 0.757430 0.808659
1.000000 0.757430 0.808659
0.000000 1.000000 0.797500
0.000000 1.000000 0.797464
0.000000 1.000000 0.797143
0.000000 1.000000 0.796103
0.000000 1.000000 0.793870
0.654606 0.972522 0.791540
0.939466 0.947255 0.789609
1.000000 0.931347 0.788419
1.000000 0.931347 0.788419
0.000000 1.000000 0.784747
0.000000 1.000000 0.784710
0.000000 1.000000 0.784383
0.000000 1.000000 0.783325
0.000000 1.000000 0.781052
0.530303 1.000000 0.778680
0.860143 1.000000 0.776714
1.000000 1.000000 0.775503
1.000000 1.000000 0.775503
0.000000 1.000000 0.784747
0.000000 1.000000 0.784710
0.000000 1.000000 0.784383
0.000000 1.000000 0.783325
0.000000 1.000000 0.781052
0.530303 1.000000 0.778680
0.860143 1.000000 0.776714
1.000000 1.000000 0.775503
1.000000 1.000000 0.775503
0.035625 0.035625 0.723125
0.035625 0.035625 0.723125
0.171607 0.048526 0.756203
0.468302 0.065199 0.825889
0.806397 0.070563 0.886617
0.900617 0.069924 0.900617
0.900617 0.069924 0.900617
0.900587 0.069926 0.900106
0.900587 0.069926 0.900106
0.035625 0.035625 0.723125
0.035625 0.035625 0.723125
0.162069 0.047768 0.753658
0.464624 0.065067 0.825128
0.804132 0.070568 0.886266
0.900617 0.069924 0.900617
0.900617 0.069924 0.900617
0.900571 0.069927 0.899843
0.900571 0.069927 0.899843
0.035625 0.035625 0.723125
0.035625 0.035625 0.723125
0.046820 0.036964 0.724464
0.431113 0.063786 0.818083
0.784011 0.070588 0.883118
0.900560 0.069928 0.899666
0.900482 0.069934 0.898347
0.900433 0.069938 0.897534
0.900433 0.069938 0.897534
0.064820 0.265746 0.820020
0.064708 0.264158 0.819372
0.063632 0.249640 0.813385
0.330409 0.215714 0.849961
0.715416 0.070333 0.865378
0.900114 0.069963 0.892190
0.900034 0.069969 0.890859
0.899985 0.069972 0.890040
0.899985 0.069972 0.890040
0.064057 0.626447 0.913243
0.064106 0.625720 0.913057
0.064539 0.619226 0.911382
0.065866 0.597776 0.905751
0.615486 0.568352 0.973695
0.963625 0.511660 0.971834
1.000000 0.459435 0.970293
1.000000 0.424128 0.969345
1.000000 0.424128 0.969345
0.000844 0.880446 0.956349
0.001037 0.879843 0.956217
0.002755 0.874470 0.955028
0.008279 0.856931 0.951043
0.304591 0.826353 0.953825
0.807453 0.789393 0.951920
1.000000 0.757377 0.950344
1.000000 0.736948 0.949373
1.000000 0.736948 0.949373
0.000000 1.000000 0.940037
0.000000 1.000000 0.940007
0.000000 1.000000 0.939739
0.000000 1.000000 0.938870
0.000000 0.987193 0.937008
0.647186 0.957037 0.935065
0.932186 0.932186 0.932186
1.000000 0.915089 0.932467
1.000000 0.915089 0.932467
0.000000 1.000000 0.929414
0.000000 1.000000 0.929383
0.000000 1.000000 0.929112
0.000000 1.000000 0.928233
0.000000 1.000000 0.926346
0.521026 1.000000 0.924379
0.854631 1.000000 0.922750
1.000000 1.000000 0.921748
1.000000 1.000000 0.921748
0.000000 1.000000 0.929414
0.000000 1.000000 0.929383
0.000000 1.000000 0.929112
0.000000 1.000000 0.928233
0.000000 1.000000 0.926346
0.521026 1.000000 0.924379
0.854631 1.000000 0.922750
1.000000 1.000000 0.921748
1.000000 1.000000 0.921748
0.035625 0.035625 0.723125
0.035625 0.035625 0.723125
0.158700 0.047496 0.752755
0.463365 0.065021 0.824867
0.803359 0.070569 0.886146
0.900617 0.069924 0.900617
0.900617 0.069924 0.900617
0.900617 0.069924 0.900617
0.900617 0.069924 0.900617
0.035625 0.035625 0.723125
0.035625 0.035625 0.723125
0.148422 0.046656 0.749981
0.459651 0.064886 0.824095
0.801087 0.070573 0.885793
0.900617 0.069924 0.900617
0.900617 0.069924 0.900617
0.900617 0.069924 0.900617
0.900617 0.069924 0.900617
0.035625 0.035625 0.723125
0.035625 0.035625 0.723125
0.035625 0.035625 0.723125
0.425781 0.063569 0.816943
0.780899 0.070588 0.882626
0.900617 0.069924 0.900617
0.900617 0.069924 0.900617
0.900617 0.069924 0.900617
0.900617 0.069924 0.900617
0.062282 0.232225 0.810465
0.062129 0.230428 0.809722
0.060647 0.213862 0.802781
0.315562 0.169199 0.835678
0.712421 0.070329 0.871460
0.900617 0.069924 0.900617
0.900617 0.069924 0.900617
0.900617 0.069924 0.900617
0.900617 0.069924 0.900617
0.064728 0.612311 0.931252
0.064776 0.611569 0.931080
0.065192 0.604944 0.929534
0.066463 0.583036 0.924292
0.610706 0.551791 0.997253
0.960648 0.492578 1.000000
1.000000 0.438057 1.000000
1.000000 0.400884 1.000000
1.000000 0.400884 1.000000
0.001639 0.869573 0.999016
0.001833 0.868966 0.998898
0.003548 0.863557 0.997842
0.009064 0.845896 0.994268
0.294739 0.815005 1.000000
0.803834 0.777457 1.000000
1.000000 0.744884 1.000000
1.000000 0.724074 1.000000
1.000000 0.724074 1.000000
0.000000 1.000000 1.000000
0.000000 1.000000 1.000000
0.000000 1.000000 1.000000
0.000000 1.000000 1.000000
0.000000 0.977885 1.000000
0.642589 0.947399 1.000000
0.931386 0.921369 1.000000
1.000000 0.904957 1.000000
1.000000 0.904957 1.000000
0.000000 1.000000 1.000000
0.000000 1.000000 1.000000
0.000000 1.000000 1.000000
0.000000 1.000000 1.000000
0.000000 1.000000 1.000000
0.515250 1.000000 1.000000
0.851231 1.000000 1.000000
1.000000 1.000000 1.000000
1.000000 1.000000 1.000000
0.000000 1.000000 1.000000
0.000000 1.000000 1.000000
0.000000 1.000000 1.000000
0.000000 1.000000 1.000000
0.000000 1.000000 1.000000
0.515250 1.000000 1.000000
0.851231 1.000000 1.000000
1.000000 1.000000 1.000000
1.000000 1.000000 1.000000
0.035625 0.035625 0.723125
0.035625 0.035625 0.723125
0.158700 0.047496 0.752755
0.463365 0.065021 0.824867
0.803359 0.070569 0.886146
0.900617 0.069924 0.900617
0.900617 0.069924 0.900617
0.900617 0.069924 0.900617
0.900617 0.069924 0.900617
0.035625 0.035625 0.723125
0.035625 0.035625 0.723125
0.148422 0.046656 0.749981
0.459651 0.064886 0.824095
0.801087 0.070573 0.885793
0.900617 0.069924 0.900617
0.900617 0.069924 0.900617
0.900617 0.069924 0.900617
0.900617 0.069924 0.900617
0.035625 0.035625 0.723125
0.035625 0.035625 0.723125
0.035625 0.035625 0.723125
0.425781 0.063569 0.816943
0.780899 0.070588 0.882626
0.900617 0.069924 0.900617
0.900617 0.069924 0.900617
0.900617 0.069924 0.900617
0.900617 0.069924 0.900617
0.062282 0.232225 0.810465
0.062129 0.230428 0.809722
0.060647 0.213862 0.802781
0.315562 0.169199 0.835678
0.712421 0.070329 0.871460
0.900617 0.069924 0.900617
0.900617 0.069924 0.900617
0.900617 0.069924 0.900617
0.900617 0.069924 0.900617
0.064728 0.612311 0.931252
0.064776 0.611569 0.931080
0.065192 0.604944 0.929534
0.066463 0.583036 0.924292
0.610706 0.551791 0.997253
0.960648 0.492578 1.000000
1.000000 0.438057 1.000000
1.000000 0.400884 1.000000
1.000000 0.400884 1.000000
0.001639 0.869573 0.999016
0.001833 0.868966 0.998898
0.003548 0.863557 0.997842
0.009064 0.845896 0.994268
0.294739 0.815005 1.000000
0.803834 0.777457 1.000000
1.000000 0.744884 1.000000
1.000000 0.724074 1.000000
1.000000 0.724074 1.000000
0.000000 1.000000 1.000000
0.000000 1.000000 1.000000
0.000000 1.000000 1.000000
0.000000 1.000000 1.000000
0.000000 0.977885 1.000000
0.642589 0.947399 1.000000
0.931386 0.921369 1.000000
1.000000 0.904957 1.000000
1.000000 0.904957 1.000000
0.000000 1.000000 1.000000
0.000000 1.000000 1.000000
0.000000 1.000000 1.000000
0.000000 1.000000 1.000000
0.000000 1.000000 1.000000
0.515250 1.000000 1.000000
0.851231 1.000000 1.000000
1.000000 1.000000 1.000000
1.000000 1.000000 1.000000
0.000000 1.000000 1.000000
0.000000 1.000000 1.000000
0.000000 1.000000 1.000000
0.000000 1.000000 1.000000
0.000000 1.000000 1.000000
0.515250 1.000000 1.000000
0.851231 1.000000 1.000000
1.000000 1.000000 1.000000
1.000000 1.000000 1.000000
