luts/GFX100II_FLog2C_FGamutC_to_ETERNA_BT.709_33grid_V.1.00.cube
#title:FLog2C_FGamutC_to_ETERNA_BT.709
#FUJIFILM Corporation
#Gamma:F-Log2C to ETERNA
#Gamut:F-GamutC to ITU-R BT.709
#Version:1.00
LUT_3D_SIZE 5
0.006836 0.006836 0.006836
0.468758 0.073061 0.056207
1.000000 0.361406 0.313262
1.000000 0.361406 0.313262
1.000000 0.361406 0.313262
0.000751 0.268986 0.000731
0.182465 0.166576 0.000062
1.000000 0.302638 0.161136
1.000000 0.361406 0.313262
1.000000 0.361406 0.313262
0.000000 0.976691 0.000457
0.000000 0.807016 0.000000
0.766787 0.694140 0.000000
0.991709 0.589760 0.000000
0.999782 0.479562 0.219575
0.000000 0.981688 0.000000
0.000000 0.981688 0.000000
0.000000 0.988359 0.000372
0.932543 0.969092 0.000000
0.950812 0.865014 0.000000
0.000000 0.983361 0.000902
0.000000 0.981688 0.000000
0.000000 0.983361 0.000902
0.678162 0.998801 0.000000
0.927239 0.999877 0.000754
0.007792 0.003589 0.149539
0.396242 0.044293 0.094706
1.000000 0.361406 0.313262
1.000000 0.361406 0.313262
1.000000 0.361406 0.313262
0.000090 0.304559 0.281887
0.173828 0.173828 0.173828
0.999163 0.284231 0.224718
1.000000 0.361406 0.313262
1.000000 0.361406 0.313262
0.000000 0.968283 0.268114
0.000000 0.841682 0.000958
0.714177 0.717654 0.000000
0.995758 0.615326 0.216367
0.999571 0.503612 0.190516
0.000510 0.972583 0.267582
0.000000 0.981688 0.000000
0.000000 0.986685 0.000000
0.923724 0.993625 0.000000
0.944733 0.888152 0.000000
0.000643 0.963228 0.700883
0.000000 0.970071 0.394489
0.000000 0.980375 0.000679
0.619510 0.998782 0.000000
0.927239 0.999877 0.000754
0.021024 0.000000 0.561767
0.397975 0.010718 0.434375
0.999045 0.375507 0.474605
0.999073 0.364366 0.352000
1.000000 0.361406 0.313262
0.000424 0.262657 0.847989
0.206246 0.125353 0.646792
1.000000 0.194139 0.685024
0.999830 0.367118 0.498609
0.999065 0.369648 0.384792
0.000000 0.898392 0.823559
0.000559 0.821491 0.745621
0.714844 0.714844 0.714844
1.000000 0.636917 0.624738
0.999886 0.535792 0.495144
0.000000 0.961681 0.848024
0.000451 0.965289 0.665074
0.000000 0.974300 0.457898
0.956889 0.993512 0.444043
0.969500 0.884633 0.397647
0.000230 0.959670 0.848777
0.000230 0.959670 0.848777
0.000000 0.962543 0.723602
0.654808 0.987713 0.598023
0.934668 0.999712 0.000000
0.036005 0.000280 1.000000
0.478053 0.003082 0.966105
0.999305 0.242373 0.765394
1.000000 0.325598 0.608024
0.999439 0.371817 0.484012
0.036005 0.000280 1.000000
0.177945 0.000000 0.999348
0.987339 0.009935 0.999937
1.000000 0.216947 0.807543
0.999073 0.306898 0.647910
0.000558 0.795613 0.878867
0.000916 0.593193 0.926521
0.642003 0.558358 1.000000
1.000000 0.548479 0.900140
0.999099 0.482344 0.789546
0.000230 0.959670 0.848777
0.000230 0.959670 0.848777
0.000029 0.962981 0.866528
0.942383 0.942383 0.942383
0.999553 0.861230 0.859082
0.000230 0.959670 0.848777
0.000230 0.959670 0.848777
0.000230 0.959670 0.848777
0.581057 0.978183 0.926196
0.987506 1.000000 0.886491
0.036005 0.000280 1.000000
0.346472 0.000314 0.999944
1.000000 0.013651 0.998875
0.999853 0.014032 0.971719
0.999899 0.230333 0.783008
0.036005 0.000280 1.000000
0.051842 0.000591 1.000000
0.807084 0.006980 0.999648
1.000000 0.013651 0.998875
1.000000 0.013651 0.998875
0.000328 0.838966 0.870403
0.000000 0.611227 0.922441
0.497369 0.276267 0.999321
0.999461 0.010664 0.998651
1.000000 0.104979 0.998940
0.000230 0.959670 0.848777
0.000230 0.959670 0.848777
0.000422 0.961978 0.862090
0.867531 0.900998 0.983454
1.000000 0.738997 0.998962
0.000230 0.959670 0.848777
0.000230 0.959670 0.848777
0.000230 0.959670 0.848777
0.512437 0.975407 0.914872
1.000000 1.000000 1.000000
