luts/GFX100II_FLog2C_FGamutC_to_WDR_BT.709_33grid_V.1.00.cube
#title:FLog2C_FGamutC_to_WDR_BT.709
#FUJIFILM Corporation
#Gamma:F-Log2C to Wide Dynamic Range curve
#Gamut:F-GamutC to ITU-R BT.709
#Version:1.00
LUT_3D_SIZE 33
0.000000 0.000000 0.000000
0.000000 0.000000 0.000000
0.000000 0.000000 0.000000
0.000000 0.000000 0.000000
0.029800 0.003566 0.003566
0.069572 0.008324 0.008324
0.114502 0.013700 0.013700
0.158272 0.018937 0.018937
0.204010 0.024409 0.024409
0.255151 0.030528 0.030528
0.310848 0.037192 0.037192
0.375743 0.043385 0.043385
0.450985 0.049222 0.049222
0.535802 0.054839 0.054839
0.618290 0.059386 0.059386
0.696253 0.062906 0.062906
0.769143 0.065553 0.065553
0.837385 0.067497 0.067497
0.841515 0.067599 0.067599
0.841515 0.067599 0.067599
0.841515 0.067599 0.067599
0.841515 0.067599 0.067599
0.841515 0.067599 0.067599
0.841515 0.067599 0.067599
0.841515 0.067599 0.067599
0.841515 0.067599 0.067599
0.841515 0.067599 0.067599
0.841515 0.067599 0.067599
0.841515 0.067599 0.067599
0.841515 0.067599 0.067599
0.841515 0.067599 0.067599
0.841515 0.067599 0.067599
0.841515 0.067599 0.067599
0.000000 0.000000 0.000000
0.000000 0.000000 0.000000
0.000000 0.000000 0.000000
0.000000 0.000000 0.000000
0.029800 0.003566 0.003566
0.069572 0.008324 0.008324
0.114502 0.013700 0.013700
0.158272 0.018937 0.018937
0.204010 0.024409 0.024409
0.255151 0.030528 0.030528
0.310848 0.037192 0.037192
0.375743 0.043385 0.043385
0.450985 0.049222 0.049222
0.535802 0.054839 0.054839
0.618290 0.059386 0.059386
0.696253 0.062906 0.062906
0.769143 0.065553 0.065553
0.837385 0.067497 0.067497
0.841515 0.067599 0.067599
0.841515 0.067599 0.067599
0.841515 0.067599 0.067599
0.841515 0.067599 0.067599
0.841515 0.067599 0.067599
0.841515 0.067599 0.067599
0.841515 0.067599 0.067599
0.841515 0.067599 0.067599
0.841515 0.067599 0.067599
0.841515 0.067599 0.067599
0.841515 0.067599 0.067599
0.841515 0.067599 0.067599
0.841515 0.067599 0.067599
0.841515 0.067599 0.067599
0.841515 0.067599 0.067599
0.000000 0.000000 0.000000
0.000000 0.000000 0.000000
0.000000 0.000000 0.000000
0.000000 0.000000 0.000000
0.029800 0.003566 0.003566
0.069572 0.008324 0.008324
0.114502 0.013700 0.013700
0.158272 0.018937 0.018937
0.204010 0.024409 0.024409
0.255151 0.030528 0.030528
0.310848 0.037192 0.037192
0.375743 0.043385 0.043385
0.450985 0.049222 0.049222
0.535802 0.054839 0.054839
0.618290 0.059386 0.059386
0.696253 0.062906 0.062906
0.769143 0.065553 0.065553
0.837385 0.067497 0.067497
0.841515 0.067599 0.067599
0.841515 0.067599 0.067599
0.841515 0.067599 0.067599
0.841515 0.067599 0.067599
0.841515 0.067599 0.067599
0.841515 0.067599 0.067599
0.841515 0.067599 0.067599
0.841515 0.067599 0.067599
0.841515 0.067599 0.067599
0.841515 0.067599 0.067599
0.841515 0.067599 0.067599
0.841515 0.067599 0.067599
0.841515 0.067599 0.067599
0.841515 0.067599 0.067599
0.841515 0.067599 0.067599
0.000000 0.000000 0.000000
0.000000 0.000000 0.000000
0.000000 0.000000 0.000000
0.000000 0.000000 0.000000
0.029800 0.003566 0.003566
0.069572 0.008324 0.008324
0.114502 0.013700 0.013700
0.158272 0.018937 0.018937
0.204010 0.024409 0.024409
0.255151 0.030528 0.030528
0.310848 0.037192 0.037192
0.375743 0.043385 0.043385
0.450985 0.049222 0.049222
0.535802 0.054839 0.054839
0.618290 0.059386 0.059386
0.696253 0.062906 0.062906
0.769143 0.065553 0.065553
0.837385 0.067497 0.067497
0.841515 0.067599 0.067599
0.841515 0.067599 0.067599
0.841515 0.067599 0.067599
0.841515 0.067599 0.067599
0.841515 0.067599 0.067599
0.841515 0.067599 0.067599
0.841515 0.067599 0.067599
0.841515 0.067599 0.067599
0.841515 0.067599 0.067599
0.841515 0.067599 0.067599
0.841515 0.067599 0.067599
0.841515 0.067599 0.067599
0.841515 0.067599 0.067599
0.841515 0.067599 0.067599
0.841515 0.067599 0.067599
0.004531 0.021514 0.004531
0.004531 0.021514 0.004531
0.004531 0.021514 0.004531
0.004531 0.021514 0.004531
0.018451 0.019659 0.005527
0.057170 0.019598 0.009267
0.105084 0.018682 0.013735
0.150028 0.017951 0.017951
0.197421 0.023621 0.023621
0.249803 0.029888 0.029888
0.306435 0.036664 0.036664
0.371808 0.043056 0.043056
0.447614 0.048978 0.048978
0.532886 0.054663 0.054663
0.615702 0.059257 0.059257
0.693906 0.062811 0.062811
0.766978 0.065483 0.065483
0.835363 0.067447 0.067447
0.841515 0.067599 0.067599
0.841515 0.067599 0.067599
0.841515 0.067599 0.067599
0.841515 0.067599 0.067599
0.841515 0.067599 0.067599
0.841515 0.067599 0.067599
0.841515 0.067599 0.067599
0.841515 0.067599 0.067599
0.841515 0.067599 0.067599
0.841515 0.067599 0.067599
0.841515 0.067599 0.067599
0.841515 0.067599 0.067599
0.841515 0.067599 0.067599
0.841515 0.067599 0.067599
0.841515 0.067599 0.067599
0.010573 0.050199 0.010573
0.010573 0.050199 0.010573
0.010573 0.050199 0.010573
0.010573 0.050199 0.010573
0.009812 0.046587 0.009812
0.043053 0.045871 0.012897
0.095465 0.045493 0.017903
0.143934 0.042687 0.022065
0.191374 0.037021 0.025584
0.242501 0.029015 0.029015
0.300452 0.035948 0.035948
0.366506 0.042610 0.042610
0.443085 0.048648 0.048648
0.528977 0.054424 0.054424
0.612238 0.059082 0.059082
0.690766 0.062682 0.062682
0.764084 0.065389 0.065389
0.832660 0.067379 0.067379
0.841515 0.067599 0.067599
0.841515 0.067599 0.067599
0.841515 0.067599 0.067599
0.841515 0.067599 0.067599
0.841515 0.067599 0.067599
0.841515 0.067599 0.067599
0.841515 0.067599 0.067599
0.841515 0.067599 0.067599
0.841515 0.067599 0.067599
0.841515 0.067599 0.067599
0.841515 0.067599 0.067599
0.841515 0.067599 0.067599
0.841515 0.067599 0.067599
0.841515 0.067599 0.067599
0.841515 0.067599 0.067599
0.018445 0.087576 0.018445
0.018445 0.087576 0.018445
0.018445 0.087576 0.018445
0.018445 0.087576 0.018445
0.017765 0.084347 0.017765
0.024209 0.080803 0.017715
0.079316 0.081031 0.023098
0.135227 0.078928 0.028115
0.186670 0.073741 0.032113
0.240163 0.064496 0.035537
0.295539 0.050392 0.038220
0.359335 0.041999 0.041999
0.436986 0.048199 0.048199
0.523728 0.054100 0.054100
0.607593 0.058846 0.058846
0.686562 0.062508 0.062508
0.760211 0.065261 0.065261
0.829046 0.067287 0.067287
0.841515 0.067599 0.067599
0.841515 0.067599 0.067599
0.841515 0.067599 0.067599
0.841515 0.067599 0.067599
0.841515 0.067599 0.067599
0.841515 0.067599 0.067599
0.841515 0.067599 0.067599
0.841515 0.067599 0.067599
0.841515 0.067599 0.067599
0.841515 0.067599 0.067599
0.841515 0.067599 0.067599
0.841515 0.067599 0.067599
0.841515 0.067599 0.067599
0.841515 0.067599 0.067599
0.841515 0.067599 0.067599
0.026652 0.126542 0.026652
0.026652 0.126542 0.026652
0.026652 0.126542 0.026652
0.026652 0.126542 0.026652
0.026123 0.124030 0.026123
0.025406 0.120623 0.025406
0.052750 0.119071 0.027760
0.119587 0.120603 0.034527
0.178626 0.118688 0.039743
0.237860 0.111995 0.043156
0.297792 0.098260 0.045471
0.361045 0.076926 0.046916
0.428871 0.047593 0.047593
0.516771 0.053665 0.053665
0.601452 0.058529 0.058529
0.681012 0.062275 0.062275
0.755104 0.065090 0.065090
0.824283 0.067163 0.067163
0.841515 0.067599 0.067599
0.841515 0.067599 0.067599
0.841515 0.067599 0.067599
0.841515 0.067599 0.067599
0.841515 0.067599 0.067599
0.841515 0.067599 0.067599
0.841515 0.067599 0.067599
0.841515 0.067599 0.067599
0.841515 0.067599 0.067599
0.841515 0.067599 0.067599
0.841515 0.067599 0.067599
0.841515 0.067599 0.067599
0.841515 0.067599 0.067599
0.841515 0.067599 0.067599
0.841515 0.067599 0.067599
0.035900 0.170447 0.035900
0.035900 0.170447 0.035900
0.035900 0.170447 0.035900
0.035900 0.170447 0.035900
0.035480 0.168455 0.035480
0.034914 0.165768 0.034914
0.034100 0.161902 0.034100
0.083855 0.162868 0.039104
0.160051 0.165456 0.045070
0.228576 0.163216 0.049310
0.295740 0.156042 0.052522
0.365645 0.141819 0.054872
0.438880 0.115221 0.055986
0.513650 0.072957 0.055556
0.592588 0.058063 0.058063
0.673019 0.061934 0.061934
0.747760 0.064839 0.064839
0.817440 0.066981 0.066981
0.841515 0.067599 0.067599
0.841515 0.067599 0.067599
0.841515 0.067599 0.067599
0.841515 0.067599 0.067599
0.841515 0.067599 0.067599
0.841515 0.067599 0.067599
0.841515 0.067599 0.067599
0.841515 0.067599 0.067599
0.841515 0.067599 0.067599
0.841515 0.067599 0.067599
0.841515 0.067599 0.067599
0.841515 0.067599 0.067599
0.841515 0.067599 0.067599
0.841515 0.067599 0.067599
0.841515 0.067599 0.067599
0.043951 0.216445 0.043951
0.043951 0.216445 0.043951
0.043951 0.216445 0.043951
0.043951 0.216445 0.043951
0.043697 0.214749 0.043697
0.043353 0.212471 0.043353
0.042858 0.209211 0.042858
0.042200 0.204933 0.042200
0.122436 0.209818 0.048376
0.207953 0.211774 0.053753
0.284319 0.208658 0.057448
0.361491 0.200174 0.060259
0.442647 0.184047 0.062303
0.526986 0.155702 0.063383
0.600205 0.111548 0.062886
0.662781 0.061485 0.061485
0.738372 0.064510 0.064510
0.808707 0.066742 0.066742
0.841515 0.067599 0.067599
0.841515 0.067599 0.067599
0.841515 0.067599 0.067599
0.841515 0.067599 0.067599
0.841515 0.067599 0.067599
0.841515 0.067599 0.067599
0.841515 0.067599 0.067599
0.841515 0.067599 0.067599
0.841515 0.067599 0.067599
0.841515 0.067599 0.067599
0.841515 0.067599 0.067599
0.841515 0.067599 0.067599
0.841515 0.067599 0.067599
0.841515 0.067599 0.067599
0.841515 0.067599 0.067599
0.051364 0.270514 0.051364
0.051364 0.270514 0.051364
0.051364 0.270514 0.051364
0.051364 0.270514 0.051364
0.051186 0.269095 0.051186
0.050947 0.267193 0.050947
0.050602 0.264480 0.050602
0.050147 0.260936 0.050147
0.049530 0.256204 0.049530
0.164284 0.264012 0.056882
0.258769 0.265251 0.061321
0.346448 0.261102 0.064309
0.435965 0.250996 0.066445
0.528978 0.232932 0.067873
0.613316 0.207506 0.068582
0.687203 0.173657 0.068721
0.748485 0.126704 0.068110
0.798597 0.071847 0.066739
0.841515 0.067599 0.067599
0.841515 0.067599 0.067599
0.841515 0.067599 0.067599
0.841515 0.067599 0.067599
0.841515 0.067599 0.067599
0.841515 0.067599 0.067599
0.841515 0.067599 0.067599
0.841515 0.067599 0.067599
0.841515 0.067599 0.067599
0.841515 0.067599 0.067599
0.841515 0.067599 0.067599
0.841515 0.067599 0.067599
0.841515 0.067599 0.067599
0.841515 0.067599 0.067599
0.841515 0.067599 0.067599
0.058102 0.330729 0.058102
0.058102 0.330729 0.058102
0.058102 0.330729 0.058102
0.058102 0.330729 0.058102
0.057983 0.329527 0.057983
0.057822 0.327917 0.057822
0.057591 0.325625 0.057591
0.057287 0.322640 0.057287
0.056877 0.318669 0.056877
0.065110 0.314284 0.056858
0.209182 0.323880 0.063825
0.316189 0.324195 0.067076
0.417285 0.318559 0.068979
0.519400 0.306477 0.070036
0.611635 0.289175 0.070464
0.693981 0.267337 0.070580
0.766971 0.241111 0.070585
0.831298 0.209771 0.070583
0.880971 0.171687 0.070579
0.862722 0.121317 0.069817
0.842050 0.068898 0.067670
0.841515 0.067599 0.067599
0.841515 0.067599 0.067599
0.841515 0.067599 0.067599
0.841515 0.067599 0.067599
0.841515 0.067599 0.067599
0.841515 0.067599 0.067599
0.841515 0.067599 0.067599
0.841515 0.067599 0.067599
0.841515 0.067599 0.067599
0.841515 0.067599 0.067599
0.841515 0.067599 0.067599
0.841515 0.067599 0.067599
0.063943 0.399578 0.063943
0.063943 0.399578 0.063943
0.063943 0.399578 0.063943
0.063943 0.399578 0.063943
0.063870 0.398550 0.063870
0.063772 0.397177 0.063772
0.063631 0.395225 0.063631
0.063445 0.392687 0.063445
0.063195 0.389320 0.063195
0.062839 0.384636 0.062839
0.089069 0.381725 0.063593
0.258217 0.391767 0.068707
0.380702 0.390867 0.070272
0.495753 0.383466 0.070576
0.596940 0.371370 0.070197
0.686662 0.355800 0.069551
0.766645 0.337494 0.068871
0.838539 0.316748 0.068287
0.902611 0.293930 0.067884
0.911864 0.268414 0.068700
0.903634 0.240978 0.069663
0.894327 0.211499 0.070322
0.883514 0.179060 0.070588
0.870326 0.141791 0.070277
0.854711 0.100470 0.069133
0.841515 0.067599 0.067599
0.841515 0.067599 0.067599
0.841515 0.067599 0.067599
0.841515 0.067599 0.067599
0.841515 0.067599 0.067599
0.841515 0.067599 0.067599
0.841515 0.067599 0.067599
0.841515 0.067599 0.067599
0.068261 0.476862 0.068261
0.068261 0.476862 0.068261
0.068261 0.476862 0.068261
0.068261 0.476862 0.068261
0.068224 0.475977 0.068224
0.068175 0.474794 0.068175
0.068104 0.473114 0.068104
0.068010 0.470933 0.068010
0.067884 0.468045 0.067884
0.067702 0.464036 0.067702
0.067451 0.458680 0.067451
0.123662 0.458188 0.068629
0.314217 0.467376 0.070588
0.452237 0.464830 0.069809
0.566059 0.456867 0.068235
0.664544 0.445544 0.066433
0.751507 0.431910 0.064657
0.829572 0.416509 0.063023
0.901412 0.399338 0.059390
0.944414 0.381325 0.058528
0.937318 0.363526 0.062887
0.932700 0.344911 0.064318
0.927924 0.326355 0.065605
0.923019 0.307973 0.066740
0.917999 0.289806 0.067723
0.912879 0.271895 0.068555
0.907674 0.254275 0.069238
0.902388 0.236941 0.069776
0.901122 0.232866 0.069883
0.901122 0.232866 0.069883
0.901122 0.232866 0.069883
0.901122 0.232866 0.069883
0.901122 0.232866 0.069883
0.070316 0.552016 0.070316
0.070316 0.552016 0.070316
0.070316 0.552016 0.070316
0.070316 0.552016 0.070316
0.070305 0.551233 0.070305
0.070290 0.550188 0.070290
0.070268 0.548704 0.070268
0.070238 0.546779 0.070238
0.070197 0.544232 0.070197
0.070137 0.540703 0.070137
0.070049 0.535997 0.070049
0.069918 0.529637 0.069918
0.199863 0.535346 0.070573
0.388202 0.540167 0.068517
0.520469 0.535936 0.065487
0.629960 0.527773 0.061530
0.727043 0.516995 0.052782
0.814571 0.503946 0.044990
0.893465 0.489490 0.038197
0.964729 0.474192 0.032366
0.972752 0.459523 0.035337
0.968112 0.445370 0.039842
0.963411 0.431645 0.044085
0.958704 0.418452 0.048044
0.954025 0.405840 0.051715
0.949412 0.393855 0.055100
0.944904 0.382532 0.058203
0.940525 0.371881 0.061034
0.939507 0.369452 0.061668
0.939507 0.369452 0.061668
0.939507 0.369452 0.061668
0.939507 0.369452 0.061668
0.939507 0.369452 0.061668
0.070422 0.622895 0.070422
0.070422 0.622895 0.070422
0.070422 0.622895 0.070422
0.070422 0.622895 0.070422
0.070430 0.622187 0.070430
0.070439 0.621243 0.070439
0.070452 0.619902 0.070452
0.070469 0.618163 0.070469
0.070488 0.615866 0.070488
0.070513 0.612684 0.070513
0.070540 0.608448 0.070540
0.070567 0.602734 0.070567
0.070586 0.595017 0.070586
0.296540 0.607319 0.067681
0.460285 0.607714 0.062801
0.584815 0.603532 0.049373
0.691501 0.595103 0.037451
0.786419 0.584101 0.026847
0.871436 0.571566 0.017506
0.948037 0.558146 0.009325
0.996548 0.544743 0.005594
0.993544 0.532494 0.010131
0.990530 0.520720 0.014413
0.987540 0.509507 0.018416
0.984602 0.498892 0.022137
0.981740 0.488905 0.025576
0.978976 0.479567 0.028736
0.976326 0.470874 0.031630
0.975715 0.468905 0.032279
0.975715 0.468905 0.032279
0.975715 0.468905 0.032279
0.975715 0.468905 0.032279
0.975715 0.468905 0.032279
0.068985 0.689470 0.068985
0.068985 0.689470 0.068985
0.068985 0.689470 0.068985
0.068985 0.689470 0.068985
0.069006 0.688819 0.069006
0.069034 0.687951 0.069034
0.069073 0.686719 0.069073
0.069123 0.685122 0.069123
0.069188 0.683013 0.069188
0.069275 0.680094 0.069275
0.069386 0.676211 0.069386
0.069529 0.670980 0.069529
0.069708 0.663927 0.069708
0.133316 0.661538 0.068822
0.381226 0.673794 0.057271
0.526314 0.673705 0.038955
0.644566 0.667639 0.023485
0.747571 0.658427 0.009922
0.838180 0.647367 0.000000
0.915403 0.635610 0.000000
0.983295 0.624106 0.000000
1.000000 0.612963 0.000000
1.000000 0.602245 0.000000
1.000000 0.592035 0.000000
1.000000 0.582369 0.000000
1.000000 0.573276 0.000000
1.000000 0.564778 0.000000
0.999416 0.556980 0.000977
0.999022 0.555264 0.001629
0.999022 0.555264 0.001629
0.999022 0.555264 0.001629
0.999022 0.555264 0.001629
0.999022 0.555264 0.001629
0.066371 0.751420 0.066371
0.066371 0.751420 0.066371
0.066371 0.751420 0.066371
0.066371 0.751420 0.066371
0.066402 0.750814 0.066402
0.066444 0.750005 0.066444
0.066502 0.748858 0.066502
0.066578 0.747371 0.066578
0.066677 0.745407 0.066677
0.066811 0.742692 0.066811
0.066987 0.739081 0.066987
0.067217 0.734221 0.067217
0.067514 0.727678 0.067514
0.067887 0.719046 0.067887
0.274359 0.731213 0.056593
0.454588 0.737846 0.031283
0.587837 0.734547 0.011623
0.699663 0.726373 0.000000
0.794072 0.715717 0.000000
0.875558 0.705172 0.000000
0.946606 0.694891 0.000000
1.000000 0.684968 0.000000
1.000000 0.675457 0.000000
1.000000 0.666430 0.000000
1.000000 0.657914 0.000000
1.000000 0.649932 0.000000
1.000000 0.642497 0.000000
1.000000 0.635603 0.000000
1.000000 0.634045 0.000000
1.000000 0.634045 0.000000
1.000000 0.634045 0.000000
1.000000 0.634045 0.000000
1.000000 0.634045 0.000000
0.062901 0.808736 0.062901
0.062901 0.808736 0.062901
0.062901 0.808736 0.062901
0.062901 0.808736 0.062901
0.062941 0.808165 0.062941
0.062993 0.807403 0.062993
0.063067 0.806323 0.063067
0.063163 0.804923 0.063163
0.063288 0.803075 0.063288
0.063459 0.800520 0.063459
0.063684 0.797124 0.063684
0.063980 0.792557 0.063980
0.064370 0.786412 0.064370
0.064866 0.778317 0.064866
0.084310 0.771302 0.064685
0.367496 0.795312 0.027487
0.522127 0.795795 0.002438
0.646037 0.786704 0.000000
0.747737 0.776940 0.000000
0.834157 0.767300 0.000000
0.908766 0.757924 0.000000
0.973891 0.748897 0.000000
1.000000 0.740266 0.000000
1.000000 0.732093 0.000000
1.000000 0.724401 0.000000
1.000000 0.717207 0.000000
1.000000 0.710521 0.000000
1.000000 0.704335 0.000000
1.000000 0.702938 0.000000
1.000000 0.702938 0.000000
1.000000 0.702938 0.000000
1.000000 0.702938 0.000000
1.000000 0.702938 0.000000
0.051437 0.866745 0.051437
0.051437 0.866745 0.051437
0.051437 0.866745 0.051437
0.051437 0.866745 0.051437
0.051566 0.866144 0.051566
0.051738 0.865342 0.051738
0.051981 0.864205 0.051981
0.052296 0.862733 0.052296
0.052709 0.860790 0.052709
0.053277 0.858105 0.053277
0.054027 0.854540 0.054027
0.055026 0.849751 0.055026
0.056352 0.843317 0.056352
0.058069 0.834858 0.058069
0.059947 0.825423 0.059947
0.256742 0.844405 0.029620
0.448328 0.850058 0.000000
0.588852 0.840968 0.000000
0.699436 0.831896 0.000000
0.791570 0.822955 0.000000
0.870177 0.814274 0.000000
0.938259 0.805929 0.000000
0.997860 0.797965 0.000000
1.000000 0.790436 0.000000
1.000000 0.783362 0.000000
1.000000 0.776756 0.000000
1.000000 0.770626 0.000000
1.000000 0.764962 0.000000
1.000000 0.763685 0.000000
1.000000 0.763685 0.000000
1.000000 0.763685 0.000000
1.000000 0.763685 0.000000
1.000000 0.763685 0.000000
0.039278 0.920590 0.039278
0.039278 0.920590 0.039278
0.039278 0.920590 0.039278
0.039278 0.920590 0.039278
0.039415 0.920010 0.039415
0.039598 0.919237 0.039598
0.039857 0.918140 0.039857
0.040191 0.916719 0.040191
0.040631 0.914845 0.040631
0.041237 0.912256 0.041237
0.042037 0.908818 0.042037
0.043104 0.904201 0.043104
0.044523 0.898002 0.044523
0.046363 0.889856 0.046363
0.048383 0.880777 0.048383
0.075501 0.875549 0.046228
0.364118 0.898289 0.000000
0.527791 0.889739 0.000000
0.649379 0.881216 0.000000
0.748149 0.872827 0.000000
0.831230 0.864692 0.000000
0.902540 0.856883 0.000000
0.964584 0.849439 0.000000
1.000000 0.842411 0.000000
1.000000 0.835815 0.000000
1.000000 0.829663 0.000000
1.000000 0.823960 0.000000
1.000000 0.818696 0.000000
1.000000 0.817509 0.000000
1.000000 0.817509 0.000000
1.000000 0.817509 0.000000
1.000000 0.817509 0.000000
1.000000 0.817509 0.000000
0.027053 0.970199 0.027053
0.027053 0.970199 0.027053
0.027053 0.970199 0.027053
0.027053 0.970199 0.027053
0.027197 0.969636 0.027197
0.027389 0.968886 0.027389
0.027660 0.967822 0.027660
0.028011 0.966445 0.028011
0.028473 0.964627 0.028473
0.029109 0.962117 0.029109
0.029950 0.958785 0.029950
0.031072 0.954311 0.031072
0.032566 0.948306 0.032566
0.034506 0.940418 0.034506
0.036640 0.931632 0.036640
0.038864 0.922333 0.038864
0.261152 0.941706 0.000000
0.461968 0.933593 0.000000
0.597574 0.925515 0.000000
0.704108 0.917571 0.000000
0.792192 0.909875 0.000000
0.867016 0.902495 0.000000
0.931669 0.895467 0.000000
0.987950 0.888837 0.000000
1.000000 0.882621 0.000000
1.000000 0.876827 0.000000
1.000000 0.871462 0.000000
1.000000 0.866513 0.000000
1.000000 0.865398 0.000000
1.000000 0.865398 0.000000
1.000000 0.865398 0.000000
1.000000 0.865398 0.000000
1.000000 0.865398 0.000000
0.023652 0.983359 0.023652
0.023652 0.983359 0.023652
0.023652 0.983359 0.023652
0.023652 0.983359 0.023652
0.023652 0.983359 0.023652
0.023652 0.983359 0.023652
0.023652 0.983359 0.023652
0.023652 0.983359 0.023652
0.023652 0.983359 0.023652
0.023652 0.983359 0.023652
0.023652 0.983359 0.023652
0.023652 0.983359 0.023652
0.023652 0.983359 0.023652
0.023652 0.983359 0.023652
0.025018 0.978104 0.025018
0.027343 0.969067 0.027343
0.118403 0.973537 0.011664
0.389852 0.972928 0.000000
0.544030 0.965213 0.000000
0.659721 0.957633 0.000000
0.753393 0.950295 0.000000
0.832017 0.943263 0.000000
0.899433 0.936572 0.000000
0.957809 0.930265 0.000000
1.000000 0.924354 0.000000
1.000000 0.918850 0.000000
1.000000 0.913756 0.000000
1.000000 0.909060 0.000000
1.000000 0.908002 0.000000
1.000000 0.908002 0.000000
1.000000 0.908002 0.000000
1.000000 0.908002 0.000000
1.000000 0.908002 0.000000
0.023652 0.983359 0.023652
0.023652 0.983359 0.023652
0.023652 0.983359 0.023652
0.023652 0.983359 0.023652
0.023652 0.983359 0.023652
0.023652 0.983359 0.023652
0.023652 0.983359 0.023652
0.023652 0.983359 0.023652
0.023652 0.983359 0.023652
0.023652 0.983359 0.023652
0.023652 0.983359 0.023652
0.023652 0.983359 0.023652
0.023652 0.983359 0.023652
0.023652 0.983359 0.023652
0.023652 0.983359 0.023652
0.023652 0.983359 0.023652
0.023652 0.983359 0.023652
0.307801 1.000000 0.000000
0.488355 1.000000 0.000000
0.615028 0.993561 0.000000
0.714961 0.986520 0.000000
0.797690 0.979776 0.000000
0.868023 0.973362 0.000000
0.928575 0.967320 0.000000
0.981231 0.961661 0.000000
1.000000 0.956394 0.000000
1.000000 0.951521 0.000000
1.000000 0.947032 0.000000
1.000000 0.946021 0.000000
1.000000 0.946021 0.000000
1.000000 0.946021 0.000000
1.000000 0.946021 0.000000
1.000000 0.946021 0.000000
0.023652 0.983359 0.023652
0.023652 0.983359 0.023652
0.023652 0.983359 0.023652
0.023652 0.983359 0.023652
0.023652 0.983359 0.023652
0.023652 0.983359 0.023652
0.023652 0.983359 0.023652
0.023652 0.983359 0.023652
0.023652 0.983359 0.023652
0.023652 0.983359 0.023652
0.023652 0.983359 0.023652
0.023652 0.983359 0.023652
0.023652 0.983359 0.023652
0.023652 0.983359 0.023652
0.023652 0.983359 0.023652
0.023652 0.983359 0.023652
0.023652 0.983359 0.023652
0.206924 1.000000 0.000000
0.430019 1.000000 0.000000
0.570130 1.000000 0.000000
0.677095 1.000000 0.000000
0.764243 1.000000 0.000000
0.837635 1.000000 0.000000
0.900432 1.000000 0.000000
0.954804 0.994986 0.000000
1.000000 0.989916 0.000000
1.000000 0.985226 0.000000
1.000000 0.980908 0.000000
1.000000 0.979935 0.000000
1.000000 0.979935 0.000000
1.000000 0.979935 0.000000
1.000000 0.979935 0.000000
1.000000 0.979935 0.000000
0.023652 0.983359 0.023652
0.023652 0.983359 0.023652
0.023652 0.983359 0.023652
0.023652 0.983359 0.023652
0.023652 0.983359 0.023652
0.023652 0.983359 0.023652
0.023652 0.983359 0.023652
0.023652 0.983359 0.023652
0.023652 0.983359 0.023652
0.023652 0.983359 0.023652
0.023652 0.983359 0.023652
0.023652 0.983359 0.023652
0.023652 0.983359 0.023652
0.023652 0.983359 0.023652
0.023652 0.983359 0.023652
0.023652 0.983359 0.023652
0.023652 0.983359 0.023652
0.062338 0.989629 0.015643
0.368006 1.000000 0.000000
0.525053 1.000000 0.000000
0.639949 1.000000 0.000000
0.731836 1.000000 0.000000
0.808420 1.000000 0.000000
0.873516 1.000000 0.000000
0.929622 1.000000 0.000000
0.978378 1.000000 0.000000
1.000000 1.000000 0.000000
1.000000 1.000000 0.000000
1.000000 1.000000 0.000000
1.000000 1.000000 0.000000
1.000000 1.000000 0.000000
1.000000 1.000000 0.000000
1.000000 1.000000 0.000000
0.023652 0.983359 0.023652
0.023652 0.983359 0.023652
0.023652 0.983359 0.023652
0.023652 0.983359 0.023652
0.023652 0.983359 0.023652
0.023652 0.983359 0.023652
0.023652 0.983359 0.023652
0.023652 0.983359 0.023652
0.023652 0.983359 0.023652
0.023652 0.983359 0.023652
0.023652 0.983359 0.023652
0.023652 0.983359 0.023652
0.023652 0.983359 0.023652
0.023652 0.983359 0.023652
0.023652 0.983359 0.023652
0.023652 0.983359 0.023652
0.023652 0.983359 0.023652
0.023652 0.983359 0.023652
0.300344 1.000000 0.000000
0.479735 1.000000 0.000000
0.603627 1.000000 0.000000
0.700588 1.000000 0.000000
0.780483 1.000000 0.000000
0.847918 1.000000 0.000000
