luts/GFX100II_FLog2C_FGamutC_to_WDR_BT.709_33grid_V.1.00.cube
#title:FLog2C_FGamutC_to_WDR_BT.709
#FUJIFILM Corporation
#Gamma:F-Log2C to Wide Dynamic Range curve
#Gamut:F-GamutC to ITU-R BT.709
#Version:1.00
LUT_3D_SIZE 5
0.000000 0.000000 0.000000
0.204010 0.024409 0.024409
0.769143 0.065553 0.065553
0.841515 0.067599 0.067599
0.841515 0.067599 0.067599
0.035900 0.170447 0.035900
0.160051 0.165456 0.045070
0.747760 0.064839 0.064839
0.841515 0.067599 0.067599
0.841515 0.067599 0.067599
0.068985 0.689470 0.068985
0.069188 0.683013 0.069188
0.644566 0.667639 0.023485
1.000000 0.582369 0.000000
0.999022 0.555264 0.001629
0.023652 0.983359 0.023652
0.023652 0.983359 0.023652
0.023652 0.983359 0.023652
0.954804 0.994986 0.000000
1.000000 0.979935 0.000000
0.023652 0.983359 0.023652
0.023652 0.983359 0.023652
0.023652 0.983359 0.023652
0.877016 1.000000 0.000000
1.000000 1.000000 0.000000
0.006274 0.006274 0.127344
0.207564 0.030310 0.150337
0.778314 0.067193 0.190767
0.850567 0.068704 0.178143
0.850183 0.068661 0.173356
0.038967 0.163684 0.148773
0.156583 0.156583 0.156583
0.755739 0.066420 0.175692
0.849305 0.068563 0.162429
0.848876 0.068514 0.157106
0.069111 0.685496 0.069111
0.069306 0.679008 0.069306
0.642929 0.663148 0.025081
1.000000 0.577364 0.000000
0.997850 0.550228 0.003535
0.023652 0.983359 0.023652
0.023652 0.983359 0.023652
0.023652 0.983359 0.023652
0.953889 0.992189 0.000000
1.000000 0.977090 0.000000
0.023652 0.983359 0.023652
0.023652 0.983359 0.023652
0.023652 0.983359 0.023652
0.876012 1.000000 0.000000
1.000000 1.000000 0.000000
0.024285 0.024285 0.492946
0.200369 0.043856 0.518776
0.800250 0.070246 0.611776
0.882677 0.070588 0.616575
0.882596 0.070588 0.615372
0.024127 0.024127 0.489744
0.106918 0.034020 0.499343
0.778054 0.070022 0.605479
0.882421 0.070587 0.612754
0.882340 0.070587 0.611543
0.065061 0.668354 0.614407
0.065472 0.661585 0.613162
0.627717 0.627717 0.627717
1.000000 0.529272 0.625000
1.000000 0.498987 0.623471
0.000000 1.000000 0.575011
0.000000 1.000000 0.574505
0.000000 1.000000 0.569855
0.945475 0.966165 0.563773
1.000000 0.950607 0.562069
0.000000 1.000000 0.556794
0.000000 1.000000 0.556270
0.000000 1.000000 0.551460
0.866760 1.000000 0.545165
1.000000 1.000000 0.543401
0.035625 0.035625 0.723125
0.171607 0.048526 0.756203
0.806397 0.070563 0.886617
0.900617 0.069924 0.900617
0.900587 0.069926 0.900106
0.035625 0.035625 0.723125
0.046820 0.036964 0.724464
0.784011 0.070588 0.883118
0.900482 0.069934 0.898347
0.900433 0.069938 0.897534
0.064057 0.626447 0.913243
0.064539 0.619226 0.911382
0.615486 0.568352 0.973695
1.000000 0.459435 0.970293
1.000000 0.424128 0.969345
0.000000 1.000000 0.940037
0.000000 1.000000 0.939739
0.000000 0.987193 0.937008
0.932186 0.932186 0.932186
1.000000 0.915089 0.932467
0.000000 1.000000 0.929414
0.000000 1.000000 0.929112
0.000000 1.000000 0.926346
0.854631 1.000000 0.922750
1.000000 1.000000 0.921748
0.035625 0.035625 0.723125
0.158700 0.047496 0.752755
0.803359 0.070569 0.886146
0.900617 0.069924 0.900617
0.900617 0.069924 0.900617
0.035625 0.035625 0.723125
0.035625 0.035625 0.723125
0.780899 0.070588 0.882626
0.900617 0.069924 0.900617
0.900617 0.069924 0.900617
0.064728 0.612311 0.931252
0.065192 0.604944 0.929534
0.610706 0.551791 0.997253
1.000000 0.438057 1.000000
1.000000 0.400884 1.000000
0.000000 1.000000 1.000000
0.000000 1.000000 1.000000
0.000000 0.977885 1.000000
0.931386 0.921369 1.000000
1.000000 0.904957 1.000000
0.000000 1.000000 1.000000
0.000000 1.000000 1.000000
0.000000 1.000000 1.000000
0.851231 1.000000 1.000000
1.000000 1.000000 1.000000
