luts/GFX100II_FLog2C_FGamutC_to_ETERNA-BB_BT.709_33grid_V.1.00.cube
#title:FLog2C_FGamutC_to_ETERNA-BB_BT.709
#FUJIFILM Corporation
#Gamma:F-Log2C to ETERNA BLEACH BYPASS
#Gamut:F-GamutC to ITU-R BT.709
#Version:1.00
LUT_3D_SIZE 9
0.000000 0.000000 0.000000
0.058059 0.006681 0.010348
0.339532 0.065291 0.058230
0.720991 0.240130 0.230531
0.812518 0.410521 0.372355
0.812518 0.410521 0.372355
0.812518 0.410521 0.372355
0.812518 0.410521 0.372355
0.812518 0.410521 0.372355
0.000000 0.040328 0.007109
0.023839 0.013793 0.003512
0.165962 0.026244 0.020661
0.613549 0.147977 0.164468
0.812518 0.410521 0.372355
0.812518 0.410521 0.372355
0.812518 0.410521 0.372355
0.812518 0.410521 0.372355
0.812518 0.410521 0.372355
0.000427 0.182605 0.035187
0.000677 0.120286 0.021328
0.109395 0.105196 0.010909
0.457163 0.136584 0.102192
0.757678 0.316266 0.256246
0.812518 0.410521 0.372355
0.812518 0.410521 0.372355
0.812518 0.410521 0.372355
0.812518 0.410521 0.372355
0.000000 0.606416 0.167343
0.000577 0.457823 0.108204
0.028831 0.340228 0.082796
0.355940 0.313220 0.083497
0.808945 0.488387 0.297738
0.872422 0.543799 0.402746
0.850766 0.491630 0.394079
0.830278 0.446107 0.382394
0.812518 0.410521 0.372355
0.136056 0.891105 0.331609
0.000000 0.834243 0.279218
0.000303 0.758964 0.237311
0.388802 0.724193 0.271164
0.810856 0.771652 0.316132
0.923670 0.755720 0.359272
0.914336 0.685513 0.411172
0.898357 0.621869 0.412442
0.877294 0.560684 0.405813
0.226762 0.897706 0.350970
0.220702 0.897509 0.350746
0.199197 0.894990 0.351586
0.410130 0.916893 0.370875
0.755762 0.945123 0.381219
0.943467 0.938022 0.310953
0.942146 0.876014 0.333878
0.937496 0.825763 0.347843
0.929520 0.766862 0.397926
0.237514 0.898462 0.353144
0.237514 0.898462 0.353144
0.235168 0.898182 0.352167
0.262733 0.900226 0.355012
0.545988 0.935482 0.389977
0.871084 0.971484 0.414164
0.944415 0.967614 0.344551
0.941504 0.947736 0.308915
0.944262 0.921662 0.316007
0.245920 0.898938 0.354345
0.237514 0.898462 0.353144
0.237514 0.898462 0.353144
0.237514 0.898462 0.353144
0.395663 0.916220 0.369453
0.684194 0.955694 0.403132
0.916831 0.976135 0.407293
0.945180 0.978863 0.387418
0.946942 0.977501 0.381250
0.343051 0.913185 0.505937
0.263316 0.900860 0.367347
0.245920 0.898938 0.354345
0.237514 0.898462 0.353144
0.301049 0.903361 0.358302
0.558110 0.935540 0.392152
0.844497 0.969072 0.419220
0.945180 0.978863 0.387418
0.945180 0.978863 0.387418
0.000000 0.000331 0.007898
0.048283 0.006902 0.009149
0.301810 0.054148 0.051789
0.707712 0.223775 0.221074
0.812518 0.410521 0.372355
0.812518 0.410521 0.372355
0.812518 0.410521 0.372355
0.812518 0.410521 0.372355
0.812518 0.410521 0.372355
0.003868 0.043854 0.038171
0.016602 0.016602 0.016602
0.144849 0.022724 0.017062
0.582089 0.131703 0.150884
0.812518 0.410521 0.372355
0.812518 0.410521 0.372355
0.812518 0.410521 0.372355
0.812518 0.410521 0.372355
0.812518 0.410521 0.372355
0.006459 0.205368 0.099180
0.013958 0.131264 0.058472
0.107624 0.112514 0.046410
0.422560 0.136390 0.082574
0.755533 0.309653 0.253093
0.812518 0.410521 0.372355
0.812518 0.410521 0.372355
0.812518 0.410521 0.372355
0.812518 0.410521 0.372355
0.000000 0.653598 0.278333
0.000000 0.497415 0.173086
0.006131 0.361697 0.108892
0.337738 0.327226 0.127647
0.794670 0.493383 0.292325
0.877294 0.560684 0.405813
0.854079 0.504553 0.395946
0.832029 0.455067 0.383063
0.814078 0.414820 0.371825
0.203870 0.900398 0.448544
0.000405 0.848466 0.341565
0.000000 0.775615 0.255954
0.364549 0.735408 0.268458
0.790520 0.776788 0.308766
0.926782 0.775650 0.359857
0.920579 0.702038 0.412507
0.901278 0.636802 0.413555
0.880607 0.573943 0.405949
0.237514 0.898462 0.353144
0.226762 0.897706 0.350970
0.219725 0.896196 0.351500
0.383934 0.914152 0.368030
0.734449 0.947600 0.381528
0.939551 0.945111 0.310423
0.942922 0.884669 0.330110
0.938069 0.840753 0.346250
0.933809 0.782105 0.393847
0.316866 0.907516 0.458188
0.245920 0.898938 0.354345
0.237514 0.898462 0.353144
0.254327 0.899749 0.353811
0.517840 0.931124 0.383448
0.850558 0.969941 0.415981
0.946558 0.971204 0.363277
0.944042 0.952675 0.311090
0.944060 0.928669 0.314723
0.354177 0.919134 0.591759
0.346183 0.912805 0.491118
0.245920 0.898938 0.354345
0.237514 0.898462 0.353144
0.377873 0.913955 0.367809
0.661713 0.952535 0.401264
0.900994 0.975151 0.411063
0.945180 0.978863 0.387418
0.945180 0.978863 0.387418
0.378982 0.925070 0.701719
0.365119 0.920182 0.617630
0.339920 0.914574 0.515567
0.269960 0.901019 0.383366
0.295964 0.903804 0.360785
0.537582 0.935006 0.388777
0.826315 0.968481 0.418550
0.945180 0.978863 0.387418
0.945180 0.978863 0.387418
0.003121 0.000532 0.040468
0.040652 0.006343 0.049171
0.271710 0.046155 0.051962
0.687787 0.204237 0.211172
0.812518 0.410521 0.372355
0.812518 0.410521 0.372355
0.812518 0.410521 0.372355
0.812518 0.410521 0.372355
0.812518 0.410521 0.372355
0.013634 0.044210 0.096391
0.016995 0.006861 0.057157
0.124323 0.009755 0.077714
0.550627 0.115094 0.139028
0.801393 0.391130 0.355754
0.812518 0.410521 0.372355
0.812518 0.410521 0.372355
0.812518 0.410521 0.372355
0.812518 0.410521 0.372355
0.049226 0.238204 0.229118
0.031917 0.146736 0.137284
0.116211 0.116211 0.116211
0.414528 0.140099 0.170211
0.747529 0.295836 0.251003
0.816424 0.415435 0.371069
0.812518 0.410521 0.372355
0.812518 0.410521 0.372355
0.812518 0.410521 0.372355
0.003826 0.703475 0.496659
0.000000 0.560463 0.353567
0.040483 0.409084 0.220238
0.351774 0.358093 0.223149
0.794660 0.490935 0.364918
0.889005 0.579365 0.441671
0.861689 0.519036 0.404203
0.836319 0.468630 0.387637
0.820521 0.423666 0.377905
0.260327 0.912146 0.651160
0.145418 0.870523 0.567227
0.000000 0.808981 0.453687
0.373691 0.766340 0.393598
0.790682 0.792926 0.430840
0.943373 0.788795 0.454243
0.931311 0.718734 0.452582
0.909865 0.651589 0.426250
0.887827 0.591109 0.409992
0.354376 0.916496 0.570546
0.314892 0.913101 0.537394
0.287922 0.908426 0.503712
0.377461 0.916784 0.482824
0.719379 0.949128 0.473156
0.934055 0.946702 0.436574
0.949155 0.890009 0.449031
0.947432 0.848736 0.434777
0.935944 0.796017 0.419410
0.373516 0.922578 0.668925
0.351638 0.916882 0.575738
0.326439 0.911275 0.473676
0.245920 0.898938 0.354345
0.486953 0.927488 0.380382
0.830030 0.968735 0.416066
0.948503 0.975413 0.413598
0.947737 0.957781 0.403609
0.947956 0.932144 0.380840
0.394024 0.929979 0.756921
0.377422 0.922787 0.691866
0.359844 0.918988 0.603339
0.346766 0.913104 0.505185
0.372789 0.913056 0.377215
0.642948 0.948957 0.400376
0.892588 0.973666 0.415055
0.945180 0.978863 0.387418
0.945180 0.978863 0.387418
0.415125 0.934413 0.815808
0.401645 0.931115 0.773918
0.378197 0.927074 0.710593
0.365704 0.921487 0.626504
0.379797 0.918311 0.537360
0.536596 0.935615 0.439629
0.813216 0.967110 0.417129
0.945180 0.978863 0.387418
0.945180 0.978863 0.387418
0.017376 0.003076 0.127042
0.051786 0.006338 0.105660
0.240440 0.014379 0.143402
0.675284 0.185785 0.253321
0.816615 0.417408 0.386113
0.812518 0.410521 0.372355
0.812518 0.410521 0.372355
0.812518 0.410521 0.372355
0.812518 0.410521 0.372355
0.038861 0.006749 0.240242
0.024021 0.003236 0.143062
0.132718 0.009463 0.142854
0.540066 0.098835 0.241878
0.805691 0.384961 0.401945
0.819152 0.421003 0.395211
0.812518 0.410521 0.372355
0.812518 0.410521 0.372355
0.812518 0.410521 0.372355
0.124834 0.258145 0.459250
0.082708 0.160309 0.319667
0.132611 0.120664 0.230164
0.412161 0.145679 0.259047
0.754365 0.282507 0.361668
0.839842 0.452125 0.446251
0.821689 0.424263 0.406039
0.814471 0.412474 0.374308
0.812518 0.410521 0.372355
0.149622 0.731258 0.673644
0.128821 0.611884 0.571910
0.133075 0.461669 0.434762
0.394531 0.394531 0.394531
0.801094 0.489939 0.481663
0.914184 0.607298 0.548754
0.882571 0.549106 0.485859
0.852325 0.488872 0.429887
0.826763 0.438175 0.389624
0.308209 0.911217 0.770219
0.229450 0.881720 0.726051
0.121387 0.833921 0.655961
0.398851 0.797443 0.604336
0.794942 0.806538 0.615125
0.963288 0.796140 0.586921
0.950832 0.733128 0.558551
0.930363 0.673010 0.502048
0.904227 0.608332 0.458188
0.388165 0.927817 0.732028
0.365492 0.923358 0.711656
0.336760 0.919038 0.689331
0.392866 0.926454 0.683883
0.709766 0.947338 0.687476
0.936955 0.946993 0.633059
0.963008 0.894802 0.593602
0.959140 0.854646 0.536394
0.948046 0.805630 0.492363
0.412589 0.932162 0.799789
0.395785 0.928615 0.750754
0.377814 0.923466 0.678778
0.353200 0.918493 0.589051
0.540674 0.938613 0.593382
0.826869 0.968493 0.614059
0.953164 0.980055 0.574496
0.953385 0.957444 0.536152
0.951259 0.935225 0.493370
0.437796 0.937192 0.844832
0.414148 0.934108 0.811370
0.397345 0.929891 0.765798
0.378006 0.924094 0.700743
0.456410 0.930441 0.633751
0.662661 0.953898 0.580223
0.886126 0.973368 0.484942
0.949278 0.979028 0.435784
0.947325 0.977747 0.430371
0.459885 0.938664 0.864980
0.442095 0.938079 0.854683
0.421186 0.933602 0.821222
0.403013 0.929746 0.777379
0.395987 0.927994 0.719161
0.602820 0.948053 0.698735
0.820607 0.968918 0.645429
0.949852 0.979567 0.508601
0.946740 0.977786 0.414575
0.049593 0.010675 0.346075
0.068380 0.010410 0.246769
0.260363 0.017448 0.238097
0.666696 0.152177 0.337530
0.835352 0.440863 0.464616
0.831063 0.433686 0.427163
0.817592 0.418049 0.388821
0.812518 0.410521 0.372355
0.812518 0.410521 0.372355
0.084368 0.013321 0.498235
0.053499 0.010212 0.372476
0.168660 0.014387 0.314496
0.527199 0.032603 0.359671
0.779143 0.327815 0.448876
0.834376 0.438207 0.472293
0.833599 0.436945 0.437993
0.820129 0.421644 0.397917
0.812518 0.410521 0.372355
0.175280 0.219761 0.618812
0.133520 0.142145 0.545485
0.164063 0.108275 0.451320
0.437945 0.137469 0.447855
0.757879 0.258849 0.517102
0.838272 0.444370 0.524567
0.832423 0.434237 0.480723
0.835744 0.441878 0.449797
0.824618 0.427192 0.408968
0.252269 0.709827 0.754632
0.221471 0.611941 0.696964
0.202822 0.483479 0.619234
0.441989 0.414146 0.597371
0.800288 0.479990 0.672066
0.925692 0.617527 0.662930
0.903643 0.577450 0.601593
0.880034 0.532739 0.542519
0.852527 0.474136 0.470972
0.334413 0.892209 0.825062
0.284388 0.868376 0.796297
0.228312 0.833687 0.762202
0.426972 0.808237 0.757697
0.807617 0.807617 0.807617
0.982617 0.791086 0.767832
0.971713 0.749755 0.709426
0.954567 0.693917 0.639301
0.927645 0.637963 0.569707
0.427437 0.936779 0.831297
0.403790 0.930671 0.813410
0.373879 0.929692 0.802667
0.393822 0.929592 0.793707
0.689218 0.942245 0.827560
0.935948 0.943378 0.825637
0.979993 0.892831 0.756230
0.978078 0.855636 0.695785
0.967567 0.812968 0.634672
0.453824 0.938803 0.863027
0.432128 0.935657 0.841902
0.414933 0.931768 0.804227
0.393047 0.928666 0.757676
0.551003 0.945126 0.755481
0.826639 0.972525 0.808059
0.972091 0.985319 0.771871
0.965668 0.961205 0.724429
0.964722 0.936653 0.664875
0.459885 0.938664 0.864980
0.459885 0.938664 0.864980
0.440142 0.936799 0.849269
0.420210 0.933298 0.816785
0.470455 0.938551 0.786442
0.703091 0.959328 0.788871
0.897221 0.978358 0.755665
0.960383 0.984114 0.646028
0.959608 0.982516 0.613457
0.459885 0.938664 0.864980
0.459885 0.938664 0.864980
0.459885 0.938664 0.864980
0.442095 0.937743 0.856414
0.425484 0.935498 0.825883
0.602992 0.951515 0.826087
0.844811 0.976719 0.850172
0.969353 0.987386 0.768410
0.960383 0.983442 0.649489
0.098040 0.013550 0.581125
0.109978 0.013747 0.497394
0.312130 0.023260 0.466450
0.653446 0.067886 0.497918
0.817782 0.395487 0.530188
0.826372 0.419684 0.494430
0.836329 0.441168 0.469055
0.833993 0.436280 0.431825
0.821106 0.423293 0.395434
0.126963 0.014128 0.647911
0.107028 0.013988 0.598120
0.222774 0.016444 0.564590
0.566051 0.056060 0.573872
0.766286 0.251596 0.558101
0.817591 0.388475 0.541101
0.827157 0.414320 0.502859
0.833399 0.436558 0.474776
0.834767 0.441910 0.443628
0.153742 0.013807 0.682125
0.134001 0.013622 0.657762
0.168219 0.013567 0.628258
0.451877 0.040859 0.634644
0.745193 0.200881 0.677539
0.828333 0.387790 0.610679
0.814078 0.380205 0.550063
0.825203 0.410014 0.513019
0.833208 0.430217 0.482231
0.302662 0.537720 0.737690
0.278468 0.481957 0.719925
0.246090 0.398064 0.688573
0.461379 0.352533 0.709577
0.786253 0.406777 0.794606
0.904227 0.550864 0.754098
0.888803 0.538650 0.686112
0.867339 0.502568 0.619808
0.849981 0.464396 0.553504
0.362219 0.841585 0.824344
0.323921 0.817132 0.810843
0.292078 0.790530 0.800050
0.440682 0.767174 0.813242
0.794730 0.771105 0.892360
0.976566 0.753681 0.899210
0.965059 0.738075 0.812722
0.954547 0.694735 0.755070
0.941105 0.648129 0.696218
0.459885 0.938664 0.864980
0.453824 0.938803 0.863027
0.400075 0.924032 0.848773
0.387771 0.908654 0.840293
0.651104 0.921013 0.882660
0.926758 0.926758 0.926758
0.990140 0.889402 0.884336
0.989979 0.857805 0.841864
0.989826 0.816558 0.789093
0.459885 0.938664 0.864980
0.459885 0.938664 0.864980
0.454801 0.939780 0.864004
0.437796 0.937192 0.844832
0.548447 0.946046 0.843117
0.812937 0.973691 0.897957
0.982432 0.985878 0.904637
0.982069 0.959272 0.871261
0.977990 0.935100 0.826528
0.459885 0.938664 0.864980
0.459885 0.938664 0.864980
0.459885 0.938664 0.864980
0.459885 0.938664 0.864980
0.493510 0.941913 0.862856
0.690368 0.961470 0.879747
0.904621 0.983957 0.904450
0.981264 0.991331 0.845356
0.975404 0.990513 0.813538
0.459885 0.938664 0.864980
0.459885 0.938664 0.864980
0.459885 0.938664 0.864980
0.459885 0.938664 0.864980
0.459885 0.938664 0.864980
0.602198 0.953759 0.893711
0.834240 0.977504 0.925250
0.978707 0.993930 0.924339
0.982823 0.992605 0.860398
0.135561 0.013889 0.677996
0.139083 0.014186 0.650085
0.372113 0.032281 0.656731
0.676461 0.097081 0.681277
0.800435 0.316745 0.612788
0.809598 0.356605 0.571977
0.817199 0.391828 0.533425
0.825395 0.417699 0.498645
0.834376 0.438879 0.468832
0.141622 0.014085 0.678219
0.136931 0.013191 0.677996
0.269477 0.020536 0.686578
0.595530 0.079169 0.720222
0.728650 0.111587 0.675297
0.794576 0.308197 0.620774
0.806084 0.348335 0.580939
0.814661 0.384536 0.543363
0.825203 0.411358 0.506097
0.150027 0.014225 0.681148
0.147681 0.013611 0.681902
0.188737 0.014006 0.692113
0.488019 0.053563 0.731429
0.724523 0.119537 0.765109
0.802589 0.296568 0.693898
0.794778 0.298502 0.635903
0.804332 0.337022 0.592382
0.813886 0.374873 0.552323
0.253264 0.235561 0.692707
0.224589 0.158213 0.686473
0.209368 0.126222 0.685531
0.388235 0.146152 0.721988
0.711519 0.232107 0.802099
0.860158 0.400087 0.815114
0.865997 0.440707 0.761964
0.851752 0.421791 0.699702
0.836137 0.403572 0.637441
0.369658 0.829417 0.824652
0.352349 0.725851 0.795116
0.342279 0.617795 0.761145
0.431052 0.599109 0.778723
0.730719 0.635552 0.884464
0.947913 0.641908 0.950254
0.957678 0.666796 0.882149
0.942465 0.632213 0.834570
0.924322 0.596044 0.777140
0.459885 0.938664 0.864980
0.459885 0.938664 0.864980
0.414169 0.903717 0.847884
0.389964 0.858612 0.835223
0.619864 0.870702 0.889567
0.899808 0.884634 0.965926
0.988591 0.863017 0.938599
0.985881 0.834452 0.912899
0.978682 0.800673 0.874418
0.459885 0.938664 0.864980
0.459885 0.938664 0.864980
0.459885 0.938664 0.864980
0.459885 0.938664 0.864980
0.559582 0.948728 0.885762
0.782434 0.970975 0.940552
0.970703 0.970703 0.970703
0.989296 0.950655 0.948069
0.989709 0.930016 0.924770
0.459885 0.938664 0.864980
0.459885 0.938664 0.864980
0.459885 0.938664 0.864980
0.459885 0.938664 0.864980
0.489402 0.942661 0.869777
0.679414 0.961000 0.910895
0.898551 0.984674 0.959516
0.989258 0.996316 0.952918
0.990043 0.996328 0.933661
0.459885 0.938664 0.864980
0.459885 0.938664 0.864980
0.459885 0.938664 0.864980
0.459885 0.938664 0.864980
0.459885 0.938664 0.864980
0.592814 0.951971 0.893266
0.815274 0.976228 0.947301
0.973613 0.994615 0.985574
0.992188 0.997901 0.962769
0.136931 0.013191 0.677996
0.143966 0.014028 0.680925
0.395560 0.034978 0.726976
0.687385 0.109364 0.769274
0.741708 0.158282 0.683298
0.782485 0.265744 0.656925
0.797506 0.312471 0.616783
0.808037 0.351633 0.575968
0.815246 0.388867 0.536664
0.141622 0.013749 0.679949
0.141622 0.013749 0.679949
0.235459 0.017617 0.696601
0.584184 0.078692 0.760999
0.745041 0.130058 0.777051
0.728258 0.111916 0.683196
0.783078 0.254374 0.671079
0.795362 0.302832 0.629203
0.805501 0.344005 0.587637
0.147681 0.013611 0.681902
0.143966 0.014028 0.680925
0.168209 0.014145 0.685277
0.409635 0.037997 0.725914
0.703211 0.116975 0.791375
0.737037 0.123971 0.735159
0.729818 0.114199 0.693047
0.777028 0.240830 0.679593
0.791656 0.289567 0.638696
0.271589 0.298477 0.697607
0.199822 0.084771 0.684144
0.151395 0.013528 0.681148
0.265369 0.019604 0.702152
0.592196 0.080506 0.764905
0.748948 0.131277 0.794801
0.806113 0.272333 0.792313
0.807472 0.289352 0.761079
0.806104 0.299123 0.714355
0.375114 0.848618 0.831402
0.356427 0.757080 0.803511
0.342883 0.598119 0.758078
0.360072 0.389785 0.723507
0.528275 0.303619 0.760294
0.832564 0.418930 0.884691
0.908544 0.502203 0.899098
0.896635 0.489856 0.865415
0.886093 0.477149 0.830000
0.459885 0.938664 0.864980
0.459885 0.938664 0.864980
0.425302 0.914129 0.850726
0.387418 0.864668 0.836421
0.585502 0.816833 0.871577
0.831083 0.775217 0.938602
0.988859 0.766611 0.980285
0.983986 0.753085 0.959914
0.977955 0.722591 0.935723
0.459885 0.938664 0.864980
0.459885 0.938664 0.864980
0.459885 0.938664 0.864980
0.459885 0.938664 0.864980
0.543162 0.946438 0.880655
0.768370 0.957633 0.934778
0.946481 0.944564 0.980367
0.989508 0.925595 0.982320
0.988550 0.903973 0.967671
0.459885 0.938664 0.864980
0.459885 0.938664 0.864980
0.459885 0.938664 0.864980
0.459885 0.938664 0.864980
0.477673 0.940929 0.866625
0.663970 0.959014 0.910227
0.882321 0.985027 0.965993
1.000000 1.000000 1.000000
0.995511 0.994452 0.988949
0.459885 0.938664 0.864980
0.459885 0.938664 0.864980
0.459885 0.938664 0.864980
0.459885 0.938664 0.864980
0.459885 0.938664 0.864980
0.577370 0.950657 0.889137
0.801199 0.974216 0.943172
0.963839 0.994499 0.986106
1.000000 1.000000 1.000000
0.136931 0.013191 0.677996
0.136931 0.013191 0.677996
0.302315 0.023101 0.707172
0.646137 0.100275 0.778628
0.744850 0.126743 0.768930
0.734892 0.119037 0.723355
0.748344 0.172460 0.687116
0.782877 0.262725 0.662871
0.794576 0.308197 0.620774
0.141622 0.013749 0.679949
0.141622 0.013749 0.679949
0.190105 0.013981 0.688652
0.482936 0.052326 0.742567
0.733504 0.128282 0.799323
0.742897 0.125462 0.763517
0.735477 0.120007 0.733961
0.730211 0.113197 0.688610
0.779564 0.247450 0.673117
0.150027 0.014225 0.681148
0.147681 0.013611 0.681902
0.157457 0.013726 0.681371
0.319129 0.023381 0.713032
0.643793 0.099996 0.777652
0.747971 0.130972 0.790363
0.743480 0.127440 0.768930
0.738407 0.122601 0.738622
0.730794 0.114503 0.697484
0.291473 0.365355 0.703704
0.221871 0.136273 0.686644
0.153742 0.014143 0.680394
0.235459 0.016945 0.700063
0.504631 0.059170 0.744656
0.733504 0.128282 0.799323
0.748948 0.131277 0.794801
0.744065 0.129082 0.776075
0.738990 0.123907 0.747496
0.381357 0.864807 0.834468
0.357576 0.784706 0.812438
0.351250 0.643249 0.769317
0.367847 0.443594 0.734438
0.492134 0.274448 0.748301
0.673875 0.129306 0.787692
0.744448 0.133698 0.802699
0.762016 0.165296 0.808078
0.798895 0.249455 0.817687
0.459885 0.938664 0.864980
0.459885 0.938664 0.864980
0.436044 0.925879 0.856278
0.390731 0.877590 0.838289
0.567109 0.834580 0.871270
0.820514 0.790789 0.937538
0.968169 0.726414 0.975968
0.930393 0.552310 0.943574
0.920062 0.517231 0.928566
0.459885 0.938664 0.864980
0.459885 0.938664 0.864980
0.459885 0.938664 0.864980
0.459885 0.938664 0.864980
0.529672 0.947077 0.878481
0.751355 0.963687 0.931093
0.937873 0.951094 0.977882
0.986779 0.914315 0.987598
0.990160 0.846575 0.984875
0.459885 0.938664 0.864980
0.459885 0.938664 0.864980
0.459885 0.938664 0.864980
0.459885 0.938664 0.864980
0.469268 0.940454 0.865426
0.646181 0.957421 0.905120
0.865902 0.982738 0.960887
1.000000 1.000000 1.000000
0.997855 0.993386 0.996848
0.459885 0.938664 0.864980
0.459885 0.938664 0.864980
0.459885 0.938664 0.864980
0.459885 0.938664 0.864980
0.459885 0.938664 0.864980
0.560559 0.950041 0.885008
0.781065 0.972345 0.937089
0.955431 0.994024 0.984906
1.000000 1.000000 1.000000
