luts/GFX100II_FLog2C_FGamutC_to_ETERNA_BT.709_33grid_V.1.00.cube
#title:FLog2C_FGamutC_to_ETERNA_BT.709
#FUJIFILM Corporation
#Gamma:F-Log2C to ETERNA
#Gamut:F-GamutC to ITU-R BT.709
#Version:1.00
LUT_3D_SIZE 33
0.006836 0.006836 0.006836
0.006836 0.006836 0.006836
0.026387 0.006393 0.009234
0.076824 0.010258 0.011238
0.128047 0.010439 0.013019
0.187474 0.017095 0.019905
0.253940 0.025933 0.022801
0.347959 0.047138 0.035374
0.468758 0.073061 0.056207
0.611644 0.103819 0.079884
0.760199 0.135438 0.109949
0.901315 0.180570 0.132785
0.999614 0.228350 0.142925
1.000000 0.294522 0.237722
1.000000 0.361406 0.313262
1.000000 0.361406 0.313262
1.000000 0.361406 0.313262
1.000000 0.361406 0.313262
1.000000 0.361406 0.313262
1.000000 0.361406 0.313262
1.000000 0.361406 0.313262
1.000000 0.361406 0.313262
1.000000 0.361406 0.313262
1.000000 0.361406 0.313262
1.000000 0.361406 0.313262
1.000000 0.361406 0.313262
1.000000 0.361406 0.313262
1.000000 0.361406 0.313262
1.000000 0.361406 0.313262
1.000000 0.361406 0.313262
1.000000 0.361406 0.313262
1.000000 0.361406 0.313262
1.000000 0.361406 0.313262
0.006836 0.006836 0.006836
0.006836 0.006836 0.006836
0.006836 0.006836 0.006836
0.053559 0.010784 0.009593
0.108496 0.010210 0.014083
0.162649 0.013657 0.017062
0.224231 0.016604 0.020266
0.304176 0.035796 0.028711
0.414616 0.059292 0.046392
0.550465 0.088202 0.072327
0.699412 0.119157 0.096226
0.842290 0.160909 0.123278
0.976951 0.208526 0.141676
0.998989 0.268335 0.161394
0.999888 0.338115 0.288007
1.000000 0.361406 0.313262
1.000000 0.361406 0.313262
1.000000 0.361406 0.313262
1.000000 0.361406 0.313262
1.000000 0.361406 0.313262
1.000000 0.361406 0.313262
1.000000 0.361406 0.313262
1.000000 0.361406 0.313262
1.000000 0.361406 0.313262
1.000000 0.361406 0.313262
1.000000 0.361406 0.313262
1.000000 0.361406 0.313262
1.000000 0.361406 0.313262
1.000000 0.361406 0.313262
1.000000 0.361406 0.313262
1.000000 0.361406 0.313262
1.000000 0.361406 0.313262
1.000000 0.361406 0.313262
0.006836 0.006836 0.006836
0.006836 0.006836 0.006836
0.006836 0.006836 0.006836
0.028732 0.006673 0.010211
0.086016 0.006715 0.013945
0.138989 0.016528 0.012933
0.197250 0.017210 0.019375
0.270751 0.026550 0.026929
0.365557 0.044405 0.037551
0.494370 0.072144 0.062289
0.638816 0.106192 0.090626
0.785610 0.141527 0.114747
0.923986 0.188390 0.135851
0.998627 0.239376 0.140133
0.999918 0.309836 0.253657
1.000000 0.361406 0.313262
1.000000 0.361406 0.313262
1.000000 0.361406 0.313262
1.000000 0.361406 0.313262
1.000000 0.361406 0.313262
1.000000 0.361406 0.313262
1.000000 0.361406 0.313262
1.000000 0.361406 0.313262
1.000000 0.361406 0.313262
1.000000 0.361406 0.313262
1.000000 0.361406 0.313262
1.000000 0.361406 0.313262
1.000000 0.361406 0.313262
1.000000 0.361406 0.313262
1.000000 0.361406 0.313262
1.000000 0.361406 0.313262
1.000000 0.361406 0.313262
1.000000 0.361406 0.313262
0.000000 0.030005 0.000273
0.000000 0.019676 0.003066
0.007419 0.010495 0.003597
0.016612 0.006951 0.006305
0.065680 0.010505 0.013499
0.118272 0.010325 0.013550
0.173008 0.016759 0.016755
0.239865 0.023251 0.022134
0.321774 0.032730 0.032618
0.436703 0.063789 0.050965
0.578221 0.094571 0.078101
0.724429 0.126584 0.103730
0.868677 0.168646 0.125591
0.998646 0.214697 0.147226
0.999756 0.279247 0.205992
0.999094 0.351115 0.300258
1.000000 0.361406 0.313262
1.000000 0.361406 0.313262
1.000000 0.361406 0.313262
1.000000 0.361406 0.313262
1.000000 0.361406 0.313262
1.000000 0.361406 0.313262
1.000000 0.361406 0.313262
1.000000 0.361406 0.313262
1.000000 0.361406 0.313262
1.000000 0.361406 0.313262
1.000000 0.361406 0.313262
1.000000 0.361406 0.313262
1.000000 0.361406 0.313262
1.000000 0.361406 0.313262
1.000000 0.361406 0.313262
1.000000 0.361406 0.313262
1.000000 0.361406 0.313262
0.000000 0.078683 0.000000
0.000535 0.061323 0.000000
0.000000 0.043683 0.000000
0.000000 0.030005 0.000273
0.043774 0.023008 0.006578
0.097543 0.016461 0.010620
0.150527 0.013936 0.013156
0.207610 0.019976 0.020797
0.285410 0.032555 0.026091
0.385692 0.046278 0.043632
0.518995 0.082589 0.063848
0.665012 0.108261 0.096931
0.810627 0.149290 0.120519
0.949980 0.197802 0.139141
0.999595 0.253028 0.135833
1.000000 0.322466 0.273804
1.000000 0.361406 0.313262
1.000000 0.361406 0.313262
1.000000 0.361406 0.313262
1.000000 0.361406 0.313262
1.000000 0.361406 0.313262
1.000000 0.361406 0.313262
1.000000 0.361406 0.313262
1.000000 0.361406 0.313262
1.000000 0.361406 0.313262
1.000000 0.361406 0.313262
1.000000 0.361406 0.313262
1.000000 0.361406 0.313262
1.000000 0.361406 0.313262
1.000000 0.361406 0.313262
1.000000 0.361406 0.313262
1.000000 0.361406 0.313262
1.000000 0.361406 0.313262
0.000094 0.121332 0.000340
0.000000 0.105004 0.000000
0.000000 0.090351 0.000000
0.000000 0.078683 0.000000
0.000000 0.070004 0.000000
0.078547 0.055901 0.002997
0.131340 0.048377 0.006063
0.187063 0.043449 0.013788
0.252560 0.038634 0.020984
0.338778 0.038342 0.036215
0.462505 0.067868 0.056515
0.604999 0.100299 0.081167
0.751602 0.130302 0.107551
0.893301 0.178420 0.130610
1.000000 0.223657 0.147895
0.999544 0.292544 0.232308
0.999083 0.360765 0.310553
1.000000 0.361406 0.313262
1.000000 0.361406 0.313262
1.000000 0.361406 0.313262
1.000000 0.361406 0.313262
1.000000 0.361406 0.313262
1.000000 0.361406 0.313262
1.000000 0.361406 0.313262
1.000000 0.361406 0.313262
1.000000 0.361406 0.313262
1.000000 0.361406 0.313262
1.000000 0.361406 0.313262
1.000000 0.361406 0.313262
1.000000 0.361406 0.313262
1.000000 0.361406 0.313262
1.000000 0.361406 0.313262
1.000000 0.361406 0.313262
0.000256 0.161332 0.000000
0.000659 0.147653 0.000391
0.000667 0.135987 0.000476
0.000094 0.121332 0.000340
0.000104 0.109665 0.000425
0.038038 0.103816 0.000000
0.107059 0.095267 0.000000
0.166103 0.091929 0.007585
0.230232 0.088148 0.013051
0.308436 0.086715 0.020913
0.419087 0.091871 0.038235
0.549086 0.101911 0.065320
0.690030 0.117032 0.097512
0.835645 0.157725 0.122832
0.970307 0.205343 0.141230
0.998800 0.265690 0.149812
0.999698 0.333455 0.286809
1.000000 0.361406 0.313262
1.000000 0.361406 0.313262
1.000000 0.361406 0.313262
1.000000 0.361406 0.313262
1.000000 0.361406 0.313262
1.000000 0.361406 0.313262
1.000000 0.361406 0.313262
1.000000 0.361406 0.313262
1.000000 0.361406 0.313262
1.000000 0.361406 0.313262
1.000000 0.361406 0.313262
1.000000 0.361406 0.313262
1.000000 0.361406 0.313262
1.000000 0.361406 0.313262
1.000000 0.361406 0.313262
1.000000 0.361406 0.313262
0.000000 0.209674 0.000184
0.000227 0.196332 0.000000
0.000629 0.182656 0.000133
0.000054 0.168002 0.000000
0.000457 0.154324 0.000836
0.000467 0.142656 0.000922
0.078872 0.136233 0.000000
0.146131 0.130055 0.000714
0.207914 0.126332 0.003473
0.278688 0.125733 0.009383
0.377025 0.126844 0.019867
0.503703 0.135966 0.043271
0.639956 0.150527 0.073507
0.784020 0.174582 0.102906
0.919476 0.205167 0.129820
0.998627 0.239040 0.141863
0.998750 0.304534 0.249750
1.000000 0.361406 0.313262
1.000000 0.361406 0.313262
1.000000 0.361406 0.313262
1.000000 0.361406 0.313262
1.000000 0.361406 0.313262
1.000000 0.361406 0.313262
1.000000 0.361406 0.313262
1.000000 0.361406 0.313262
1.000000 0.361406 0.313262
1.000000 0.361406 0.313262
1.000000 0.361406 0.313262
1.000000 0.361406 0.313262
1.000000 0.361406 0.313262
1.000000 0.361406 0.313262
1.000000 0.361406 0.313262
1.000000 0.361406 0.313262
0.000751 0.268986 0.000731
0.000000 0.251346 0.000371
0.000000 0.233008 0.000013
0.000600 0.217657 0.000000
0.000000 0.200017 0.000000
0.000000 0.186339 0.000356
0.013536 0.179365 0.000356
0.115598 0.170743 0.000000
0.182465 0.166576 0.000062
0.255001 0.164615 0.000000
0.344932 0.165585 0.007359
0.460274 0.172644 0.019711
0.593203 0.185278 0.051457
0.737076 0.204000 0.083116
0.872342 0.229589 0.110562
0.995093 0.258138 0.129886
1.000000 0.302638 0.161136
0.999285 0.358127 0.289344
0.999669 0.363416 0.312507
1.000000 0.361406 0.313262
1.000000 0.361406 0.313262
1.000000 0.361406 0.313262
1.000000 0.361406 0.313262
1.000000 0.361406 0.313262
1.000000 0.361406 0.313262
1.000000 0.361406 0.313262
1.000000 0.361406 0.313262
1.000000 0.361406 0.313262
1.000000 0.361406 0.313262
1.000000 0.361406 0.313262
1.000000 0.361406 0.313262
1.000000 0.361406 0.313262
1.000000 0.361406 0.313262
0.000000 0.342674 0.000438
0.000000 0.318362 0.000000
0.000000 0.298015 0.000027
0.000000 0.274680 0.000200
0.000000 0.256343 0.000000
0.000000 0.238004 0.000000
0.000000 0.228011 0.000543
0.068050 0.216476 0.000371
0.151147 0.210610 0.001089
0.225836 0.204268 0.000609
0.312838 0.203318 0.000044
0.421142 0.210883 0.002544
0.549189 0.219306 0.025944
0.685441 0.234541 0.052723
0.825792 0.258005 0.086335
0.954211 0.287418 0.112051
0.998759 0.319416 0.113129
0.999094 0.364558 0.231040
0.999648 0.390446 0.293301
0.999850 0.382432 0.299777
1.000000 0.375090 0.302792
0.999275 0.366434 0.306562
1.000000 0.361406 0.313262
1.000000 0.361406 0.313262
1.000000 0.361406 0.313262
1.000000 0.361406 0.313262
1.000000 0.361406 0.313262
1.000000 0.361406 0.313262
1.000000 0.361406 0.313262
1.000000 0.361406 0.313262
1.000000 0.361406 0.313262
1.000000 0.361406 0.313262
1.000000 0.361406 0.313262
0.000000 0.434699 0.000504
0.000050 0.406006 0.000000
0.000000 0.379685 0.000000
0.000291 0.352331 0.001105
0.000311 0.329332 0.000000
0.000000 0.304686 0.000473
0.000000 0.286348 0.000113
0.000000 0.271694 0.000000
0.105744 0.263965 0.000000
0.197054 0.253916 0.000351
0.282104 0.250674 0.000000
0.385918 0.251012 0.000000
0.507713 0.258947 0.000000
0.643381 0.271530 0.023973
0.780016 0.295414 0.056609
0.910198 0.321445 0.086539
0.998932 0.349764 0.102044
0.999104 0.380784 0.087496
0.999045 0.415836 0.266948
0.999830 0.409799 0.278840
1.000000 0.402120 0.283587
0.999255 0.392793 0.290817
0.999850 0.382767 0.298047
0.998682 0.376123 0.301063
1.000000 0.367747 0.305809
1.000000 0.361406 0.313262
1.000000 0.361406 0.313262
1.000000 0.361406 0.313262
1.000000 0.361406 0.313262
1.000000 0.361406 0.313262
1.000000 0.361406 0.313262
1.000000 0.361406 0.313262
1.000000 0.361406 0.313262
0.000000 0.540681 0.000707
0.000000 0.507689 0.000211
0.000000 0.476010 0.000000
0.000214 0.445668 0.000418
0.000434 0.415664 0.000145
0.000000 0.389343 0.000095
0.000000 0.361347 0.000000
0.000000 0.344683 0.000000
0.000311 0.328996 0.001278
0.151058 0.315616 0.000316
0.249013 0.309084 0.000000
0.354983 0.305040 0.000000
0.472872 0.308061 0.000398
0.599943 0.319877 0.000329
0.734824 0.337825 0.016723
0.866376 0.363495 0.044921
0.982282 0.394187 0.071168
0.999669 0.410130 0.071973
0.999237 0.435283 0.192008
0.999025 0.441523 0.254664
0.999620 0.431161 0.263624
0.998843 0.421834 0.270854
0.999439 0.411473 0.279817
1.000000 0.402120 0.283587
0.999255 0.393129 0.289086
1.000000 0.386091 0.296538
0.999659 0.377772 0.298579
0.999860 0.369756 0.305054
0.999669 0.363416 0.312507
1.000000 0.361406 0.313262
1.000000 0.361406 0.313262
1.000000 0.361406 0.313262
1.000000 0.361406 0.313262
0.000000 0.650682 0.000000
0.000000 0.617354 0.000636
0.000000 0.584362 0.000141
0.000709 0.553660 0.000000
0.000000 0.519356 0.000126
0.000000 0.486364 0.000000
0.000000 0.456359 0.000000
0.000000 0.431015 0.000282
0.000242 0.410667 0.000676
0.007098 0.395512 0.000762
0.197340 0.380245 0.000160
0.316215 0.372911 0.000262
0.433911 0.371270 0.000000
0.562160 0.377392 0.000292
0.691184 0.391832 0.000000
0.821566 0.416572 0.000512
0.940413 0.439870 0.022851
0.998462 0.456202 0.043495
0.999820 0.468853 0.034757
0.998805 0.478585 0.218598
0.999398 0.467552 0.231019
0.999017 0.456214 0.239004
0.998634 0.444541 0.248720
0.999227 0.433508 0.261140
0.998843 0.422506 0.267394
1.000000 0.415132 0.276578
0.999247 0.406140 0.282079
1.000000 0.394442 0.288333
1.000000 0.388101 0.295785
0.999265 0.379110 0.301285
0.999467 0.371431 0.306031
0.999669 0.363416 0.312507
1.000000 0.361406 0.313262
0.000000 0.752364 0.000137
0.000000 0.724033 0.000840
0.000000 0.692354 0.000000
0.000000 0.662349 0.000000
0.000000 0.629022 0.000551
0.000000 0.596029 0.000054
0.000000 0.563038 0.000000
0.000000 0.531022 0.000039
0.000355 0.509001 0.000000
0.000000 0.487677 0.000000
0.067252 0.469832 0.000000
0.255732 0.456936 0.000364
0.391420 0.451226 0.000000
0.522215 0.451291 0.000000
0.652416 0.459703 0.000000
0.780071 0.474506 0.000000
0.896378 0.496561 0.000628
0.997435 0.520955 0.004020
0.999007 0.514259 0.000114
0.999379 0.517771 0.092410
1.000000 0.507943 0.183817
0.999772 0.494590 0.202184
0.999388 0.482244 0.215359
0.999984 0.471211 0.227781
0.999994 0.457527 0.238250
0.999217 0.447528 0.248941
0.999810 0.437167 0.257903
0.999429 0.425493 0.267618
0.999628 0.417478 0.274093
1.000000 0.407117 0.283056
0.999840 0.396451 0.287578
0.999648 0.390446 0.293301
0.999850 0.382432 0.299777
0.000000 0.840705 0.000000
0.000000 0.815697 0.000000
0.000000 0.790352 0.000101
0.000533 0.763334 0.000050
0.000000 0.734026 0.000000
0.000000 0.702708 0.000257
0.000000 0.670694 0.000738
0.000000 0.639014 0.000000
0.000661 0.611660 0.001169
0.000000 0.589359 0.000000
0.000000 0.569011 0.000003
0.157508 0.552143 0.000000
0.333475 0.540526 0.000000
0.478938 0.534595 0.000186
0.614031 0.537230 0.000648
0.736220 0.543492 0.000000
0.850776 0.556587 0.000000
0.958093 0.575179 0.000000
0.991920 0.571086 0.000215
0.994860 0.563020 0.000000
0.996611 0.553496 0.095613
0.996813 0.539432 0.133239
0.999753 0.525318 0.163942
0.999762 0.510626 0.179602
0.999379 0.497271 0.197968
0.999973 0.486238 0.210391
0.999590 0.473893 0.223567
0.999207 0.461212 0.238474
1.000000 0.449512 0.244725
0.999810 0.437839 0.254442
0.999035 0.428175 0.263402
0.999237 0.419824 0.271610
0.998854 0.409159 0.276133
0.000000 0.915368 0.000664
0.000000 0.895021 0.001060
0.000000 0.873696 0.000475
0.000656 0.849664 0.000648
0.000000 0.824041 0.000597
0.000505 0.798335 0.000000
0.000000 0.771678 0.001472
0.000000 0.743683 0.000444
0.000000 0.714376 0.000172
0.000007 0.690344 0.000343
0.000000 0.669019 0.000000
0.000000 0.650682 0.000000
0.253433 0.635989 0.001027
0.428423 0.623732 0.000000
0.567432 0.619278 0.000219
0.694513 0.619426 0.000234
0.809662 0.624177 0.000000
0.917574 0.634090 0.000000
0.984241 0.636593 0.000008
0.989144 0.619149 0.000000
0.988962 0.602485 0.000488
0.990148 0.585460 0.000000
0.991920 0.571086 0.000215
0.998958 0.555792 0.086208
0.998766 0.542058 0.131730
0.999753 0.526326 0.158750
0.998977 0.514310 0.179825
0.999963 0.501266 0.193000
0.999580 0.488921 0.206176
1.000000 0.477215 0.222059
0.998815 0.464229 0.232527
0.999802 0.451522 0.243973
0.999419 0.439849 0.253688
0.000000 0.976691 0.000457
0.000000 0.960028 0.001074
0.000000 0.940016 0.000000
0.000000 0.920365 0.000132
0.000000 0.900017 0.000526
0.000000 0.877716 0.000000
0.000456 0.856335 0.001094
0.000000 0.832024 0.000288
0.000000 0.807016 0.000000
0.000000 0.783345 0.001387
0.000000 0.762021 0.000805
0.000000 0.742707 0.000000
0.096756 0.724173 0.000720
0.354641 0.712721 0.000083
0.518486 0.700710 0.000543
0.648114 0.694804 0.000000
0.766787 0.694140 0.000000
0.871186 0.697464 0.000230
0.969524 0.700927 0.000000
0.980879 0.681670 0.000000
0.983052 0.653954 0.000000
0.984634 0.634918 0.000000
0.989144 0.619149 0.000000
0.988569 0.604496 0.000000
0.991709 0.589760 0.000000
0.992112 0.576083 0.000000
0.997005 0.559216 0.056567
0.998374 0.546085 0.120593
0.998967 0.531691 0.150321
0.999953 0.517303 0.170417
0.999571 0.503948 0.188785
0.999189 0.490931 0.205422
0.999782 0.479562 0.219575
0.000000 0.981688 0.000000
0.000000 0.981688 0.000000
0.000000 0.981688 0.000000
0.000000 0.980375 0.000679
0.000000 0.963350 0.000000
0.000000 0.945710 0.000000
0.000000 0.927036 0.000577
0.000000 0.906689 0.000973
0.000000 0.885364 0.000390
0.000000 0.864040 0.000000
0.000000 0.845702 0.000000
0.000000 0.825354 0.000000
0.000000 0.807016 0.000000
0.272069 0.791240 0.000801
0.456837 0.778762 0.000199
0.597999 0.769927 0.000968
0.721568 0.763823 0.000000
0.831250 0.759361 0.000417
0.929980 0.760813 0.000000
0.970855 0.746562 0.000000
0.975766 0.717452 0.000000
0.977748 0.685075 0.000000
0.983235 0.670281 0.000504
0.983052 0.653954 0.000000
0.984824 0.639580 0.000230
0.985619 0.624229 0.000094
0.988760 0.609492 0.000000
0.991317 0.591434 0.000000
0.992696 0.579069 0.000000
0.995051 0.563311 0.023465
0.998374 0.548437 0.108482
0.999943 0.534683 0.140913
0.999168 0.520986 0.170641
0.000000 0.981688 0.000000
0.000000 0.981688 0.000000
0.000000 0.981688 0.000000
0.000000 0.981688 0.000000
0.000000 0.981688 0.000000
0.000000 0.981688 0.000000
0.000000 0.981688 0.000000
0.000000 0.970021 0.000012
0.000000 0.953357 0.000628
0.000000 0.933707 0.001023
0.000014 0.916681 0.000000
0.000225 0.898008 0.001282
0.000043 0.881680 0.000168
0.097615 0.865156 0.000664
0.390303 0.850923 0.000165
0.546719 0.839412 0.000403
0.674785 0.829207 0.000000
0.786230 0.822372 0.000000
0.887509 0.817433 0.000000
0.961221 0.809779 0.000000
0.966527 0.778995 0.000000
0.971640 0.742878 0.000000
0.973612 0.721833 0.000161
0.977145 0.705087 0.000023
0.977940 0.689736 0.000000
0.980105 0.673687 0.000000
0.984614 0.658253 0.000000
0.985409 0.642902 0.000000
0.986204 0.627215 0.000317
0.988367 0.611167 0.000179
0.988770 0.597824 0.000000
0.991910 0.582753 0.000128
0.994659 0.567675 0.010598
0.000000 0.981688 0.000000
0.000000 0.981688 0.000000
0.000000 0.981688 0.000000
0.000000 0.981688 0.000000
0.000000 0.981688 0.000000
0.000000 0.981688 0.000000
0.000000 0.981688 0.000000
0.000000 0.981688 0.000000
0.000000 0.981688 0.000000
0.000000 0.981688 0.000000
0.000000 0.974682 0.001211
0.000000 0.960364 0.000000
0.000000 0.945710 0.000000
0.000589 0.931335 0.000046
0.284870 0.916290 0.000077
0.479410 0.903926 0.000000
0.617645 0.891489 0.000246
0.736912 0.882145 0.001101
0.840928 0.875811 0.000757
0.934584 0.866377 0.000723
0.953570 0.840285 0.000000
0.961031 0.804783 0.000090
0.967120 0.770314 0.000000
0.970259 0.755242 0.000000
0.969686 0.740588 0.000000
0.974196 0.724819 0.000383
0.976360 0.708771 0.000246
0.979893 0.692025 0.000110
0.978926 0.679381 0.000000
0.983829 0.661937 0.000000
0.983254 0.647283 0.000000
0.985811 0.629226 0.000000
0.988952 0.614489 0.000000
0.000000 0.981688 0.000000
0.000000 0.981688 0.000000
0.000000 0.981688 0.000000
0.000000 0.981688 0.000000
0.000000 0.981688 0.000000
0.000000 0.981688 0.000000
0.000000 0.981688 0.000000
0.000000 0.981688 0.000000
0.000000 0.981688 0.000000
0.000000 0.981688 0.000000
0.000000 0.981688 0.000000
0.000000 0.981688 0.000000
0.000349 0.984674 0.000148
0.000349 0.984674 0.000148
0.110233 0.973541 0.000559
0.402527 0.961318 0.000000
0.562659 0.949390 0.000519
0.683295 0.939684 0.000000
0.794550 0.927854 0.000056
0.887621 0.915432 0.000000
0.944140 0.896832 0.000000
0.950812 0.865014 0.000000
0.959057 0.825828 0.000000
0.961031 0.804783 0.000090
0.963779 0.791721 0.000176
0.965942 0.775673 0.000039
0.969475 0.758927 0.000000
0.971640 0.742878 0.000000
0.972434 0.727526 0.000000
0.975575 0.712455 0.000468
0.979108 0.695709 0.000332
0.980879 0.681670 0.000000
0.982068 0.664309 0.000059
0.000000 0.981688 0.000000
0.000000 0.981688 0.000000
0.000000 0.981688 0.000000
0.000000 0.981688 0.000000
0.000000 0.981688 0.000000
0.000000 0.981688 0.000000
0.000000 0.981688 0.000000
0.000000 0.981688 0.000000
0.000000 0.981688 0.000000
0.000000 0.981688 0.000000
0.000000 0.981688 0.000000
0.000000 0.983361 0.000902
0.000349 0.984674 0.000148
0.000000 0.985372 0.000148
0.000000 0.988359 0.000372
0.302207 0.990568 0.000454
0.481487 0.992547 0.000000
0.620304 0.983432 0.000000
0.735273 0.971519 0.000000
0.834014 0.960969 0.000157
0.922788 0.945643 0.000430
0.942167 0.917542 0.000070
0.946888 0.883434 0.000552
0.951799 0.854660 0.000000
0.953570 0.840285 0.000000
0.958081 0.824516 0.000450
0.961221 0.809779 0.000000
0.963385 0.793731 0.000000
0.966527 0.778659 0.000263
0.967322 0.763308 0.000125
0.969485 0.747260 0.000000
0.972626 0.732523 0.000000
0.975766 0.717452 0.000000
0.000000 0.981688 0.000000
0.000000 0.981688 0.000000
0.000000 0.981688 0.000000
0.000000 0.981688 0.000000
0.000000 0.981688 0.000000
0.000000 0.981688 0.000000
0.000000 0.981688 0.000000
0.000000 0.981688 0.000000
0.000000 0.981688 0.000000
0.000000 0.981688 0.000000
0.000000 0.981688 0.000000
0.000000 0.981688 0.000000
0.000000 0.983361 0.000902
0.000000 0.983697 0.000000
0.000000 0.986349 0.001125
0.000000 0.988359 0.000372
0.371612 0.992012 0.000000
0.539354 0.996247 0.000263
0.670732 0.999300 0.000000
0.778655 0.997545 0.000000
0.871728 0.985123 0.000000
0.932936 0.967083 0.000481
0.939217 0.937275 0.000430
0.944723 0.899483 0.000688
0.946494 0.885444 0.000000
0.949242 0.872382 0.000000
0.952384 0.857646 0.000000
0.954154 0.843272 0.000000
0.957296 0.828200 0.000672
0.959459 0.812488 0.000000
0.961230 0.798112 0.000000
0.966133 0.780669 0.000000
0.966535 0.766992 0.000348
0.000000 0.981688 0.000000
0.000000 0.981688 0.000000
0.000000 0.981688 0.000000
0.000000 0.981688 0.000000
0.000000 0.981688 0.000000
0.000000 0.981688 0.000000
0.000000 0.981688 0.000000
0.000000 0.981688 0.000000
0.000000 0.981688 0.000000
0.000000 0.981688 0.000000
0.000000 0.981688 0.000000
0.000000 0.981688 0.000000
0.000000 0.981688 0.000000
0.000000 0.983361 0.000902
0.000000 0.985372 0.000148
0.000000 0.986685 0.000000
0.186272 0.989837 0.000000
0.425180 0.992809 0.000468
0.580801 0.996649 0.000844
0.706120 0.999506 0.000106
0.817364 0.999679 0.000000
0.901628 0.999785 0.000000
0.925687 0.984246 0.000000
0.936077 0.952346 0.000000
0.941180 0.927896 0.000739
0.941190 0.916565 0.000000
0.945308 0.902469 0.000910
0.947080 0.888431 0.000019
0.949826 0.875369 0.000106
0.951598 0.861330 0.000000
0.954739 0.846258 0.000056
0.956510 0.832219 0.000000
0.957305 0.816868 0.000000
0.000000 0.981688 0.000000
0.000000 0.981688 0.000000
0.000000 0.981688 0.000000
0.000000 0.981688 0.000000
0.000000 0.981688 0.000000
0.000000 0.981688 0.000000
0.000000 0.981688 0.000000
0.000000 0.981688 0.000000
0.000000 0.981688 0.000000
0.000000 0.981688 0.000000
0.000000 0.981688 0.000000
0.000000 0.981688 0.000000
0.000000 0.981688 0.000000
0.000000 0.983361 0.000902
0.000000 0.983361 0.000902
0.000000 0.985372 0.000148
0.000000 0.988359 0.000372
0.277965 0.989781 0.000000
0.477772 0.992965 0.000000
0.618534 0.997470 0.000450
0.739161 0.999432 0.000000
0.844344 0.999072 0.000000
0.927239 0.999877 0.000754
0.922939 0.997308 0.000000
0.932543 0.969092 0.000000
0.931184 0.958122 0.000000
0.933932 0.945060 0.000000
0.938049 0.931300 0.000000
0.941775 0.919551 0.000000
0.943545 0.905177 0.000157
0.946293 0.892115 0.000243
0.950411 0.878356 0.000328
0.950812 0.865014 0.000000
0.000000 0.981688 0.000000
0.000000 0.981688 0.000000
0.000000 0.981688 0.000000
0.000000 0.981688 0.000000
0.000000 0.981688 0.000000
0.000000 0.981688 0.000000
0.000000 0.981688 0.000000
0.000000 0.981688 0.000000
0.000000 0.981688 0.000000
0.000000 0.981688 0.000000
0.000000 0.981688 0.000000
0.000000 0.981688 0.000000
0.000000 0.981688 0.000000
0.000000 0.981688 0.000000
0.000000 0.983361 0.000902
0.000000 0.983697 0.000000
0.000000 0.988359 0.000372
0.000000 0.987383 0.000000
0.342285 0.991668 0.001035
0.514135 0.994147 0.000125
0.651574 0.997396 0.000000
0.768486 0.999441 0.000000
0.872301 0.999777 0.000000
0.927239 0.999877 0.000754
0.923524 1.000000 0.000000
0.921963 0.995996 0.000308
0.927057 0.983549 0.000000
0.930782 0.971799 0.000000
0.933137 0.960411 0.000035
0.934517 0.948047 0.000121
0.937264 0.934985 0.000208
0.940012 0.922260 0.000000
0.941392 0.909558 0.000379
0.000000 0.981688 0.000000
0.000000 0.981688 0.000000
0.000000 0.981688 0.000000
0.000000 0.981688 0.000000
0.000000 0.981688 0.000000
0.000000 0.981688 0.000000
0.000000 0.981688 0.000000
0.000000 0.981688 0.000000
0.000000 0.981688 0.000000
0.000000 0.981688 0.000000
0.000000 0.981688 0.000000
0.000000 0.981688 0.000000
0.000000 0.981688 0.000000
0.000000 0.981688 0.000000
0.000000 0.983361 0.000902
0.000000 0.983361 0.000902
0.000349 0.984674 0.000148
0.000000 0.986349 0.001125
0.163006 0.990026 0.000000
0.404652 0.991603 0.000555
0.556559 0.995862 0.000000
0.682855 0.999694 0.000192
0.797813 0.999448 0.000000
0.895567 0.999589 0.000000
0.927239 0.999877 0.000754
