luts/XH2S_FLog2C_FGamutC_to_ETERNA-BB_BT.709_33grid_V.1.00.cube
#title:FLog2C_FGamutC_to_ETERNA-BB_BT.709
#FUJIFILM Corporation
#Gamma:F-Log2C to ETERNA BLEACH BYPASS
#Gamut:F-GamutC to ITU-R BT.709
#Version:1.00
LUT_3D_SIZE 9
0.000000 0.000000 0.000000
0.060989 0.010283 0.009817
0.340701 0.069920 0.065597
0.729578 0.254581 0.244957
0.860531 0.491985 0.452297
0.860531 0.491985 0.452297
0.860531 0.491985 0.452297
0.860531 0.491985 0.452297
0.860531 0.491985 0.452297
0.000000 0.035331 0.007639
0.016995 0.017280 0.003512
0.167128 0.031881 0.022835
0.617063 0.152548 0.174542
0.860531 0.491985 0.452297
0.860531 0.491985 0.452297
0.860531 0.491985 0.452297
0.860531 0.491985 0.452297
0.860531 0.491985 0.452297
0.000447 0.160614 0.028436
0.000295 0.111974 0.013739
0.109787 0.103523 0.009933
0.460675 0.141827 0.108803
0.800234 0.375505 0.345011
0.861508 0.492962 0.453274
0.860531 0.491985 0.452297
0.860531 0.491985 0.452297
0.860531 0.491985 0.452297
0.000000 0.559784 0.151890
0.000022 0.422524 0.094395
0.041365 0.317630 0.072054
0.356141 0.305205 0.089972
0.823000 0.510372 0.318999
0.909894 0.606169 0.480152
0.890181 0.567622 0.473350
0.875745 0.533291 0.465266
0.862868 0.503596 0.454918
0.112810 0.874008 0.300719
0.000000 0.817618 0.264039
0.000000 0.741667 0.225593
0.380997 0.704378 0.265168
0.811248 0.766955 0.330731
0.942800 0.773469 0.457567
0.940100 0.722482 0.487328
0.931733 0.675337 0.486473
0.916329 0.627691 0.480958
0.256089 0.900067 0.338992
0.245336 0.899311 0.336817
0.245336 0.899311 0.336817
0.422059 0.916325 0.351086
0.756356 0.938459 0.371144
0.949135 0.935524 0.334649
0.953071 0.879559 0.466867
0.953885 0.838185 0.480746
0.949424 0.794946 0.483796
0.261171 0.899288 0.338237
0.261171 0.899288 0.338237
0.261171 0.899288 0.338237
0.291081 0.901946 0.340328
0.561240 0.935161 0.377333
0.869524 0.969537 0.402581
0.953788 0.964267 0.431435
0.953606 0.945251 0.444164
0.954209 0.922550 0.456672
0.296348 0.905732 0.401254
0.261171 0.899288 0.338237
0.261171 0.899288 0.338237
0.261171 0.899288 0.338237
0.421667 0.916989 0.357254
0.705505 0.955569 0.390711
0.922116 0.972381 0.387058
0.948322 0.975217 0.329423
0.951241 0.975699 0.404945
0.320378 0.910743 0.475183
0.293027 0.906157 0.390649
0.261171 0.899288 0.338237
0.261171 0.899288 0.338237
0.319624 0.905303 0.342419
0.580398 0.937065 0.377246
0.854081 0.967215 0.403645
0.948322 0.975217 0.329423
0.948322 0.975217 0.329423
0.000000 0.000000 0.009630
0.048283 0.006902 0.009149
0.309622 0.063304 0.052680
0.718061 0.235855 0.234524
0.860531 0.491985 0.452297
0.860531 0.491985 0.452297
0.860531 0.491985 0.452297
0.860531 0.491985 0.452297
0.860531 0.491985 0.452297
0.000000 0.041621 0.035241
0.016602 0.016602 0.016602
0.150125 0.026268 0.019238
0.593222 0.140435 0.162378
0.855850 0.481104 0.443508
0.860531 0.491985 0.452297
0.860531 0.491985 0.452297
0.860531 0.491985 0.452297
0.860531 0.491985 0.452297
0.014099 0.186195 0.100773
0.007122 0.123419 0.056828
0.105479 0.106236 0.041527
0.429790 0.140208 0.095356
0.783643 0.351942 0.304269
0.861114 0.494636 0.454250
0.860531 0.491985 0.452297
0.860531 0.491985 0.452297
0.860531 0.491985 0.452297
0.000420 0.613244 0.267762
0.000000 0.461748 0.167176
0.020034 0.337056 0.105070
0.335987 0.317930 0.128712
0.804436 0.501805 0.309012
0.913016 0.614096 0.482551
0.893303 0.575549 0.475750
0.877890 0.540241 0.466688
0.866381 0.509177 0.459801
0.182366 0.892839 0.475341
0.000024 0.835111 0.359933
0.000000 0.758945 0.266199
0.360068 0.714833 0.274798
0.793841 0.771658 0.343598
0.944551 0.784445 0.447850
0.942245 0.729095 0.490481
0.930948 0.679357 0.484966
0.919841 0.634279 0.480648
0.314519 0.908580 0.450290
0.287549 0.905250 0.409684
0.249243 0.899857 0.358027
0.409938 0.914585 0.357563
0.736412 0.940239 0.371453
0.944635 0.939962 0.332163
0.953262 0.884220 0.468066
0.954660 0.846169 0.480437
0.951175 0.804242 0.482734
0.323500 0.913629 0.503539
0.314327 0.907952 0.428325
0.261171 0.899288 0.338237
0.278961 0.900880 0.343344
0.534461 0.930105 0.370804
0.854081 0.967215 0.403645
0.952026 0.968318 0.423758
0.951451 0.949968 0.442657
0.954401 0.927883 0.454410
0.327396 0.916431 0.573117
0.325261 0.912601 0.495640
0.311006 0.908041 0.419449
0.261171 0.899288 0.338237
0.402901 0.913413 0.356363
0.685371 0.953025 0.388090
0.909995 0.970979 0.391805
0.948322 0.975217 0.329423
0.949288 0.974418 0.399531
0.334615 0.920153 0.646379
0.332480 0.916323 0.568902
0.322917 0.912658 0.492933
0.306706 0.906145 0.414789
0.312586 0.903457 0.344679
0.560263 0.934520 0.374625
0.840590 0.967182 0.404929
0.947928 0.974539 0.342512
0.948322 0.975217 0.329423
0.003313 0.002840 0.053782
0.046320 0.006870 0.057293
0.283227 0.056815 0.103927
0.701066 0.219248 0.227552
0.860531 0.491985 0.452297
0.860531 0.491985 0.452297
0.860531 0.491985 0.452297
0.860531 0.491985 0.452297
0.860531 0.491985 0.452297
0.010895 0.043924 0.105044
0.014055 0.013582 0.064524
0.135850 0.016813 0.088234
0.571135 0.129553 0.190684
0.842188 0.456437 0.426461
0.860531 0.491985 0.452297
0.860531 0.491985 0.452297
0.860531 0.491985 0.452297
0.860531 0.491985 0.452297
0.041223 0.222371 0.237410
0.026643 0.142519 0.138570
0.116211 0.116211 0.116211
0.423317 0.148552 0.180731
0.779737 0.343331 0.324590
0.861700 0.497623 0.454473
0.860531 0.491985 0.452297
0.860531 0.491985 0.452297
0.860531 0.491985 0.452297
0.000140 0.670236 0.489020
0.000679 0.523464 0.335321
0.044418 0.381349 0.207098
0.349438 0.347156 0.217066
0.804617 0.504689 0.379344
0.917698 0.623297 0.499993
0.895841 0.580487 0.477926
0.881402 0.545821 0.471570
0.868919 0.514116 0.461976
0.211261 0.904894 0.663001
0.084430 0.858895 0.564331
0.000000 0.792323 0.444676
0.365889 0.747196 0.384140
0.789907 0.784270 0.434610
0.950794 0.794921 0.480335
0.944580 0.739026 0.501755
0.932699 0.687644 0.489093
0.921986 0.641229 0.482070
0.325434 0.918079 0.612610
0.311561 0.915111 0.578618
0.288698 0.909688 0.538012
0.400132 0.919226 0.513578
0.723878 0.941664 0.491214
0.936793 0.940602 0.460801
0.956967 0.887402 0.510488
0.954459 0.851830 0.486074
0.951367 0.808567 0.485664
0.340868 0.920642 0.670296
0.328564 0.917699 0.597789
0.324085 0.913926 0.517605
0.320974 0.908448 0.442614
0.524284 0.931569 0.432793
0.839604 0.967119 0.459242
0.952599 0.972555 0.477538
0.955549 0.952486 0.478910
0.954984 0.929526 0.461555
0.347502 0.924402 0.727761
0.338521 0.920698 0.667590
0.328958 0.917370 0.589891
0.326823 0.912867 0.515876
0.427708 0.921029 0.457671
0.671096 0.950963 0.419016
0.902756 0.970763 0.420468
0.951824 0.974989 0.424203
0.951824 0.974989 0.424203
0.351791 0.929564 0.775598
0.345156 0.924796 0.723324
0.335199 0.920115 0.662176
0.334042 0.917262 0.585675
0.362792 0.916396 0.514726
0.567281 0.939200 0.477750
0.831590 0.964969 0.457067
0.951040 0.974641 0.445192
0.950848 0.976030 0.412843
0.016975 0.007344 0.174656
0.056669 0.007188 0.131309
0.275807 0.032206 0.173008
0.697735 0.213864 0.306845
0.869310 0.506729 0.490418
0.860531 0.491985 0.452297
0.860531 0.491985 0.452297
0.860531 0.491985 0.452297
0.860531 0.491985 0.452297
0.037856 0.029684 0.296113
0.017366 0.006678 0.168489
0.137995 0.010320 0.158875
0.565648 0.127879 0.273660
0.844725 0.452976 0.471898
0.870095 0.503717 0.486733
0.860531 0.491985 0.452297
0.860531 0.491985 0.452297
0.860531 0.491985 0.452297
0.107227 0.267167 0.484676
0.070578 0.167213 0.341633
0.132994 0.127296 0.246407
0.430526 0.159236 0.278133
0.784035 0.330776 0.403660
0.885117 0.533977 0.531383
0.869119 0.503077 0.484028
0.860531 0.491985 0.452297
0.860531 0.491985 0.452297
0.096658 0.710114 0.673012
0.095406 0.591305 0.568485
0.115295 0.448409 0.429742
0.394531 0.394531 0.394531
0.815149 0.512597 0.499466
0.936232 0.649726 0.597976
0.913992 0.603310 0.544094
0.889598 0.560266 0.495624
0.870479 0.518416 0.461445
0.230409 0.897965 0.768388
0.154972 0.870396 0.722711
0.000186 0.819323 0.646403
0.387917 0.782040 0.592395
0.795535 0.799538 0.606781
0.967777 0.801352 0.599704
0.961564 0.750161 0.596894
0.947146 0.700898 0.545718
0.927252 0.652408 0.504926
0.344562 0.927426 0.754164
0.331666 0.924090 0.728070
0.308994 0.920304 0.704238
0.385043 0.928292 0.686367
0.712896 0.944270 0.686499
0.938133 0.941634 0.631859
0.968676 0.890289 0.627680
0.964215 0.857804 0.575355
0.959563 0.817971 0.535676
0.352375 0.929862 0.789665
0.346324 0.926736 0.744535
0.340666 0.924288 0.686316
0.329149 0.917997 0.611855
0.554547 0.942591 0.622183
0.834098 0.968951 0.644146
0.959809 0.977191 0.606091
0.960221 0.955206 0.589710
0.957119 0.932012 0.545953
0.359603 0.930655 0.818019
0.351006 0.930895 0.787933
0.349062 0.926014 0.741075
0.338320 0.924682 0.681879
0.445659 0.929685 0.631574
0.691977 0.956836 0.625265
0.902142 0.972532 0.575731
0.956306 0.977082 0.513039
0.954353 0.977482 0.498972
0.365070 0.934828 0.842160
0.358234 0.931688 0.816290
0.352767 0.929196 0.783496
0.345741 0.925430 0.735661
0.365300 0.924746 0.679309
0.598914 0.948516 0.672331
0.837420 0.969198 0.651289
0.956296 0.977995 0.568328
0.955329 0.977785 0.503411
0.051336 0.010129 0.455675
0.082635 0.010601 0.345457
0.296515 0.019493 0.329776
0.704561 0.207834 0.439919
0.875160 0.511821 0.560220
0.875745 0.520185 0.532754
0.872825 0.511972 0.497032
0.863068 0.495582 0.461394
0.860531 0.491985 0.452297
0.072236 0.013167 0.556539
0.049383 0.009856 0.445071
0.186047 0.016885 0.384519
0.577568 0.102680 0.440675
0.827740 0.409242 0.544613
0.873792 0.512518 0.560220
0.877506 0.518485 0.528316
0.871263 0.508345 0.494102
0.862091 0.495277 0.456957
0.153154 0.257899 0.634660
0.120191 0.176398 0.575398
0.172631 0.139675 0.498453
0.476223 0.177527 0.500984
0.797506 0.319193 0.582172
0.879833 0.527984 0.601801
0.875160 0.512494 0.556757
0.877506 0.518821 0.526585
0.869310 0.506729 0.490418
0.182885 0.687737 0.741973
0.163604 0.608576 0.694739
0.174464 0.494771 0.626910
0.450175 0.440595 0.619610
0.825076 0.524385 0.703986
0.942857 0.656416 0.700348
0.936242 0.627977 0.649976
0.918683 0.594122 0.596230
0.893313 0.551110 0.541594
0.225143 0.874688 0.807829
0.180392 0.853727 0.784700
0.102611 0.823190 0.751891
0.404692 0.799078 0.751922
0.807617 0.807617 0.807617
0.985346 0.800350 0.772937
0.977169 0.766940 0.726558
0.963336 0.722344 0.666954
0.947156 0.676796 0.609831
0.361164 0.932938 0.827871
0.349828 0.931213 0.815090
0.331062 0.929315 0.805548
0.358244 0.925398 0.788688
0.685311 0.938002 0.825382
0.938103 0.940005 0.820223
0.978230 0.893187 0.767591
0.978462 0.862605 0.710297
0.975570 0.823760 0.652336
0.365070 0.934828 0.842160
0.364879 0.933193 0.825387
0.356674 0.930750 0.799516
0.345539 0.928740 0.753410
0.542206 0.945652 0.758718
0.833675 0.973028 0.812718
0.973853 0.983285 0.769164
0.968799 0.956119 0.733836
0.966675 0.935918 0.680671
0.365070 0.934828 0.842160
0.365070 0.934828 0.842160
0.359211 0.931657 0.822457
0.354721 0.929469 0.794102
0.433508 0.937407 0.769309
0.704068 0.960641 0.788117
0.905818 0.980134 0.775366
0.966635 0.982922 0.678597
0.962537 0.980404 0.642343
0.365070 0.934828 0.842160
0.365070 0.934828 0.842160
0.365070 0.934828 0.842160
0.360580 0.931296 0.820727
0.359413 0.931036 0.790863
0.585988 0.950271 0.799992
0.845989 0.975393 0.828207
0.971508 0.985693 0.754344
0.964289 0.983988 0.670700
0.094706 0.013879 0.631000
0.117198 0.013773 0.589692
0.365871 0.029535 0.584445
0.716672 0.181919 0.635821
0.869694 0.486140 0.646829
0.869100 0.502213 0.608449
0.875160 0.510141 0.568871
0.875160 0.515854 0.539454
0.874385 0.513920 0.508613
0.103697 0.012973 0.654918
0.092361 0.013936 0.628293
0.240552 0.019958 0.619793
0.596524 0.070926 0.648691
0.822494 0.346834 0.665560
0.869694 0.487148 0.641637
0.870468 0.502524 0.603257
0.875160 0.510477 0.567141
0.874768 0.518536 0.535238
0.140949 0.119800 0.658187
0.137254 0.096885 0.657384
0.182627 0.081219 0.644737
0.508669 0.151182 0.680028
0.805127 0.291089 0.749718
0.877496 0.497890 0.694356
0.870087 0.485809 0.638930
0.870468 0.503532 0.598067
0.877113 0.513102 0.565634
0.198091 0.512787 0.703462
0.200657 0.484405 0.697242
0.207533 0.447596 0.688848
0.475979 0.423837 0.732449
0.824301 0.491532 0.832348
0.936030 0.617413 0.799155
0.925490 0.609746 0.737785
0.907146 0.580919 0.677340
0.893887 0.550641 0.619601
0.179837 0.815067 0.788195
0.179666 0.788753 0.778515
0.171078 0.772284 0.774472
0.391614 0.764292 0.802586
0.787291 0.782937 0.893782
0.981631 0.774556 0.906938
0.971875 0.766902 0.826308
0.969175 0.731373 0.776469
0.958463 0.694031 0.722723
0.365070 0.934828 0.842160
0.328324 0.924997 0.834965
0.295493 0.908413 0.826570
0.314661 0.898649 0.826570
0.636054 0.918025 0.877556
0.926758 0.926758 0.926758
0.988964 0.894423 0.887266
0.989777 0.864140 0.844039
0.989031 0.831573 0.790960
0.365070 0.934828 0.842160
0.365070 0.934828 0.842160
0.365070 0.934828 0.842160
0.364486 0.933857 0.831555
0.521860 0.945314 0.839520
0.813522 0.976341 0.899910
0.981847 0.983228 0.902684
0.982461 0.958270 0.866824
0.978966 0.936749 0.824042
0.365070 0.934828 0.842160
0.365070 0.934828 0.842160
0.365070 0.934828 0.842160
0.365070 0.934828 0.842160
0.434081 0.937946 0.842124
0.678639 0.960746 0.871403
0.910682 0.984154 0.904671
0.982240 0.991299 0.851524
0.977166 0.989150 0.807372
0.365070 0.934828 0.842160
0.365070 0.934828 0.842160
0.365070 0.934828 0.842160
0.365070 0.934828 0.842160
0.365070 0.934828 0.842160
0.566035 0.950612 0.867704
0.835025 0.977181 0.907723
0.979492 0.992935 0.910272
0.981264 0.990995 0.847085
0.103697 0.012973 0.654918
0.122855 0.013868 0.660024
0.405729 0.037787 0.702973
0.700291 0.110443 0.747000
0.859171 0.424892 0.741371
0.865797 0.459811 0.698382
0.869111 0.481473 0.655258
0.867147 0.498916 0.613417
0.872815 0.508181 0.576546
0.103697 0.012973 0.654918
0.103697 0.012973 0.654918
0.247580 0.020029 0.686665
0.616048 0.086329 0.749470
0.801432 0.263804 0.771410
0.860148 0.427213 0.735426
0.865404 0.462158 0.695898
0.868134 0.481504 0.649090
0.867147 0.499588 0.609957
0.103697 0.012973 0.654918
0.103697 0.012973 0.654918
0.143383 0.013730 0.666860
0.468277 0.049345 0.727832
0.728036 0.124110 0.775184
0.866592 0.427657 0.784769
0.860340 0.432546 0.733164
0.866381 0.463807 0.693415
0.868717 0.484827 0.647583
0.196589 0.442180 0.685472
0.173470 0.271058 0.667813
0.155941 0.193128 0.661047
0.383646 0.256939 0.711809
0.751691 0.348154 0.835898
0.912834 0.522152 0.870792
0.918875 0.554758 0.824121
0.905797 0.540470 0.769226
0.890766 0.523894 0.714109
0.179827 0.825727 0.793300
0.177349 0.755152 0.769144
0.203834 0.652602 0.739438
0.344242 0.610097 0.752801
0.715046 0.675239 0.883984
0.962140 0.693568 0.963892
0.972096 0.722445 0.900446
0.962349 0.695395 0.859702
0.950257 0.669409 0.811063
0.365070 0.934828 0.842160
0.339661 0.929075 0.835633
0.274392 0.893561 0.821327
0.249403 0.852141 0.808890
0.569627 0.863190 0.871543
0.894330 0.888432 0.960734
0.986819 0.876384 0.942948
0.985669 0.852454 0.914988
0.982961 0.825567 0.880637
0.365070 0.934828 0.842160
0.365070 0.934828 0.842160
0.365070 0.934828 0.842160
0.365070 0.934828 0.842160
0.508168 0.946239 0.870669
0.770121 0.966929 0.933716
0.970703 0.970703 0.970703
0.990273 0.951968 0.947317
0.988924 0.934372 0.921532
0.365070 0.934828 0.842160
0.365070 0.934828 0.842160
0.365070 0.934828 0.842160
0.365070 0.934828 0.842160
0.420200 0.937907 0.853040
0.646766 0.960408 0.905345
0.893467 0.986124 0.956809
0.991604 0.996594 0.953894
0.988090 0.995048 0.928246
0.365070 0.934828 0.842160
0.365070 0.934828 0.842160
0.365070 0.934828 0.842160
0.365070 0.934828 0.842160
0.365070 0.934828 0.842160
0.543746 0.949761 0.879149
0.803152 0.976169 0.945125
0.974006 0.994621 0.975946
0.991604 0.996930 0.952164
0.103697 0.012973 0.654918
0.106043 0.013588 0.654165
0.311700 0.026234 0.700697
0.673895 0.107987 0.777481
0.825433 0.312554 0.800090
0.845721 0.371469 0.777609
0.857612 0.419585 0.747095
0.866582 0.454111 0.708542
0.868134 0.478815 0.662933
0.103697 0.012973 0.654918
0.103697 0.012973 0.654918
0.172317 0.014405 0.673164
0.529064 0.065962 0.739824
0.749924 0.132253 0.795777
0.828161 0.323163 0.798274
0.848258 0.376745 0.778056
0.858588 0.420897 0.746339
0.868535 0.456736 0.707035
0.106043 0.013588 0.654165
0.103697 0.012973 0.654918
0.122855 0.013868 0.660024
0.335549 0.029032 0.700833
0.687969 0.110334 0.779879
0.826612 0.302828 0.821386
0.834997 0.331007 0.799918
0.848449 0.382077 0.775793
0.860148 0.425533 0.744079
0.199500 0.467437 0.693422
0.176381 0.297658 0.668840
0.149910 0.157929 0.661083
0.264313 0.114654 0.686644
0.568510 0.120059 0.751867
0.836950 0.321534 0.860706
0.879479 0.432578 0.862690
0.880254 0.446275 0.832964
0.877908 0.452718 0.797379
0.194094 0.833070 0.795167
0.173231 0.768239 0.772519
0.202255 0.670967 0.743258
0.310072 0.560889 0.736012
0.601391 0.532231 0.813382
0.877590 0.574525 0.924847
0.954194 0.614117 0.939821
0.950679 0.612233 0.915903
0.939745 0.601536 0.879734
0.365070 0.934828 0.842160
0.354710 0.932062 0.840738
0.277905 0.899814 0.822749
0.243142 0.858614 0.809114
0.534653 0.839994 0.859996
0.839834 0.830675 0.947048
0.990582 0.810236 0.982426
0.988639 0.799640 0.964984
0.982989 0.778804 0.941461
0.365070 0.934828 0.842160
0.365070 0.934828 0.842160
0.365070 0.934828 0.842160
0.365070 0.934828 0.842160
0.489402 0.943333 0.866316
0.747842 0.957771 0.927942
0.947649 0.951209 0.977352
0.992629 0.933185 0.986450
0.989125 0.918627 0.967809
0.365070 0.934828 0.842160
0.365070 0.934828 0.842160
0.365070 0.934828 0.842160
0.365070 0.934828 0.842160
0.409447 0.937152 0.850862
0.633084 0.957060 0.898509
0.876262 0.985502 0.962308
1.000000 1.000000 1.000000
0.996094 0.997102 0.990902
0.365070 0.934828 0.842160
0.365070 0.934828 0.842160
0.365070 0.934828 0.842160
0.365070 0.934828 0.842160
0.365070 0.934828 0.842160
0.529672 0.947749 0.875020
0.785364 0.974914 0.938290
0.962862 0.993522 0.985129
1.000000 1.000000 1.000000
0.103697 0.012973 0.654918
0.103697 0.012973 0.654918
0.245234 0.019749 0.685688
0.586529 0.080652 0.753325
0.748948 0.131612 0.793072
0.795974 0.236874 0.804461
0.823480 0.309593 0.803327
0.839862 0.363257 0.783864
0.855860 0.408944 0.755077
0.103697 0.012973 0.654918
0.103697 0.012973 0.654918
0.161565 0.013986 0.669258
0.445796 0.046522 0.724234
0.713570 0.120411 0.789335
0.748948 0.132285 0.789609
0.797726 0.245834 0.805128
0.826410 0.313195 0.802797
0.842792 0.366859 0.783333
0.108388 0.013867 0.655141
0.103697 0.012973 0.654918
0.119141 0.013951 0.660778
0.301924 0.026455 0.699496
0.636563 0.095841 0.766602
0.747578 0.131974 0.794801
0.747971 0.132316 0.783442
0.803193 0.254039 0.808503
0.827970 0.317831 0.800535
0.201041 0.493727 0.699642
0.182614 0.325850 0.670090
0.153806 0.174175 0.661441
0.254136 0.129561 0.679413
0.514406 0.060629 0.737204
0.779555 0.229542 0.825312
0.794605 0.233203 0.826956
0.819201 0.277305 0.835180
0.831484 0.318705 0.829644
0.205621 0.841472 0.798766
0.173223 0.779234 0.775894
0.196958 0.689076 0.749562
0.292656 0.579614 0.736680
0.589261 0.543840 0.811122
0.843209 0.544328 0.904958
0.909521 0.499147 0.920841
0.872843 0.412015 0.891749
0.884552 0.438761 0.886079
0.365070 0.934828 0.842160
0.363701 0.935189 0.843890
0.298625 0.905008 0.827325
0.234535 0.864809 0.808360
0.511577 0.845850 0.856089
0.828882 0.837262 0.941856
0.982368 0.814756 0.980696
0.979898 0.728482 0.977390
0.967252 0.656778 0.968586
0.365070 0.934828 0.842160
0.365070 0.934828 0.842160
0.365070 0.934828 0.842160
0.365070 0.934828 0.842160
0.475912 0.943637 0.865871
0.731613 0.959805 0.925765
0.939826 0.953720 0.976375
0.989700 0.928912 0.990442
0.988561 0.888946 0.985063
0.365070 0.934828 0.842160
0.365070 0.934828 0.842160
0.365070 0.934828 0.842160
0.365070 0.934828 0.842160
0.399672 0.937710 0.847933
0.611187 0.957223 0.895134
0.864925 0.981761 0.959910
1.000000 1.000000 1.000000
0.998832 0.994363 0.997825
0.365070 0.934828 0.842160
0.365070 0.934828 0.842160
0.365070 0.934828 0.842160
0.365070 0.934828 0.842160
0.365070 0.934828 0.842160
0.512859 0.946798 0.872622
0.767575 0.973320 0.933183
0.957778 0.994303 0.985883
1.000000 1.000000 1.000000
