luts/XH2S_FLog2C_FGamutC_to_ETERNA-BB_BT.709_33grid_V.1.00.cube
#title:FLog2C_FGamutC_to_ETERNA-BB_BT.709
#FUJIFILM Corporation
#Gamma:F-Log2C to ETERNA BLEACH BYPASS
#Gamut:F-GamutC to ITU-R BT.709
#Version:1.00
LUT_3D_SIZE 5
0.000000 0.000000 0.000000
0.340701 0.069920 0.065597
0.860531 0.491985 0.452297
0.860531 0.491985 0.452297
0.860531 0.491985 0.452297
0.000447 0.160614 0.028436
0.109787 0.103523 0.009933
0.800234 0.375505 0.345011
0.860531 0.491985 0.452297
0.860531 0.491985 0.452297
0.112810 0.874008 0.300719
0.000000 0.741667 0.225593
0.811248 0.766955 0.330731
0.940100 0.722482 0.487328
0.916329 0.627691 0.480958
0.261171 0.899288 0.338237
0.261171 0.899288 0.338237
0.561240 0.935161 0.377333
0.953788 0.964267 0.431435
0.954209 0.922550 0.456672
0.320378 0.910743 0.475183
0.261171 0.899288 0.338237
0.319624 0.905303 0.342419
0.854081 0.967215 0.403645
0.948322 0.975217 0.329423
0.003313 0.002840 0.053782
0.283227 0.056815 0.103927
0.860531 0.491985 0.452297
0.860531 0.491985 0.452297
0.860531 0.491985 0.452297
0.041223 0.222371 0.237410
0.116211 0.116211 0.116211
0.779737 0.343331 0.324590
0.860531 0.491985 0.452297
0.860531 0.491985 0.452297
0.211261 0.904894 0.663001
0.000000 0.792323 0.444676
0.789907 0.784270 0.434610
0.944580 0.739026 0.501755
0.921986 0.641229 0.482070
0.340868 0.920642 0.670296
0.324085 0.913926 0.517605
0.524284 0.931569 0.432793
0.952599 0.972555 0.477538
0.954984 0.929526 0.461555
0.351791 0.929564 0.775598
0.335199 0.920115 0.662176
0.362792 0.916396 0.514726
0.831590 0.964969 0.457067
0.950848 0.976030 0.412843
0.051336 0.010129 0.455675
0.296515 0.019493 0.329776
0.875160 0.511821 0.560220
0.872825 0.511972 0.497032
0.860531 0.491985 0.452297
0.153154 0.257899 0.634660
0.172631 0.139675 0.498453
0.797506 0.319193 0.582172
0.875160 0.512494 0.556757
0.869310 0.506729 0.490418
0.225143 0.874688 0.807829
0.102611 0.823190 0.751891
0.807617 0.807617 0.807617
0.977169 0.766940 0.726558
0.947156 0.676796 0.609831
0.365070 0.934828 0.842160
0.356674 0.930750 0.799516
0.542206 0.945652 0.758718
0.973853 0.983285 0.769164
0.966675 0.935918 0.680671
0.365070 0.934828 0.842160
0.365070 0.934828 0.842160
0.359413 0.931036 0.790863
0.845989 0.975393 0.828207
0.964289 0.983988 0.670700
0.103697 0.012973 0.654918
0.405729 0.037787 0.702973
0.859171 0.424892 0.741371
0.869111 0.481473 0.655258
0.872815 0.508181 0.576546
0.103697 0.012973 0.654918
0.143383 0.013730 0.666860
0.728036 0.124110 0.775184
0.860340 0.432546 0.733164
0.868717 0.484827 0.647583
0.179827 0.825727 0.793300
0.203834 0.652602 0.739438
0.715046 0.675239 0.883984
0.972096 0.722445 0.900446
0.950257 0.669409 0.811063
0.365070 0.934828 0.842160
0.365070 0.934828 0.842160
0.508168 0.946239 0.870669
0.970703 0.970703 0.970703
0.988924 0.934372 0.921532
0.365070 0.934828 0.842160
0.365070 0.934828 0.842160
0.365070 0.934828 0.842160
0.803152 0.976169 0.945125
0.991604 0.996930 0.952164
0.103697 0.012973 0.654918
0.245234 0.019749 0.685688
0.748948 0.131612 0.793072
0.823480 0.309593 0.803327
0.855860 0.408944 0.755077
0.108388 0.013867 0.655141
0.119141 0.013951 0.660778
0.636563 0.095841 0.766602
0.747971 0.132316 0.783442
0.827970 0.317831 0.800535
0.205621 0.841472 0.798766
0.196958 0.689076 0.749562
0.589261 0.543840 0.811122
0.909521 0.499147 0.920841
0.884552 0.438761 0.886079
0.365070 0.934828 0.842160
0.365070 0.934828 0.842160
0.475912 0.943637 0.865871
0.939826 0.953720 0.976375
0.988561 0.888946 0.985063
0.365070 0.934828 0.842160
0.365070 0.934828 0.842160
0.365070 0.934828 0.842160
0.767575 0.973320 0.933183
1.000000 1.000000 1.000000
