luts/XH2S_FLog2C_FGamutC_to_ETERNA-BB_BT.709_33grid_V.1.00.cube
#title:FLog2C_FGamutC_to_ETERNA-BB_BT.709
#FUJIFILM Corporation
#Gamma:F-Log2C to ETERNA BLEACH BYPASS
#Gamut:F-GamutC to ITU-R BT.709
#Version:1.00
LUT_3D_SIZE 33
0.000000 0.000000 0.000000
0.000000 0.000000 0.000000
0.010752 0.000419 0.003906
0.030102 0.006647 0.006751
0.060989 0.010283 0.009817
0.095590 0.013500 0.013859
0.143481 0.023421 0.017062
0.225379 0.043559 0.032652
0.340701 0.069920 0.065597
0.466775 0.096028 0.105911
0.583648 0.134658 0.157273
0.670008 0.190642 0.207883
0.729578 0.254581 0.244957
0.795352 0.366927 0.359164
0.853312 0.475829 0.443063
0.860531 0.491985 0.452297
0.860531 0.491985 0.452297
0.860531 0.491985 0.452297
0.860531 0.491985 0.452297
0.860531 0.491985 0.452297
0.860531 0.491985 0.452297
0.860531 0.491985 0.452297
0.860531 0.491985 0.452297
0.860531 0.491985 0.452297
0.860531 0.491985 0.452297
0.860531 0.491985 0.452297
0.860531 0.491985 0.452297
0.860531 0.491985 0.452297
0.860531 0.491985 0.452297
0.860531 0.491985 0.452297
0.860531 0.491985 0.452297
0.860531 0.491985 0.452297
0.860531 0.491985 0.452297
0.000000 0.000000 0.000000
0.000000 0.000000 0.000000
0.000000 0.000000 0.000000
0.023458 0.003464 0.006305
0.046913 0.007264 0.010878
0.078778 0.012884 0.009731
0.121000 0.019926 0.016926
0.185895 0.035459 0.023727
0.293596 0.059004 0.048328
0.414979 0.084218 0.088418
0.538506 0.114700 0.138583
0.639926 0.163685 0.185731
0.708878 0.227732 0.231901
0.765491 0.314669 0.312513
0.831454 0.435372 0.408883
0.860531 0.491985 0.452297
0.860531 0.491985 0.452297
0.860531 0.491985 0.452297
0.860531 0.491985 0.452297
0.860531 0.491985 0.452297
0.860531 0.491985 0.452297
0.860531 0.491985 0.452297
0.860531 0.491985 0.452297
0.860531 0.491985 0.452297
0.860531 0.491985 0.452297
0.860531 0.491985 0.452297
0.860531 0.491985 0.452297
0.860531 0.491985 0.452297
0.860531 0.491985 0.452297
0.860531 0.491985 0.452297
0.860531 0.491985 0.452297
0.860531 0.491985 0.452297
0.860531 0.491985 0.452297
0.000000 0.000000 0.000000
0.000000 0.000000 0.000000
0.000000 0.000000 0.000000
0.014467 0.000337 0.003152
0.032446 0.006926 0.007727
0.067049 0.010481 0.010039
0.099889 0.016405 0.013328
0.154816 0.026827 0.021191
0.244729 0.049114 0.038957
0.362205 0.070758 0.073409
0.488862 0.099516 0.115676
0.599475 0.144621 0.167261
0.682511 0.200021 0.212457
0.737582 0.267726 0.250507
0.807454 0.387630 0.375013
0.858578 0.490032 0.450344
0.860531 0.491985 0.452297
0.860531 0.491985 0.452297
0.860531 0.491985 0.452297
0.860531 0.491985 0.452297
0.860531 0.491985 0.452297
0.860531 0.491985 0.452297
0.860531 0.491985 0.452297
0.860531 0.491985 0.452297
0.860531 0.491985 0.452297
0.860531 0.491985 0.452297
0.860531 0.491985 0.452297
0.860531 0.491985 0.452297
0.860531 0.491985 0.452297
0.860531 0.491985 0.452297
0.860531 0.491985 0.452297
0.860531 0.491985 0.452297
0.860531 0.491985 0.452297
0.000575 0.013981 0.003597
0.000000 0.006671 0.000445
0.000583 0.002987 0.000222
0.003715 0.000000 0.000000
0.025802 0.003743 0.007281
0.048283 0.006902 0.009149
0.085814 0.013721 0.012660
0.131361 0.023027 0.016618
0.200553 0.040792 0.026347
0.314315 0.063525 0.056364
0.437460 0.086032 0.097207
0.558832 0.121233 0.145864
0.653015 0.175378 0.193989
0.722944 0.240738 0.239407
0.778568 0.335341 0.334527
0.839650 0.451498 0.424284
0.860531 0.491985 0.452297
0.860531 0.491985 0.452297
0.860531 0.491985 0.452297
0.860531 0.491985 0.452297
0.860531 0.491985 0.452297
0.860531 0.491985 0.452297
0.860531 0.491985 0.452297
0.860531 0.491985 0.452297
0.860531 0.491985 0.452297
0.860531 0.491985 0.452297
0.860531 0.491985 0.452297
0.860531 0.491985 0.452297
0.860531 0.491985 0.452297
0.860531 0.491985 0.452297
0.860531 0.491985 0.452297
0.860531 0.491985 0.452297
0.860531 0.491985 0.452297
0.000000 0.035331 0.007639
0.000000 0.026346 0.003512
0.000000 0.019676 0.003066
0.003505 0.017584 0.003066
0.016995 0.017280 0.003512
0.043390 0.013350 0.005910
0.068418 0.009783 0.010039
0.108294 0.016881 0.014526
0.167128 0.031881 0.022835
0.264470 0.053333 0.042554
0.387222 0.078185 0.080914
0.507427 0.108085 0.125663
0.617063 0.152548 0.174542
0.694623 0.210737 0.219739
0.744801 0.284555 0.256281
0.817209 0.408391 0.388151
0.860531 0.491985 0.452297
0.860531 0.491985 0.452297
0.860531 0.491985 0.452297
0.860531 0.491985 0.452297
0.860531 0.491985 0.452297
0.860531 0.491985 0.452297
0.860531 0.491985 0.452297
0.860531 0.491985 0.452297
0.860531 0.491985 0.452297
0.860531 0.491985 0.452297
0.860531 0.491985 0.452297
0.860531 0.491985 0.452297
0.860531 0.491985 0.452297
0.860531 0.491985 0.452297
0.860531 0.491985 0.452297
0.860531 0.491985 0.452297
0.860531 0.491985 0.452297
0.000000 0.059002 0.005737
0.000000 0.051995 0.007023
0.000353 0.043987 0.003871
0.000162 0.038319 0.007864
0.013652 0.037679 0.010039
0.041609 0.038384 0.010177
0.070351 0.035407 0.010090
0.098309 0.035440 0.013688
0.145032 0.038714 0.019905
0.223225 0.048613 0.029413
0.337188 0.063667 0.064177
0.460131 0.093181 0.103734
0.577789 0.128127 0.154875
0.666495 0.185062 0.203000
0.731339 0.252209 0.243980
0.790277 0.357719 0.351351
0.846476 0.468993 0.436227
0.860531 0.491985 0.452297
0.860531 0.491985 0.452297
0.860531 0.491985 0.452297
0.860531 0.491985 0.452297
0.860531 0.491985 0.452297
0.860531 0.491985 0.452297
0.860531 0.491985 0.452297
0.860531 0.491985 0.452297
0.860531 0.491985 0.452297
0.860531 0.491985 0.452297
0.860531 0.491985 0.452297
0.860531 0.491985 0.452297
0.860531 0.491985 0.452297
0.860531 0.491985 0.452297
0.860531 0.491985 0.452297
0.860531 0.491985 0.452297
0.000314 0.088639 0.013910
0.000000 0.078342 0.010535
0.000000 0.069996 0.009113
0.000142 0.061652 0.007690
0.000000 0.054006 0.006271
0.032206 0.059594 0.011289
0.058210 0.059018 0.006012
0.091835 0.060923 0.010809
0.133283 0.060989 0.013120
0.194080 0.066276 0.023468
0.298468 0.075890 0.051394
0.415362 0.094210 0.087356
0.534983 0.120115 0.137075
0.636605 0.162092 0.185509
0.705949 0.224467 0.230704
0.760024 0.308144 0.300485
0.825595 0.429513 0.403024
0.860531 0.491985 0.452297
0.860531 0.491985 0.452297
0.860531 0.491985 0.452297
0.860531 0.491985 0.452297
0.860531 0.491985 0.452297
0.860531 0.491985 0.452297
0.860531 0.491985 0.452297
0.860531 0.491985 0.452297
0.860531 0.491985 0.452297
0.860531 0.491985 0.452297
0.860531 0.491985 0.452297
0.860531 0.491985 0.452297
0.860531 0.491985 0.452297
0.860531 0.491985 0.452297
0.860531 0.491985 0.452297
0.860531 0.491985 0.452297
0.000094 0.117972 0.017645
0.000000 0.106000 0.013294
0.000000 0.100002 0.009387
0.000000 0.092323 0.014132
0.000516 0.082641 0.010004
0.023198 0.079130 0.011426
0.054286 0.076094 0.014046
0.084588 0.078088 0.009970
0.122905 0.081223 0.013258
0.175296 0.086369 0.020675
0.265217 0.096990 0.038528
0.379571 0.109026 0.079234
0.499786 0.127595 0.122339
0.608838 0.168735 0.172726
0.691292 0.220812 0.219430
0.743240 0.280593 0.255083
0.805893 0.384003 0.372083
0.855065 0.484452 0.445461
0.860531 0.491985 0.452297
0.860531 0.491985 0.452297
0.860531 0.491985 0.452297
0.860531 0.491985 0.452297
0.860531 0.491985 0.452297
0.860531 0.491985 0.452297
0.860531 0.491985 0.452297
0.860531 0.491985 0.452297
0.860531 0.491985 0.452297
0.860531 0.491985 0.452297
0.860531 0.491985 0.452297
0.860531 0.491985 0.452297
0.860531 0.491985 0.452297
0.860531 0.491985 0.452297
0.860531 0.491985 0.452297
0.000447 0.160614 0.028436
0.000000 0.146969 0.023110
0.000276 0.134636 0.017027
0.003607 0.124561 0.017336
0.000295 0.111974 0.013739
0.006557 0.105500 0.013516
0.046051 0.103613 0.013876
0.074794 0.101307 0.010328
0.109787 0.103523 0.009933
0.155534 0.106158 0.013445
0.236464 0.113988 0.026414
0.345152 0.124154 0.065923
0.460675 0.141827 0.108803
0.579703 0.176413 0.158216
0.673886 0.229214 0.213262
0.746553 0.293851 0.255219
0.800234 0.375505 0.345011
0.847453 0.471986 0.426820
0.862868 0.503596 0.454918
0.861700 0.497623 0.454473
0.861508 0.492962 0.453274
0.860531 0.491985 0.452297
0.860531 0.491985 0.452297
0.860531 0.491985 0.452297
0.860531 0.491985 0.452297
0.860531 0.491985 0.452297
0.860531 0.491985 0.452297
0.860531 0.491985 0.452297
0.860531 0.491985 0.452297
0.860531 0.491985 0.452297
0.860531 0.491985 0.452297
0.860531 0.491985 0.452297
0.860531 0.491985 0.452297
0.000000 0.231613 0.041988
0.000000 0.208951 0.038699
0.000227 0.189947 0.032172
0.000000 0.170969 0.029106
0.000649 0.154952 0.022801
0.000074 0.140634 0.020933
0.035269 0.135507 0.023553
0.070857 0.129714 0.020007
0.101552 0.129697 0.016683
0.143976 0.131412 0.016512
0.213573 0.136844 0.020160
0.313269 0.144892 0.051324
0.428793 0.162230 0.095938
0.550559 0.194748 0.148808
0.656469 0.248609 0.210468
0.739888 0.313666 0.256332
0.792030 0.378778 0.289723
0.844916 0.470070 0.409070
0.877506 0.530583 0.466020
0.874385 0.522658 0.463622
0.869895 0.515428 0.461222
0.866381 0.509177 0.459801
0.861891 0.501947 0.457402
0.861114 0.494636 0.454250
0.860531 0.491985 0.452297
0.860531 0.491985 0.452297
0.860531 0.491985 0.452297
0.860531 0.491985 0.452297
0.860531 0.491985 0.452297
0.860531 0.491985 0.452297
0.860531 0.491985 0.452297
0.860531 0.491985 0.452297
0.860531 0.491985 0.452297
0.000301 0.327892 0.066949
0.000000 0.297584 0.062238
0.000158 0.267585 0.052336
0.000571 0.243585 0.046341
0.000590 0.221259 0.041321
0.000217 0.200270 0.039008
0.010596 0.181381 0.031950
0.058698 0.173972 0.029602
0.094678 0.166169 0.026809
0.135934 0.163592 0.017540
0.194385 0.169943 0.019987
0.285284 0.180532 0.044007
0.402961 0.193489 0.088398
0.522774 0.224054 0.139317
0.639245 0.274345 0.200222
0.734000 0.341800 0.255406
0.811742 0.415981 0.303445
0.847061 0.480045 0.394918
0.876328 0.538295 0.455105
0.879247 0.550538 0.470062
0.880426 0.544845 0.470594
0.875745 0.533291 0.465266
0.877314 0.525923 0.464819
0.870479 0.518416 0.461445
0.867357 0.510489 0.459046
0.862868 0.503596 0.454918
0.861700 0.497623 0.454473
0.860531 0.491985 0.452297
0.860531 0.491985 0.452297
0.860531 0.491985 0.452297
0.860531 0.491985 0.452297
0.860531 0.491985 0.452297
0.860531 0.491985 0.452297
0.000000 0.438173 0.108598
0.000000 0.405220 0.092304
0.000846 0.374187 0.084133
0.000000 0.343574 0.074984
0.000703 0.314552 0.066059
0.000000 0.284578 0.059617
0.000168 0.256590 0.048961
0.022860 0.241075 0.052200
0.080546 0.229457 0.046392
0.123955 0.221489 0.042090
0.179094 0.217942 0.027098
0.261979 0.226717 0.047211
0.374964 0.241132 0.079265
0.500647 0.266561 0.132668
0.623370 0.320702 0.200188
0.734353 0.386123 0.257547
0.815811 0.459549 0.308293
0.854864 0.505574 0.371496
0.879247 0.555916 0.442375
0.896424 0.583474 0.478148
0.895064 0.573177 0.474773
0.888622 0.563659 0.472153
0.883154 0.555454 0.468777
0.880034 0.546854 0.469839
0.878281 0.538567 0.465711
0.877506 0.530583 0.466020
0.874385 0.522658 0.463622
0.869895 0.515428 0.461222
0.866381 0.509177 0.459801
0.861891 0.501947 0.457402
0.861114 0.494636 0.454250
0.860531 0.491985 0.452297
0.860531 0.491985 0.452297
0.000000 0.559784 0.151890
0.000000 0.524454 0.144249
0.000154 0.490802 0.127956
0.000000 0.456174 0.110687
0.000022 0.422524 0.094395
0.000635 0.392189 0.086222
0.000000 0.359566 0.077829
0.000000 0.334557 0.077023
0.041365 0.317630 0.072054
0.111957 0.302385 0.068199
0.173549 0.294673 0.066297
0.247454 0.293359 0.059117
0.356141 0.305205 0.089972
0.479084 0.333038 0.138184
0.610807 0.379646 0.203750
0.734698 0.441440 0.263062
0.823000 0.510372 0.318999
0.866171 0.549694 0.345950
0.892518 0.587634 0.432712
0.911456 0.611477 0.474429
0.909894 0.606169 0.480152
0.904428 0.597964 0.476777
0.898377 0.586435 0.474911
0.895256 0.577502 0.477703
0.890181 0.567622 0.473350
0.887060 0.559696 0.470954
0.879247 0.550538 0.470062
0.879843 0.542194 0.468641
0.875745 0.533291 0.465266
0.877314 0.525923 0.464819
0.870479 0.518416 0.461445
0.867357 0.510489 0.459046
0.862868 0.503596 0.454918
0.000000 0.676038 0.193984
0.000602 0.646040 0.184083
0.000631 0.613391 0.172226
0.000000 0.579764 0.159394
0.000498 0.543432 0.147317
0.000000 0.509470 0.136215
0.000365 0.474481 0.117214
0.000000 0.442193 0.107090
0.000022 0.419835 0.108238
0.084889 0.400604 0.104605
0.155672 0.389011 0.107139
0.245221 0.380659 0.112297
0.347858 0.385683 0.117058
0.463180 0.411036 0.155195
0.599795 0.453885 0.210157
0.729163 0.511545 0.276391
0.818260 0.566133 0.327001
0.885662 0.616903 0.359946
0.906563 0.628007 0.419278
0.916711 0.641381 0.460859
0.922178 0.645553 0.485000
0.918865 0.633303 0.479672
0.913791 0.622078 0.482241
0.912432 0.611445 0.480597
0.906965 0.602568 0.480684
0.900914 0.591038 0.478817
0.895448 0.582498 0.477172
0.895064 0.573177 0.474773
0.888622 0.563659 0.472153
0.883154 0.555454 0.468777
0.880034 0.546854 0.469839
0.878281 0.538567 0.465711
0.877506 0.530583 0.466020
0.000000 0.760639 0.238288
0.000000 0.741331 0.227325
0.000000 0.718674 0.214407
0.000000 0.690381 0.199313
0.000000 0.665379 0.188878
0.000028 0.632395 0.178755
0.000449 0.598071 0.165922
0.000000 0.564109 0.154821
0.000000 0.535449 0.147625
0.031413 0.512738 0.147178
0.151275 0.494377 0.150074
0.253137 0.489400 0.165528
0.354213 0.488780 0.177741
0.464079 0.500308 0.181442
0.598157 0.538553 0.232496
0.724795 0.587287 0.291896
0.818595 0.632446 0.335890
0.887376 0.672195 0.362001
0.911215 0.681620 0.388008
0.925279 0.683872 0.450886
0.930746 0.685691 0.487140
0.931733 0.675337 0.486473
0.928420 0.662079 0.486335
0.922762 0.648876 0.483493
0.921010 0.639581 0.484555
0.917305 0.628667 0.481934
0.914969 0.617058 0.479312
0.909894 0.606169 0.480152
0.904428 0.597964 0.476777
0.898377 0.586435 0.474911
0.895256 0.577502 0.477703
0.890181 0.567622 0.473350
0.887060 0.559696 0.470954
0.000000 0.824928 0.267192
0.000062 0.808271 0.258179
0.000000 0.793288 0.250145
0.000000 0.773643 0.240910
0.000000 0.751989 0.232428
0.000000 0.731008 0.220489
0.000352 0.706006 0.210056
0.000180 0.680027 0.198644
0.000000 0.651061 0.187012
0.000028 0.630714 0.187407
0.136701 0.613642 0.190970
0.255969 0.602281 0.202206
0.368773 0.602048 0.224496
0.478639 0.610888 0.242040
0.600031 0.629476 0.256257
0.718666 0.666407 0.303183
0.816582 0.700159 0.335153
0.886349 0.729219 0.362324
0.925240 0.745664 0.372672
0.936575 0.737307 0.437366
0.938339 0.727542 0.474462
0.940300 0.715476 0.488614
0.937965 0.703528 0.487722
0.935629 0.691247 0.488563
0.930948 0.678685 0.488426
0.928611 0.667074 0.485804
0.923537 0.656523 0.484915
0.922178 0.645553 0.485000
0.918865 0.633303 0.479672
0.913791 0.622078 0.482241
0.912432 0.611445 0.480597
0.907941 0.603544 0.481660
0.900914 0.591038 0.478817
0.112810 0.874008 0.300719
0.058666 0.860238 0.290902
0.000415 0.847888 0.284546
0.000000 0.832600 0.272075
0.000000 0.817618 0.264039
0.000000 0.800959 0.255027
0.000000 0.784302 0.246015
0.000000 0.762312 0.239264
0.000000 0.741667 0.225593
0.000331 0.726315 0.225456
0.136805 0.715914 0.229465
0.264085 0.706703 0.242878
0.380997 0.704378 0.265168
0.490280 0.709559 0.285949
0.604444 0.721977 0.299501
0.713715 0.742523 0.301161
0.811248 0.766955 0.330731
0.879656 0.786051 0.352796
0.928323 0.801939 0.366074
0.941420 0.792892 0.421140
0.942800 0.773469 0.457567
0.944761 0.758042 0.489023
0.944771 0.746039 0.490839
0.942435 0.734429 0.488219
0.940100 0.722482 0.487328
0.936394 0.710562 0.489898
0.935427 0.698253 0.487277
0.929770 0.684715 0.486164
0.931733 0.675337 0.486473
0.928420 0.662079 0.486335
0.922762 0.648876 0.483493
0.921010 0.639581 0.484555
0.916329 0.627691 0.480958
0.235953 0.897186 0.338101
0.224224 0.896126 0.331488
0.187277 0.893639 0.321278
0.149947 0.881829 0.308668
0.094437 0.868757 0.298852
0.019765 0.854117 0.287391
0.000000 0.840914 0.279664
0.000000 0.826602 0.268169
0.000000 0.809945 0.259156
0.000072 0.797275 0.254804
0.150620 0.789557 0.259480
0.272031 0.786154 0.266948
0.381121 0.787347 0.283069
0.489426 0.792226 0.299413
0.604374 0.799614 0.319664
0.710133 0.811892 0.330285
0.800447 0.826552 0.317742
0.869450 0.837976 0.334926
0.920270 0.848811 0.351442
0.943928 0.845268 0.359031
0.947451 0.824058 0.441871
0.949222 0.802961 0.477320
0.949626 0.787603 0.486813
0.950612 0.777248 0.486144
0.946906 0.765664 0.486984
0.944571 0.753381 0.487824
0.942235 0.741435 0.486933
0.940292 0.727142 0.488528
0.940300 0.715476 0.488614
0.937965 0.703528 0.487722
0.935629 0.691247 0.488563
0.930948 0.678685 0.488426
0.928611 0.667074 0.485804
0.245336 0.899311 0.336817
0.245336 0.899311 0.336817
0.235953 0.897186 0.338101
0.235953 0.897186 0.338101
0.235953 0.897186 0.338101
0.211128 0.894756 0.330067
0.168903 0.888723 0.317678
0.118477 0.875543 0.303648
0.058666 0.860238 0.290902
0.000000 0.848585 0.284546
0.173443 0.844337 0.285898
0.280580 0.845594 0.289684
0.387717 0.845170 0.302121
0.492699 0.849129 0.314782
0.596504 0.857773 0.332102
0.696594 0.867506 0.344984
0.786716 0.875154 0.343355
0.857491 0.879933 0.321577
0.908119 0.886106 0.336895
0.945067 0.889267 0.343644
0.947613 0.869096 0.415125
0.950754 0.846295 0.455765
0.950764 0.829587 0.481809
0.952143 0.817222 0.481894
0.951761 0.807229 0.482958
0.949424 0.794946 0.483796
0.951387 0.785232 0.485836
0.947098 0.770661 0.486454
0.944761 0.758042 0.489023
0.944771 0.746039 0.490839
0.942435 0.734429 0.488219
0.940100 0.722482 0.487328
0.936394 0.710562 0.489898
0.255112 0.898418 0.341476
0.245336 0.899311 0.336817
0.245336 0.899311 0.336817
0.245336 0.899311 0.336817
0.245336 0.899311 0.336817
0.245336 0.899311 0.336817
0.235953 0.897186 0.338101
0.235953 0.897186 0.338101
0.225201 0.897103 0.332465
0.187277 0.893639 0.321278
0.228927 0.888379 0.316223
0.318666 0.885697 0.317386
0.400191 0.886191 0.323742
0.493054 0.890763 0.330765
0.586498 0.897313 0.343204
0.686004 0.904060 0.355863
0.773389 0.911422 0.362886
0.840447 0.914604 0.350516
0.892456 0.917150 0.320926
0.935856 0.917825 0.332114
0.948761 0.907814 0.366944
0.950725 0.886338 0.429551
0.951127 0.864595 0.471921
0.952114 0.853232 0.476446
0.953684 0.844856 0.481192
0.951932 0.835560 0.482254
0.951549 0.825903 0.481587
0.954297 0.812169 0.485133
0.950592 0.800919 0.484241
0.949626 0.787603 0.486813
0.950612 0.777248 0.486144
0.945929 0.764687 0.486007
0.944571 0.753381 0.487824
0.256089 0.900067 0.338992
0.251789 0.897835 0.336062
0.251789 0.897835 0.336062
0.255112 0.898418 0.341476
0.245336 0.899311 0.336817
0.245336 0.899311 0.336817
0.245336 0.899311 0.336817
0.245336 0.899311 0.336817
0.245336 0.899311 0.336817
0.235953 0.897186 0.338101
0.261171 0.899288 0.338237
0.345818 0.907708 0.346992
0.422059 0.916325 0.351086
0.497322 0.924299 0.352473
0.586469 0.928954 0.360249
0.672877 0.935003 0.368027
0.756356 0.938459 0.371144
0.827713 0.941519 0.373817
0.878745 0.941745 0.350173
0.918048 0.940575 0.321644
0.949135 0.935524 0.334649
0.952266 0.918340 0.406351
0.954621 0.899223 0.447214
0.952869 0.886565 0.465581
0.953071 0.879559 0.466867
0.952688 0.868222 0.474851
0.951912 0.859903 0.476891
0.952899 0.850221 0.472762
0.953885 0.838185 0.480746
0.950764 0.829587 0.481809
0.952143 0.817222 0.481894
0.951761 0.807229 0.482958
0.949424 0.794946 0.483796
0.261171 0.899288 0.338237
0.261171 0.899288 0.338237
0.261171 0.899288 0.338237
0.256089 0.900067 0.338992
0.251789 0.897835 0.336062
0.251789 0.897835 0.336062
0.251789 0.897835 0.336062
0.255112 0.898418 0.341476
0.245336 0.899311 0.336817
0.245336 0.899311 0.336817
0.245336 0.899311 0.336817
0.305157 0.903957 0.344457
0.381396 0.911902 0.352011
0.474056 0.922808 0.361211
0.564956 0.935413 0.374848
0.654484 0.949390 0.385023
0.736785 0.958538 0.387609
0.807167 0.960287 0.391035
0.862496 0.959720 0.385894
0.900823 0.958918 0.349468
0.935435 0.955509 0.327641
0.950686 0.945441 0.365179
0.951471 0.929994 0.425524
0.954802 0.913197 0.460442
0.955004 0.905855 0.463457
0.954229 0.897871 0.463764
0.955799 0.890168 0.465050
0.953262 0.884220 0.468066
0.954248 0.873530 0.469130
0.955818 0.865153 0.473874
0.952114 0.853232 0.476446
0.953684 0.844856 0.481192
0.952325 0.833886 0.481278
0.261171 0.899288 0.338237
0.261171 0.899288 0.338237
0.261171 0.899288 0.338237
0.261171 0.899288 0.338237
0.261171 0.899288 0.338237
0.261171 0.899288 0.338237
0.256089 0.900067 0.338992
0.256089 0.900067 0.338992
0.251789 0.897835 0.336062
0.251789 0.897835 0.336062
0.255112 0.898418 0.341476
0.278961 0.900880 0.343344
0.345818 0.908044 0.345262
0.421667 0.916989 0.357254
0.502205 0.927838 0.364277
0.593103 0.940108 0.379644
0.687717 0.953639 0.387336
0.776078 0.960634 0.402258
0.839614 0.966206 0.403953
0.885752 0.969855 0.392644
0.919780 0.968837 0.342906
0.945592 0.964610 0.331238
0.949891 0.954070 0.399926
0.953808 0.939252 0.440258
0.953031 0.928917 0.452679
0.954209 0.922550 0.456672
0.954018 0.917218 0.458933
0.954219 0.909874 0.461949
0.953443 0.901557 0.463989
0.955991 0.894828 0.466251
0.952869 0.886565 0.465581
0.953071 0.879559 0.466867
0.953664 0.869534 0.474097
0.261171 0.899288 0.338237
0.261171 0.899288 0.338237
0.261171 0.899288 0.338237
0.261171 0.899288 0.338237
0.261171 0.899288 0.338237
0.261171 0.899288 0.338237
0.261171 0.899288 0.338237
0.261171 0.899288 0.338237
0.261171 0.899288 0.338237
0.261171 0.899288 0.338237
0.256089 0.900067 0.338992
0.256089 0.900067 0.338992
0.312586 0.903457 0.344679
0.374359 0.911063 0.349081
0.446493 0.920764 0.358367
0.534461 0.930105 0.370804
0.623991 0.943744 0.382710
0.712936 0.955068 0.390933
0.793867 0.963235 0.402172
0.856425 0.967830 0.402890
0.901196 0.971505 0.395044
0.931508 0.973593 0.330484
0.948322 0.971185 0.350187
0.949298 0.959726 0.415191
0.952821 0.949270 0.442657
0.952629 0.943938 0.444917
0.953808 0.937236 0.450640
0.952246 0.932601 0.452902
0.953424 0.926570 0.455164
0.953626 0.919227 0.458180
0.954802 0.913197 0.460442
0.955004 0.905855 0.463457
0.954229 0.897871 0.463764
0.261171 0.899288 0.338237
0.261171 0.899288 0.338237
0.261171 0.899288 0.338237
0.261171 0.899288 0.338237
0.261171 0.899288 0.338237
0.261171 0.899288 0.338237
0.261171 0.899288 0.338237
0.261171 0.899288 0.338237
0.261171 0.899288 0.338237
0.261171 0.899288 0.338237
0.261171 0.899288 0.338237
0.261171 0.899288 0.338237
0.291081 0.901946 0.340328
0.343473 0.907765 0.344286
0.407592 0.914307 0.356587
0.479724 0.924343 0.364141
0.561240 0.935161 0.377333
0.646471 0.947239 0.382848
0.734047 0.958589 0.394530
0.814395 0.963769 0.405548
0.869524 0.969537 0.402581
0.913709 0.970896 0.391051
0.941284 0.974380 0.326493
0.949680 0.974426 0.389903
0.953788 0.964267 0.431435
0.953205 0.960272 0.436403
0.951251 0.957310 0.439639
0.952428 0.951281 0.441902
0.953606 0.945251 0.444164
0.953021 0.941256 0.449133
0.954199 0.935562 0.449663
0.953031 0.928917 0.452679
0.954209 0.922550 0.456672
0.261171 0.899288 0.338237
0.261171 0.899288 0.338237
0.261171 0.899288 0.338237
0.261171 0.899288 0.338237
0.261171 0.899288 0.338237
0.261171 0.899288 0.338237
0.261171 0.899288 0.338237
0.261171 0.899288 0.338237
0.261171 0.899288 0.338237
0.261171 0.899288 0.338237
0.261171 0.899288 0.338237
0.261171 0.899288 0.338237
0.268209 0.900461 0.339438
0.318647 0.904326 0.341442
0.370645 0.911482 0.348105
0.431049 0.919114 0.355968
0.502205 0.927838 0.364277
0.585091 0.937958 0.377469
0.669927 0.951039 0.387421
0.756920 0.959738 0.397153
0.828468 0.966116 0.407946
0.883014 0.969569 0.401297
0.921139 0.971740 0.384352
0.948322 0.975217 0.329423
0.950265 0.975059 0.402238
0.950848 0.973341 0.426688
0.951241 0.970658 0.430901
0.951050 0.966334 0.427972
0.952811 0.962282 0.435648
0.952228 0.958960 0.437156
0.952036 0.953290 0.441149
0.952821 0.949270 0.442657
0.952629 0.943938 0.444917
0.277200 0.900563 0.358164
0.261171 0.899288 0.338237
0.261171 0.899288 0.338237
0.261171 0.899288 0.338237
0.261171 0.899288 0.338237
0.261171 0.899288 0.338237
0.261171 0.899288 0.338237
0.261171 0.899288 0.338237
0.261171 0.899288 0.338237
0.261171 0.899288 0.338237
0.261171 0.899288 0.338237
0.261171 0.899288 0.338237
0.261171 0.899288 0.338237
0.300466 0.903399 0.342504
0.350510 0.908937 0.345484
0.409938 0.914585 0.357563
0.474056 0.922808 0.361211
0.543452 0.933231 0.373958
0.617930 0.943884 0.380757
0.695146 0.952803 0.389289
0.778424 0.960912 0.403234
0.845675 0.966066 0.405906
0.892397 0.971695 0.400012
0.928962 0.972591 0.368023
